P3
400 225
255
174 197 0
172 196 0
174 197 0
173 197 0
173 196 0
173 197 0
174 198 0
173 197 0
173 196 0
174 198 0
174 197 0
174 197 0
171 194 0
175 198 0
174 197 0
174 197 0
174 197 0
173 197 0
176 198 0
174 197 0
174 197 0
175 198 0
174 197 0
173 197 0
174 197 0
175 198 0
172 196 0
175 198 0
174 198 0
175 197 0
174 198 0
174 197 0
174 197 0
176 199 0
173 196 0
174 197 0
172 196 0
172 196 0
173 197 0
174 197 0
174 198 0
172 196 0
173 197 0
176 198 0
172 196 0
173 197 0
174 197 0
172 195 0
172 195 0
172 196 0
175 198 0
173 197 0
174 197 0
173 197 0
173 197 0
172 196 0
175 198 0
172 196 0
174 197 0
174 197 0
173 196 0
172 196 0
173 197 0
174 198 0
171 194 0
176 199 0
172 195 0
176 199 0
175 198 0
175 198 0
175 198 0
173 197 0
170 194 0
171 195 0
174 197 0
174 197 0
173 196 0
174 198 0
174 197 0
173 196 0
173 196 0
173 197 0
174 198 0
171 196 0
175 198 0
176 198 0
173 196 0
173 196 0
173 196 0
174 197 0
174 197 0
170 194 0
172 196 0
174 197 0
174 197 0
175 197 0
174 197 0
174 197 0
173 196 0
173 197 0
172 196 0
175 197 0
174 197 0
173 197 0
174 197 0
171 195 0
173 196 0
174 197 0
174 197 0
174 198 0
175 198 0
173 196 0
172 196 0
171 194 0
174 197 0
174 197 0
173 196 0
174 197 0
173 196 0
173 196 0
173 197 0
174 198 0
173 197 0
174 196 0
174 197 0
176 199 0
173 196 0
170 193 0
175 198 0
172 196 0
173 197 0
174 197 0
173 196 0
172 196 0
171 194 0
172 195 0
173 196 0
172 195 0
174 198 0
174 197 0
171 195 0
174 197 0
172 195 0
173 196 0
173 197 0
173 197 0
170 193 0
173 196 0
174 197 0
174 196 0
172 196 0
173 196 0
170 193 0
174 197 0
172 196 0
173 197 0
171 194 0
175 198 0
174 197 0
174 197 0
173 197 0
173 196 0
174 197 0
174 197 0
174 197 0
173 196 0
174 197 0
175 198 0
173 197 0
173 196 0
172 196 0
175 198 0
174 196 0
173 196 0
172 196 0
174 196 0
170 194 0
172 196 0
172 195 0
174 197 0
172 196 0
173 196 0
173 196 0
171 195 0
173 195 0
174 197 0
174 197 0
172 196 0
171 195 0
172 196 0
173 196 0
170 195 0
176 199 0
174 197 0
172 196 0
174 197 0
172 196 0
173 196 0
171 195 0
172 196 0
174 197 0
175 198 0
172 197 0
172 195 0
173 196 0
174 197 0
171 195 0
173 196 0
172 195 0
173 197 0
172 195 0
174 197 0
174 197 0
174 197 0
173 197 0
174 197 0
174 197 0
174 197 0
173 197 0
173 196 0
174 197 0
172 195 0
173 197 0
173 196 0
172 195 0
174 196 0
173 196 0
173 196 0
176 198 0
174 197 0
175 198 0
174 196 0
174 197 0
173 197 0
173 196 0
171 195 0
173 196 0
172 195 0
174 196 11
170 191 16
171 193 11
171 193 11
166 186 16
166 184 22
172 190 36
165 180 42
162 174 47
165 177 45
165 175 51
165 172 60
170 174 69
162 165 69
169 169 77
164 162 75
166 165 75
164 160 78
164 156 91
175 166 99
173 165 97
177 167 104
176 167 103
173 165 103
178 170 108
184 175 112
180 171 108
182 173 108
181 173 112
181 173 111
183 175 113
181 174 112
183 175 113
181 174 114
180 174 114
181 174 114
180 174 114
179 173 114
178 173 114
176 172 114
176 172 114
177 172 114
176 172 114
174 171 114
173 171 114
173 171 114
173 171 114
172 170 114
173 171 114
172 170 114
171 170 114
171 169 114
171 169 114
170 169 114
170 169 114
170 169 114
169 169 114
169 169 114
168 168 114
168 169 114
169 169 114
167 168 114
167 168 114
167 168 114
167 168 114
167 168 114
166 168 114
166 167 114
166 167 114
166 167 114
166 167 114
166 167 114
166 167 114
166 167 114
165 167 114
166 167 114
165 167 114
165 167 114
165 167 114
165 167 114
165 167 114
165 167 114
166 167 114
165 167 114
166 167 114
166 167 114
166 167 114
166 167 114
166 168 114
167 168 114
167 168 114
167 168 114
167 168 114
167 168 114
167 168 114
168 168 114
167 168 114
168 168 114
168 168 114
168 168 114
169 169 114
170 169 114
171 170 114
171 170 114
170 169 114
171 170 114
171 170 114
172 170 114
172 170 114
174 171 114
174 171 114
174 171 114
176 172 114
175 172 114
177 172 114
178 173 114
176 172 114
177 173 114
180 174 114
178 173 114
181 174 114
180 173 113
181 174 114
177 171 112
183 175 113
184 175 113
182 173 112
179 171 111
181 172 110
173 165 105
179 169 106
179 170 106
176 166 99
163 155 92
172 166 96
169 164 91
167 162 88
166 164 78
172 172 76
167 173 64
165 173 56
171 178 63
167 176 60
168 181 51
171 187 41
170 189 30
165 183 34
172 195 0
168 190 16
172 196 0
174 197 0
173 197 0
173 196 0
174 198 0
174 197 0
173 197 0
173 197 0
173 196 0
173 197 0
174 198 0
174 198 0
174 196 0
173 197 0
175 198 0
172 196 0
174 197 0
174 197 0
174 198 0
174 198 0
175 198 0
174 197 0
174 197 0
174 198 0
174 197 0
175 198 0
176 199 0
175 198 0
175 198 0
174 198 0
176 198 0
173 197 0
175 198 0
172 196 0
174 197 0
173 197 0
173 197 0
172 196 0
175 198 0
174 197 0
174 198 0
174 198 0
175 198 0
175 198 0
173 197 0
174 197 0
174 197 0
173 197 0
174 197 0
174 197 0
172 196 0
173 197 0
173 196 0
171 195 0
173 197 0
175 198 0
174 197 0
174 197 0
173 196 0
174 198 0
175 198 0
173 196 0
176 198 0
174 197 0
173 196 0
173 196 0
175 198 0
174 197 0
173 196 0
174 197 0
172 195 0
174 197 0
172 196 0
173 197 0
172 196 0
173 197 0
173 197 0
173 197 0
173 197 0
173 197 0
175 198 0
173 197 0
173 196 0
174 198 0
171 195 0
174 197 0
175 198 0
172 196 0
175 198 0
173 197 0
174 197 0
173 197 0
174 197 0
175 198 0
172 197 0
173 196 0
173 196 0
174 197 0
175 198 0
174 198 0
175 197 0
174 198 0
172 195 0
174 197 0
172 196 0
175 198 0
171 195 0
173 196 0
172 196 0
174 197 0
174 197 0
173 196 0
175 198 0
174 196 0
173 197 0
173 197 0
174 198 0
174 197 0
173 197 0
173 196 0
174 197 0
173 197 0
174 197 0
172 196 0
174 197 0
174 197 0
174 197 0
172 195 0
172 195 0
173 197 0
173 197 0
174 198 0
174 197 0
175 197 0
174 197 0
173 196 0
174 197 0
174 197 0
174 196 0
173 197 0
173 197 0
175 198 0
173 197 0
173 197 0
171 194 0
174 197 0
174 196 0
172 196 0
171 194 0
174 197 0
170 194 0
173 197 0
171 195 0
173 196 0
173 196 0
170 194 0
174 197 0
172 196 0
174 197 0
174 196 0
173 197 0
174 197 0
173 196 0
171 195 0
172 196 0
173 196 0
173 197 0
174 197 0
172 196 0
173 197 0
174 197 0
171 195 0
173 196 0
174 198 0
173 197 0
174 197 0
172 196 0
171 194 0
173 196 0
174 197 0
172 195 0
173 196 0
173 196 0
173 197 0
174 197 0
173 196 0
172 196 0
171 194 0
173 196 0
174 196 0
173 196 0
172 196 0
173 195 0
176 198 0
174 197 0
171 194 0
172 195 0
174 197 0
169 192 0
176 198 0
174 197 0
173 197 0
172 196 0
171 195 0
172 196 0
172 196 0
174 197 0
173 196 0
174 197 0
171 195 0
174 197 0
173 196 0
172 195 0
171 195 0
172 195 0
175 198 0
173 197 0
173 196 0
173 196 0
171 195 0
174 197 0
171 192 0
175 198 0
171 195 0
173 196 0
174 197 0
172 196 0
171 194 0
173 197 0
173 195 0
172 196 0
174 197 0
174 197 0
175 198 0
170 194 0
172 195 0
175 198 0
174 196 0
173 196 0
172 196 0
173 196 0
173 195 0
174 197 0
171 194 0
170 193 0
172 195 0
172 195 0
172 196 0
173 196 0
173 197 0
171 196 0
173 196 11
171 194 11
174 194 30
171 187 36
167 188 19
173 191 22
165 181 34
164 178 36
169 180 51
165 176 56
164 169 67
168 171 72
169 174 68
164 164 73
163 165 71
173 169 85
174 169 90
169 163 90
173 164 97
169 161 93
177 167 101
177 168 99
174 165 101
181 172 104
180 171 107
184 175 110
184 174 110
180 172 110
184 175 112
184 175 112
181 174 113
184 176 114
181 174 114
180 174 114
181 174 114
179 173 114
180 174 114
179 173 114
179 173 114
178 173 114
177 172 114
176 172 114
174 171 114
175 172 114
174 171 114
174 171 114
174 171 114
173 171 114
172 170 114
171 170 114
172 170 114
171 170 114
171 170 114
170 169 114
169 169 114
170 169 114
169 169 114
169 169 114
168 169 114
167 168 114
168 168 114
167 168 114
167 168 114
167 168 114
166 168 114
167 168 114
166 168 114
165 167 114
166 167 114
166 167 114
166 167 114
166 167 114
166 167 114
165 167 114
165 167 114
165 167 114
165 167 114
166 167 114
165 167 114
165 167 114
165 167 114
165 167 114
166 167 114
165 167 114
165 167 114
165 167 114
166 168 114
166 167 114
166 167 114
166 167 114
167 168 114
167 168 114
167 168 114
166 168 114
167 168 114
167 168 114
168 168 114
168 168 114
168 168 114
169 169 114
170 169 114
170 169 114
169 169 114
170 169 114
172 170 114
170 169 114
171 170 114
171 170 114
173 170 114
173 170 114
175 171 114
174 171 114
175 171 114
175 172 114
176 172 114
176 172 114
177 172 114
177 172 114
179 173 114
179 173 114
180 174 114
180 174 114
181 174 113
184 176 113
183 175 113
181 174 113
185 176 114
181 173 110
184 175 110
178 170 106
177 167 106
181 171 108
174 165 103
172 163 102
169 160 95
170 161 95
175 169 92
166 159 93
167 164 81
169 171 76
168 171 70
165 172 59
168 175 59
171 182 56
160 174 37
168 184 41
168 188 32
169 190 16
172 195 16
172 194 11
173 195 0
172 195 0
176 198 0
173 196 0
173 196 0
174 197 0
172 196 0
172 194 0
173 196 0
174 198 0
174 197 0
172 196 0
174 197 0
173 196 0
173 197 0
172 196 0
172 196 0
176 198 0
173 196 0
175 198 0
174 197 0
173 197 0
174 197 0
173 197 0
169 193 0
172 196 0
175 198 0
176 199 0
175 198 0
176 198 0
173 196 0
175 198 0
173 197 0
173 197 0
174 197 0
172 195 0
175 198 0
173 196 0
172 196 0
174 197 0
174 198 0
174 197 0
175 198 0
174 197 0
174 197 0
174 197 0
171 196 0
174 197 0
172 196 0
174 197 0
174 197 0
175 198 0
173 197 0
172 195 0
173 196 0
173 197 0
173 197 0
175 198 0
175 198 0
175 198 0
174 198 0
173 197 0
174 197 0
174 197 0
174 197 0
173 197 0
173 197 0
177 199 0
173 197 0
175 198 0
175 198 0
173 196 0
173 197 0
173 197 0
173 196 0
172 196 0
174 197 0
173 196 0
173 197 0
172 195 0
172 196 0
173 196 0
173 197 0
172 197 0
172 197 0
174 198 0
174 197 0
174 198 0
173 196 0
174 197 0
173 197 0
173 197 0
175 198 0
173 196 0
175 198 0
173 197 0
175 198 0
174 197 0
174 197 0
173 196 0
173 197 0
171 195 0
174 197 0
175 198 0
173 196 0
172 196 0
173 196 0
174 198 0
174 197 0
171 194 0
176 199 0
174 197 0
173 196 0
173 196 0
175 198 0
172 195 0
173 197 0
174 198 0
170 194 0
174 197 0
174 197 0
173 197 0
172 196 0
174 197 0
173 196 0
169 193 0
174 197 0
175 198 0
173 197 0
174 198 0
175 198 0
173 196 0
172 195 0
173 197 0
173 197 0
172 196 0
175 198 0
174 197 0
173 197 0
173 197 0
174 198 0
174 197 0
172 196 0
172 196 0
173 196 0
173 196 0
172 195 0
173 197 0
171 193 0
172 195 0
174 196 0
171 195 0
172 196 0
174 197 0
174 197 0
174 197 0
173 197 0
174 197 0
174 197 0
172 196 0
172 196 0
172 196 0
173 196 0
173 196 0
174 197 0
173 196 0
174 197 0
172 195 0
172 195 0
174 197 0
173 196 0
172 195 0
172 195 0
173 196 0
173 196 0
174 197 0
173 197 0
175 198 0
173 195 0
174 197 0
176 198 0
174 197 0
174 197 0
171 194 0
173 197 0
169 192 0
174 197 0
173 196 0
173 195 0
173 196 0
173 196 0
174 197 0
171 194 0
175 197 0
174 197 0
174 197 0
173 197 0
173 196 0
173 196 0
173 196 0
174 196 0
173 197 0
174 196 0
173 197 0
172 195 0
173 197 0
174 196 0
173 195 0
172 196 0
175 198 0
172 195 0
171 195 0
172 196 0
173 196 0
175 198 0
174 196 0
173 196 0
175 198 0
174 198 0
175 198 0
173 196 0
174 197 0
172 195 0
172 196 0
173 196 0
173 195 0
173 196 0
174 197 0
172 195 0
172 195 0
172 195 0
172 196 0
173 196 0
174 197 0
175 198 0
175 198 0
173 196 0
172 196 0
172 196 0
170 194 0
175 197 0
174 197 0
172 196 0
171 195 0
172 195 0
172 195 0
172 195 0
173 197 0
173 196 0
172 196 0
171 193 11
172 192 22
170 189 25
164 182 32
168 186 28
169 186 28
163 178 41
167 181 47
169 181 56
159 168 53
165 172 65
166 171 67
170 172 68
164 166 71
171 168 84
165 162 84
170 166 86
168 161 90
175 167 97
177 167 97
177 168 99
179 170 105
181 172 105
181 173 106
181 173 111
181 172 109
182 174 109
185 176 111
182 174 112
184 176 114
182 174 113
181 174 113
183 175 114
181 174 114
180 174 114
180 174 114
180 174 114
178 173 114
177 172 114
176 172 114
177 172 114
176 172 114
174 171 114
175 172 114
174 171 114
175 171 114
173 170 114
172 170 114
171 170 114
171 170 114
172 170 114
170 169 114
171 170 114
170 169 114
171 169 114
168 168 114
169 169 114
169 169 114
168 168 114
169 169 114
167 168 114
167 168 114
166 168 114
167 168 114
167 168 114
167 168 114
166 167 114
166 168 114
165 167 114
165 167 114
166 167 114
166 167 114
166 167 114
165 167 114
165 167 114
165 167 114
165 167 114
165 167 114
165 167 114
165 167 114
165 167 114
165 167 114
166 167 114
165 167 114
166 167 114
165 167 114
166 167 114
165 167 114
166 167 114
166 167 114
167 168 114
167 168 114
168 168 114
167 168 114
167 168 114
167 168 114
167 168 114
167 168 114
168 169 114
168 169 114
170 169 114
169 169 114
169 169 114
170 169 114
170 169 114
172 170 114
171 170 114
172 170 114
171 170 114
173 170 114
174 171 114
173 171 114
176 172 114
174 171 114
176 172 114
175 171 114
176 172 114
178 173 114
178 173 114
178 173 114
180 174 114
180 174 114
182 175 114
178 173 113
183 175 113
181 174 113
181 174 113
182 173 111
181 172 110
182 173 110
178 169 108
177 168 105
179 170 106
175 165 100
175 165 101
174 165 97
157 151 84
175 169 92
175 169 91
173 172 81
160 165 65
162 167 69
173 180 65
168 177 62
163 176 39
172 189 37
164 181 30
170 188 28
167 188 16
169 193 11
175 197 16
174 197 0
175 198 0
174 197 0
173 196 0
173 197 0
174 198 0
173 197 0
174 198 0
174 197 0
174 198 0
174 198 0
175 198 0
173 196 0
173 197 0
173 197 0
174 197 0
174 198 0
172 195 0
174 198 0
174 198 0
175 197 0
174 197 0
175 198 0
173 197 0
173 197 0
174 198 0
174 197 0
173 196 0
174 197 0
171 196 0
174 197 0
174 197 0
175 198 0
175 198 0
173 197 0
174 197 0
174 197 0
175 198 0
172 196 0
174 196 0
173 196 0
173 196 0
173 196 0
175 198 0
173 196 0
174 197 0
174 197 0
173 197 0
173 197 0
176 199 0
173 197 0
174 198 0
173 197 0
173 197 0
174 197 0
173 197 0
174 198 0
174 197 0
174 198 0
172 196 0
174 197 0
175 198 0
174 197 0
172 195 0
172 196 0
174 197 0
171 195 0
175 197 0
175 198 0
172 196 0
173 197 0
173 197 0
173 197 0
174 198 0
172 196 0
174 198 0
174 197 0
172 196 0
173 196 0
173 196 0
175 198 0
172 196 0
175 198 0
172 196 0
173 197 0
173 197 0
174 197 0
174 196 0
173 195 0
175 198 0
171 196 0
173 196 0
174 198 0
175 198 0
172 196 0
173 196 0
173 196 0
173 196 0
175 198 0
173 196 0
172 196 0
173 197 0
172 196 0
173 197 0
172 196 0
175 198 0
174 197 0
173 197 0
174 197 0
175 198 0
173 197 0
172 196 0
175 198 0
176 198 0
172 196 0
172 195 0
174 197 0
173 197 0
172 195 0
173 197 0
172 196 0
174 198 0
174 197 0
173 197 0
173 196 0
172 196 0
171 195 0
170 194 0
172 196 0
172 196 0
172 196 0
174 197 0
173 196 0
173 196 0
172 196 0
174 197 0
175 198 0
171 195 0
172 195 0
174 197 0
173 196 0
172 196 0
173 197 0
172 196 0
175 198 0
175 198 0
174 197 0
173 197 0
174 197 0
174 197 0
172 195 0
174 197 0
174 197 0
173 197 0
173 197 0
173 197 0
172 196 0
174 198 0
174 197 0
173 196 0
173 197 0
171 195 0
172 195 0
173 197 0
174 196 0
172 196 0
174 196 0
172 195 0
174 197 0
173 196 0
175 197 0
173 196 0
174 196 0
173 195 0
172 196 0
174 197 0
171 195 0
174 197 0
172 196 0
173 196 0
174 196 0
171 194 0
174 196 0
173 196 0
175 198 0
172 196 0
174 196 0
173 197 0
173 197 0
174 197 0
173 196 0
174 196 0
174 196 0
170 194 0
172 196 0
171 194 0
172 195 0
173 196 0
175 197 0
173 195 0
174 196 0
169 193 0
173 196 0
174 197 0
174 197 0
173 197 0
173 197 0
174 196 0
173 196 0
169 193 0
172 194 0
173 197 0
174 197 0
172 195 0
174 198 0
173 196 0
176 199 0
173 197 0
175 197 0
172 195 0
174 197 0
172 196 0
173 195 0
174 196 0
173 196 0
172 196 0
174 196 0
172 194 0
173 197 0
168 192 0
173 196 0
171 194 0
174 197 0
173 196 0
172 196 0
168 192 0
174 198 0
173 196 0
174 197 0
173 196 0
173 195 0
173 197 0
173 196 0
173 196 0
172 195 0
173 197 0
175 197 0
173 196 0
170 193 11
170 192 11
170 189 22
169 189 25
170 190 28
169 186 37
165 180 41
168 182 42
166 175 51
170 175 58
172 179 61
170 174 67
157 161 60
165 165 74
167 165 78
174 171 87
175 170 88
170 163 87
169 161 86
173 165 97
173 164 97
179 169 103
178 169 102
183 173 108
181 172 108
179 171 106
181 173 109
186 176 113
183 175 113
185 176 113
181 174 113
182 175 113
182 174 113
181 174 113
181 174 114
179 173 114
179 173 114
178 173 114
178 173 114
177 172 114
177 173 114
176 172 114
176 172 114
176 172 114
174 171 114
173 171 114
174 171 114
173 171 114
172 170 114
172 170 114
171 170 114
171 169 114
171 170 114
171 170 114
170 169 114
170 169 114
169 169 114
168 168 114
168 168 114
167 168 114
168 168 114
167 168 114
167 168 114
167 168 114
167 168 114
166 168 114
167 168 114
167 168 114
166 167 114
165 167 114
165 167 114
165 167 114
166 167 114
165 167 114
165 167 114
165 167 114
165 167 114
165 167 114
165 167 114
165 167 114
165 167 114
165 167 114
166 167 114
165 167 114
165 167 114
165 167 114
166 167 114
165 167 114
166 167 114
166 167 114
166 168 114
166 167 114
166 167 114
166 167 114
166 167 114
167 168 114
168 168 114
167 168 114
169 169 114
168 168 114
170 169 114
169 169 114
169 169 114
169 169 114
169 169 114
170 169 114
171 170 114
170 169 114
172 170 114
172 170 114
172 170 114
173 170 114
173 171 114
175 171 114
174 171 114
176 172 114
176 172 114
177 172 114
177 172 114
176 172 114
178 173 114
178 173 114
179 173 114
178 173 114
179 173 113
182 175 114
183 175 114
182 175 113
181 173 111
182 173 112
187 177 114
179 169 108
183 174 110
174 165 104
177 168 104
173 165 100
175 166 99
167 158 95
164 157 89
167 161 84
164 163 80
172 170 80
169 172 74
167 174 64
165 170 65
167 179 52
165 181 34
168 185 32
172 187 45
169 188 28
174 193 28
172 194 16
174 197 0
175 198 0
175 197 0
173 197 0
172 195 0
175 197 0
175 198 0
172 197 0
174 197 0
176 198 0
174 198 0
174 198 0
173 197 0
174 198 0
176 199 0
174 197 0
174 198 0
174 197 0
172 195 0
173 196 0
174 197 0
173 197 0
174 197 0
175 198 0
174 198 0
173 197 0
174 198 0
173 197 0
175 198 0
174 198 0
175 198 0
174 197 0
175 197 0
174 198 0
174 197 0
175 198 0
174 197 0
175 198 0
174 197 0
172 196 0
175 198 0
174 197 0
174 197 0
174 198 0
173 197 0
174 198 0
174 198 0
175 198 0
174 196 0
172 195 0
172 195 0
173 197 0
176 198 0
173 197 0
173 197 0
174 197 0
173 196 0
172 196 0
174 197 0
173 197 0
175 198 0
174 197 0
173 197 0
172 196 0
175 198 0
174 198 0
172 196 0
174 197 0
173 196 0
172 196 0
175 198 0
174 197 0
174 197 0
172 195 0
174 198 0
174 197 0
173 197 0
174 198 0
174 197 0
173 197 0
173 196 0
174 198 0
173 197 0
171 194 0
175 198 0
173 197 0
173 197 0
173 196 0
175 198 0
174 197 0
173 196 0
174 197 0
174 198 0
174 197 0
172 195 0
174 198 0
170 194 0
175 198 0
174 198 0
175 197 0
174 197 0
174 197 0
172 196 0
173 196 0
172 197 0
173 196 0
174 197 0
174 197 0
173 196 0
174 197 0
173 196 0
173 197 0
175 198 0
173 196 0
173 197 0
174 197 0
173 196 0
173 196 0
174 198 0
173 197 0
173 197 0
173 196 0
174 197 0
172 195 0
173 196 0
173 197 0
175 198 0
172 196 0
170 194 0
173 197 0
173 197 0
172 196 0
172 195 0
172 196 0
175 197 0
174 197 0
174 197 0
173 196 0
174 197 0
174 197 0
173 197 0
175 198 0
174 196 0
173 197 0
172 196 0
172 195 0
173 197 0
174 197 0
173 196 0
172 196 0
174 198 0
174 197 0
173 197 0
171 194 0
173 196 0
174 198 0
173 196 0
174 198 0
172 196 0
174 197 0
172 195 0
175 198 0
172 196 0
171 194 0
170 193 0
174 197 0
169 192 0
174 196 0
174 197 0
174 197 0
173 196 0
171 195 0
174 197 0
171 194 0
175 197 0
172 196 0
172 195 0
172 195 0
173 196 0
174 197 0
173 196 0
174 197 0
172 196 0
175 198 0
172 196 0
169 193 0
172 196 0
175 198 0
173 196 0
174 198 0
173 196 0
171 195 0
172 196 0
172 196 0
176 198 0
173 197 0
174 197 0
174 197 0
174 197 0
173 195 0
173 197 0
173 196 0
173 196 0
173 196 0
172 196 0
174 197 0
171 194 0
173 195 0
173 196 0
174 197 0
173 196 0
174 197 0
171 194 0
172 195 0
170 193 0
173 195 0
174 197 0
174 197 0
171 195 0
172 194 0
174 197 0
171 194 0
173 196 0
171 194 0
172 196 0
171 194 0
171 194 0
173 197 0
174 197 0
173 197 0
173 196 0
172 195 0
173 196 0
174 197 0
171 193 0
174 198 0
174 197 0
175 198 0
174 197 0
172 195 0
170 194 0
171 196 0
176 198 0
173 197 0
172 195 0
175 198 0
174 197 0
174 197 0
172 192 19
169 189 16
171 189 36
167 185 30
168 186 37
168 184 41
164 176 44
165 177 39
166 175 56
168 174 64
171 176 68
173 175 76
165 167 70
173 173 80
176 172 90
170 165 90
174 167 95
168 161 87
176 166 100
176 166 99
180 170 105
181 172 106
178 169 103
180 172 108
181 172 106
184 175 109
183 174 112
182 174 110
184 175 113
181 174 113
183 175 113
182 175 114
182 175 114
183 175 114
181 174 114
180 174 114
179 174 114
178 173 114
179 173 114
178 173 114
177 172 114
175 172 114
174 171 114
176 172 114
174 171 114
174 171 114
174 171 114
174 171 114
172 170 114
171 170 114
171 170 114
171 170 114
169 169 114
170 169 114
170 169 114
169 169 114
168 169 114
168 168 114
168 169 114
168 168 114
167 168 114
168 168 114
167 168 114
167 168 114
168 168 114
166 168 114
166 168 114
166 167 114
166 167 114
166 167 114
166 167 114
165 167 114
165 167 114
165 167 114
166 167 114
165 167 114
165 167 114
165 167 114
165 167 114
165 167 114
165 167 114
165 167 114
165 167 114
165 167 114
165 167 114
165 167 114
165 167 114
166 167 114
165 167 114
166 167 114
166 167 114
166 167 114
166 167 114
167 168 114
167 168 114
167 168 114
167 168 114
168 168 114
168 168 114
168 169 114
168 169 114
168 168 114
169 169 114
169 169 114
170 169 114
169 169 114
170 169 114
170 169 114
171 170 114
173 170 114
172 170 114
173 171 114
173 170 114
173 171 114
175 172 114
174 171 114
176 172 114
175 171 114
176 172 114
178 173 114
179 173 114
180 174 114
180 174 114
180 174 114
180 173 113
182 175 114
183 175 114
184 176 114
184 176 114
183 175 113
177 170 108
182 173 110
180 171 108
175 166 104
181 171 104
179 169 105
169 161 96
172 163 97
175 166 100
169 162 90
164 161 84
168 166 81
171 170 80
162 163 70
166 168 66
161 171 56
166 176 48
174 187 49
167 184 34
170 189 22
169 188 30
172 191 28
171 193 11
174 196 0
174 196 0
173 197 0
173 196 0
174 197 0
173 196 0
174 197 0
172 196 0
173 197 0
174 197 0
174 198 0
174 197 0
176 199 0
173 197 0
175 198 0
172 196 0
174 198 0
175 198 0
175 198 0
170 195 0
173 196 0
175 197 0
174 197 0
173 197 0
173 196 0
174 197 0
174 197 0
175 198 0
175 198 0
173 197 0
173 197 0
172 197 0
175 198 0
174 197 0
175 197 0
174 197 0
173 196 0
173 197 0
175 198 0
174 198 0
173 196 0
175 198 0
173 197 0
174 197 0
173 197 0
173 197 0
175 198 0
171 195 0
174 198 0
173 196 0
174 198 0
173 197 0
173 197 0
172 196 0
173 197 0
171 195 0
171 196 0
174 197 0
174 197 0
173 196 0
172 196 0
170 194 0
173 196 0
174 197 0
172 196 0
174 197 0
172 196 0
174 197 0
174 197 0
172 195 0
175 198 0
170 193 0
175 198 0
175 198 0
172 196 0
171 195 0
175 198 0
173 196 0
174 197 0
172 196 0
173 196 0
172 195 0
170 194 0
174 197 0
173 196 0
172 197 0
172 195 0
174 198 0
175 198 0
172 195 0
173 197 0
173 197 0
174 198 0
174 198 0
173 196 0
173 197 0
174 198 0
174 197 0
174 197 0
173 196 0
174 197 0
173 197 0
173 196 0
172 195 0
173 196 0
173 197 0
174 197 0
174 196 0
173 197 0
173 197 0
174 197 0
172 196 0
172 196 0
174 197 0
173 196 0
174 197 0
172 195 0
173 197 0
172 196 0
174 197 0
173 197 0
172 195 0
173 196 0
174 198 0
173 196 0
176 198 0
173 197 0
173 195 0
172 196 0
172 195 0
172 195 0
173 196 0
172 196 0
175 198 0
173 196 0
173 196 0
175 198 0
175 198 0
173 196 0
172 196 0
173 197 0
172 196 0
173 196 0
172 196 0
174 197 0
175 198 0
172 196 0
172 196 0
175 198 0
172 196 0
173 197 0
174 197 0
173 197 0
172 196 0
174 198 0
172 195 0
173 197 0
173 197 0
172 196 0
173 197 0
172 195 0
170 193 0
173 196 0
175 198 0
173 196 0
173 196 0
174 197 0
173 195 0
174 197 0
174 198 0
172 194 0
172 196 0
175 198 0
175 197 0
175 198 0
174 197 0
173 196 0
172 196 0
174 197 0
173 195 0
175 198 0
171 194 0
174 196 0
173 196 18
173 196 0
174 197 0
171 195 0
173 195 0
174 197 0
175 197 0
174 197 0
173 195 0
172 196 0
173 196 0
174 197 0
174 197 0
174 197 0
171 194 0
171 194 0
174 197 0
173 197 0
174 197 0
173 196 0
174 198 0
173 196 0
173 196 0
173 196 0
172 196 0
172 195 0
173 197 0
173 196 0
172 195 0
173 196 0
173 196 0
173 196 0
174 197 0
173 197 0
172 195 0
171 194 0
173 196 0
175 198 0
173 197 0
173 196 0
173 196 0
174 197 0
173 196 0
173 196 0
173 196 0
171 195 0
173 197 0
173 197 0
172 196 0
172 195 0
174 196 0
176 198 0
172 196 0
171 194 0
174 197 0
174 196 0
173 197 0
174 197 0
174 198 0
172 195 0
173 196 0
173 196 0
171 193 0
173 196 11
171 191 22
173 193 28
170 190 22
170 187 36
158 174 30
167 179 47
163 175 41
166 175 53
165 176 54
165 171 60
153 154 64
165 168 64
169 168 79
164 162 76
172 166 89
172 166 91
172 165 91
173 165 92
175 165 96
179 170 101
181 172 104
183 174 106
179 171 103
183 173 109
183 174 109
183 174 110
181 173 109
184 176 113
184 175 113
181 174 113
182 175 113
182 175 114
181 174 114
181 174 114
179 173 114
179 174 114
178 173 114
178 173 114
178 173 114
177 172 114
176 172 114
176 172 114
176 172 114
173 171 114
174 171 114
174 171 114
174 171 114
173 171 114
172 170 114
170 169 114
171 170 114
170 169 114
171 169 114
170 169 114
170 169 114
170 169 114
169 169 114
168 168 114
169 169 114
168 168 114
168 168 114
167 168 114
167 168 114
167 168 114
167 168 114
166 168 114
166 168 114
166 168 114
166 167 114
165 167 114
166 167 114
165 167 114
166 167 114
165 167 114
165 167 114
165 167 114
165 167 114
165 167 114
165 167 114
165 167 114
165 167 114
164 167 114
165 167 114
165 167 114
165 167 114
165 167 114
166 167 114
166 167 114
166 167 114
166 167 114
165 167 114
166 168 114
166 167 114
167 168 114
167 168 114
167 168 114
166 168 114
167 168 114
168 168 114
168 168 114
168 169 114
168 169 114
169 169 114
169 169 114
171 170 114
171 170 114
170 169 114
171 170 114
171 170 114
172 170 114
172 170 114
172 170 114
174 171 114
173 170 114
173 171 114
174 171 114
176 172 114
176 172 114
178 173 114
177 172 114
177 172 114
178 173 114
178 173 114
180 174 114
180 174 114
183 175 114
183 175 113
183 175 114
184 176 113
181 173 111
183 175 113
182 173 110
184 175 110
182 173 110
178 169 108
181 171 106
172 163 98
173 164 98
176 166 99
166 157 92
166 161 85
170 166 86
172 171 81
165 168 66
165 169 67
168 173 63
165 179 47
169 184 44
162 174 44
167 182 45
169 187 30
171 191 19
173 195 11
174 196 11
173 195 0
175 198 0
174 197 0
173 197 0
174 197 0
174 198 0
174 197 0
174 197 0
173 196 0
173 197 0
173 197 0
173 197 0
174 197 0
174 197 0
176 199 0
173 197 0
173 196 0
174 197 0
175 198 0
173 196 0
174 197 0
173 197 0
173 197 0
175 198 0
173 197 0
173 197 0
173 196 0
173 196 0
174 197 0
174 197 0
174 197 0
176 198 0
171 194 0
175 198 0
174 198 0
175 198 0
175 198 0
174 197 0
174 198 0
173 195 0
173 197 0
172 195 0
173 196 0
171 195 0
175 198 0
176 198 0
173 196 0
174 197 0
173 196 0
175 198 0
173 197 0
174 198 0
173 197 0
175 198 0
173 196 0
173 197 0
175 198 0
172 195 0
175 198 0
172 196 0
173 196 0
175 198 0
173 196 0
173 196 0
174 197 0
175 197 0
175 198 0
172 196 0
172 196 0
175 198 0
174 197 0
174 197 0
173 196 0
173 196 0
174 198 0
172 196 0
173 196 0
174 197 0
171 194 0
171 195 0
171 194 0
171 195 0
175 198 0
173 196 0
173 197 0
173 197 0
175 198 0
173 197 0
172 196 0
174 198 0
174 198 0
175 198 0
174 197 0
174 196 0
174 198 0
174 197 0
175 198 0
175 197 0
176 198 0
174 197 0
174 197 0
172 195 0
171 194 0
172 196 0
174 197 0
176 198 0
174 197 0
173 197 0
174 197 0
173 196 0
173 197 0
172 195 0
172 195 0
175 198 0
173 196 0
174 197 0
175 198 0
173 197 0
174 197 0
176 199 0
175 198 0
172 196 0
174 197 0
170 194 0
172 195 0
172 195 0
172 195 0
171 193 0
169 193 0
170 194 0
173 196 0
173 196 0
173 196 0
173 196 0
175 198 0
175 198 0
174 197 0
173 197 0
174 197 0
175 197 0
173 196 0
172 194 0
173 196 0
172 196 0
170 193 0
173 196 0
171 194 0
173 196 0
172 195 0
171 196 0
173 196 0
173 196 0
175 198 0
175 198 0
171 194 0
172 196 0
174 197 0
173 197 0
172 196 0
175 198 0
170 194 0
172 196 0
174 197 0
174 197 0
173 197 0
173 197 0
172 196 0
172 194 0
173 197 0
173 197 0
173 196 18
174 197 0
171 195 18
168 193 36
167 190 36
168 191 40
168 192 44
169 193 40
165 187 54
167 189 57
162 186 67
168 192 44
159 182 74
166 190 54
164 188 60
165 189 47
163 187 60
165 190 57
166 189 57
167 191 44
172 195 36
171 194 36
170 194 40
172 194 25
170 193 36
171 195 25
172 194 18
174 197 0
175 197 0
172 196 0
175 197 0
172 195 0
171 196 0
174 196 0
174 197 0
172 195 0
173 197 0
173 197 0
174 197 0
173 196 0
174 198 0
173 197 0
173 196 0
173 196 0
174 198 0
174 196 0
170 194 0
173 196 0
173 197 0
173 196 0
174 197 0
172 196 0
174 197 0
169 192 0
173 196 0
172 195 0
175 198 0
171 194 0
173 196 0
171 194 0
173 196 0
171 194 0
171 194 0
174 196 0
175 198 0
173 196 0
172 196 0
175 198 0
170 193 0
170 194 0
173 196 0
172 196 0
174 197 0
172 195 0
172 195 11
172 192 22
171 192 25
165 184 22
169 185 34
165 183 30
168 186 30
160 175 34
167 177 53
162 171 48
165 173 58
166 171 64
166 168 72
161 163 64
169 166 79
170 167 80
171 165 86
173 166 92
170 162 92
174 165 97
178 168 100
180 170 104
176 167 103
181 172 104
184 175 109
186 176 112
182 173 109
183 174 110
184 175 109
183 175 112
184 175 113
185 176 114
183 175 113
183 175 114
183 175 114
180 174 114
179 174 114
180 174 114
179 173 114
177 173 114
177 173 114
177 172 114
175 172 114
176 172 114
175 171 114
175 171 114
173 171 114
172 170 114
172 170 114
172 170 114
172 170 114
170 169 114
171 170 114
172 170 114
171 170 114
169 169 114
169 169 114
169 169 114
169 169 114
169 169 114
168 168 114
169 169 114
168 168 114
167 168 114
168 168 114
167 168 114
167 168 114
166 168 114
166 167 114
166 167 114
166 168 114
166 167 114
166 167 114
166 167 114
165 167 114
165 167 114
165 167 114
165 167 114
165 167 114
165 167 114
165 167 114
165 167 114
165 167 114
165 167 114
165 167 114
165 167 114
165 167 114
165 167 114
165 167 114
165 167 114
165 167 114
165 167 114
166 167 114
166 168 114
167 168 114
166 167 114
167 168 114
167 168 114
167 168 114
168 168 114
168 168 114
167 168 114
169 169 114
169 169 114
168 169 114
168 168 114
169 169 114
171 169 114
171 170 114
171 170 114
172 170 114
172 170 114
172 170 114
172 170 114
172 170 114
173 171 114
175 172 114
174 171 114
174 171 114
177 172 114
177 173 114
179 173 114
177 172 114
178 173 114
179 173 114
180 174 114
179 173 114
184 176 114
183 175 114
183 175 114
181 173 112
182 174 113
183 174 112
183 174 112
185 175 112
180 171 109
179 170 103
181 172 106
176 167 102
180 170 104
177 167 99
163 155 87
167 160 89
171 167 85
165 165 75
161 161 76
167 171 71
165 172 60
167 175 60
164 175 52
171 184 42
168 183 41
170 187 36
171 190 30
171 194 11
172 194 11
174 197 0
175 198 0
174 197 0
175 198 0
174 197 0
175 197 0
175 198 0
175 198 0
174 197 0
174 198 0
175 198 0
174 198 0
174 197 0
173 196 0
171 196 0
172 196 0
174 197 0
174 197 0
172 196 0
174 198 0
173 196 0
173 197 0
174 197 0
173 197 0
174 197 0
175 198 0
173 196 0
175 198 0
173 197 0
173 197 0
175 198 0
174 198 0
174 197 0
171 195 0
175 198 0
175 198 0
173 195 0
174 198 0
173 197 0
172 196 0
173 197 0
174 197 0
174 197 0
175 198 0
174 198 0
174 197 0
174 198 0
173 197 0
175 198 0
174 197 0
173 196 0
173 197 0
175 198 0
174 197 0
171 195 0
173 196 0
174 198 0
173 196 0
175 198 0
175 198 0
172 196 0
175 198 0
176 199 0
174 197 0
173 197 0
175 198 0
175 197 0
171 196 0
173 196 0
173 197 0
174 197 0
174 196 0
173 196 0
174 197 0
175 198 0
174 196 0
172 196 0
173 196 0
173 196 0
174 197 0
173 196 0
173 196 0
174 198 0
174 198 0
174 197 0
174 196 0
171 196 0
174 197 0
173 196 0
172 195 0
174 197 0
172 196 0
173 197 0
171 194 0
174 197 0
173 197 0
173 196 0
171 195 0
173 197 0
173 197 0
171 195 0
175 197 0
173 196 0
174 197 0
173 196 0
174 197 0
174 198 0
174 197 0
174 197 0
174 197 0
174 197 0
173 196 0
174 197 0
173 197 0
173 196 0
176 198 0
172 196 0
172 196 0
173 196 0
175 197 0
174 198 0
174 197 0
173 196 0
171 194 0
171 194 0
173 197 0
173 197 0
171 194 0
172 196 0
174 197 0
173 197 0
174 196 0
173 196 0
171 195 0
174 196 0
174 197 0
172 195 0
172 195 0
174 197 0
173 196 0
176 198 0
173 197 0
173 196 0
171 195 0
173 196 0
172 195 0
174 197 0
171 195 0
173 196 0
174 197 0
173 196 0
171 195 0
172 195 0
175 198 0
173 196 0
172 195 0
171 194 0
175 198 0
175 198 0
174 197 0
173 196 0
173 197 0
173 197 0
172 196 0
171 195 18
172 194 25
173 195 25
169 193 25
169 193 44
164 187 60
162 185 70
154 178 82
151 175 90
148 173 95
152 176 95
151 176 95
147 172 100
138 162 117
137 163 118
140 165 113
127 152 127
139 164 114
133 158 125
120 147 137
135 161 118
129 155 129
132 158 126
139 163 112
139 163 113
138 163 118
148 173 100
147 172 100
154 178 81
154 177 90
150 174 94
159 183 70
166 189 44
166 190 57
168 191 40
169 193 37
171 194 18
172 196 18
175 198 0
174 197 0
170 193 0
172 196 0
174 197 0
175 197 0
173 196 0
173 196 0
173 195 0
174 197 0
172 195 0
174 197 0
173 196 0
172 195 0
175 198 0
173 195 0
170 193 0
174 196 0
174 197 0
173 195 0
173 196 0
172 196 0
173 196 0
174 197 0
171 195 0
172 195 0
172 195 0
172 195 0
174 196 0
170 194 0
174 197 0
174 197 0
173 196 0
172 195 0
173 196 0
174 197 0
171 195 0
172 195 0
174 197 0
173 196 0
171 195 0
174 197 0
173 195 0
172 192 25
169 190 19
166 184 32
167 183 37
172 189 37
167 180 44
168 183 42
170 179 57
167 175 54
167 175 61
170 176 65
166 169 69
171 167 83
165 160 80
167 161 84
172 165 86
169 164 87
176 167 94
175 166 99
174 165 95
177 168 99
181 171 105
180 171 107
185 175 109
184 175 110
182 174 111
182 173 109
184 175 112
185 176 113
184 176 114
183 175 113
183 175 114
182 175 114
180 174 114
178 173 114
179 174 114
180 174 114
180 174 114
178 173 114
177 173 114
178 173 114
175 172 114
176 172 114
175 171 114
175 172 114
174 171 114
173 171 114
173 170 114
174 171 114
172 170 114
172 170 114
173 170 114
172 170 114
170 169 114
170 169 114
170 169 114
169 169 114
168 169 114
169 169 114
168 169 114
168 168 114
168 168 114
167 168 114
167 168 114
167 168 114
167 168 114
167 168 114
166 168 114
166 168 114
165 167 114
166 167 114
166 168 114
166 167 114
165 167 114
165 167 114
165 167 114
165 167 114
165 167 114
165 167 114
165 167 114
165 167 114
165 167 114
165 167 114
165 167 114
165 167 114
165 167 114
165 167 114
165 167 114
165 167 114
166 167 114
166 167 114
166 167 114
166 168 114
166 167 114
166 168 114
166 168 114
167 168 114
168 168 114
168 168 114
168 168 114
168 168 114
167 168 114
168 168 114
169 169 114
169 169 114
170 169 114
170 169 114
170 169 114
172 170 114
171 170 114
172 170 114
172 170 114
172 170 114
173 171 114
173 171 114
175 171 114
175 172 114
175 171 114
177 172 114
177 172 114
177 172 114
178 173 114
178 173 114
177 172 114
180 174 114
182 175 114
181 174 114
182 175 114
183 175 114
181 174 113
183 175 113
183 175 113
183 175 111
185 175 111
183 174 112
182 172 106
177 167 102
177 169 102
177 168 103
172 163 99
171 162 93
171 162 93
165 161 85
164 158 81
166 166 76
166 167 75
164 169 65
167 176 59
165 174 56
163 176 42
166 180 44
168 184 36
166 185 25
170 192 16
175 197 11
175 197 0
173 197 0
175 197 0
174 197 0
173 196 0
173 196 0
173 197 0
172 195 0
173 197 0
175 198 0
175 198 0
174 197 0
172 195 0
172 196 0
175 198 0
172 196 0
174 198 0
175 198 0
174 198 0
175 198 0
175 198 0
175 197 0
173 196 0
172 196 0
174 197 0
174 197 0
174 196 0
172 196 0
173 197 0
173 196 0
173 196 0
173 197 0
174 198 0
173 197 0
173 196 0
175 198 0
173 197 0
173 196 0
172 194 0
174 198 0
174 197 0
171 194 0
174 197 0
174 198 0
175 198 0
173 196 0
174 197 0
174 197 0
174 197 0
172 196 0
173 196 0
175 198 0
176 199 0
173 197 0
175 198 0
175 198 0
174 197 0
174 197 0
172 196 0
174 197 0
173 197 0
174 197 0
173 197 0
173 197 0
173 197 0
173 196 0
172 195 0
173 196 0
172 195 0
174 197 0
172 196 0
173 197 0
175 198 0
172 195 0
172 196 0
174 198 0
172 195 0
173 197 0
175 198 0
176 199 0
173 196 0
174 197 0
174 197 0
175 198 0
174 198 0
173 197 0
173 196 0
172 196 0
174 197 0
172 195 0
174 197 0
175 198 0
174 197 0
173 196 0
173 196 0
172 195 0
173 197 0
171 195 0
172 196 0
172 195 0
174 198 0
172 195 0
172 196 0
173 196 0
175 198 0
173 196 0
174 197 0
174 197 0
174 198 0
173 196 0
173 197 0
173 196 0
171 195 0
173 196 0
174 197 0
172 196 0
171 195 0
173 197 0
175 198 0
175 198 0
173 196 0
171 195 0
173 197 0
172 196 0
173 196 0
173 197 0
174 197 0
175 198 0
173 196 0
174 197 0
172 196 0
174 197 0
173 196 0
172 196 0
173 197 0
174 197 0
171 195 0
171 194 0
173 196 0
174 198 0
171 195 0
173 196 0
174 197 0
174 197 0
173 196 0
173 196 0
174 197 0
173 196 0
174 197 0
171 195 0
173 196 0
174 197 0
172 195 0
172 195 0
173 196 0
173 196 0
175 198 0
173 197 0
173 197 0
174 197 0
173 196 0
171 195 25
169 192 44
167 191 47
165 188 57
156 180 84
153 177 86
144 168 107
140 165 113
131 156 125
127 153 130
130 155 127
106 134 152
120 146 141
107 135 149
99 128 158
101 130 154
107 134 154
94 123 162
94 124 162
84 116 168
84 115 169
79 112 171
96 126 161
89 120 165
80 113 171
89 120 161
87 117 167
81 114 168
95 125 160
108 136 151
114 141 145
109 136 150
111 138 148
127 153 130
139 164 113
130 155 126
152 175 97
150 174 94
141 166 110
149 174 94
162 186 70
165 188 57
163 187 62
168 192 40
169 192 25
172 196 18
174 198 0
174 196 0
173 196 0
173 196 0
172 195 0
171 195 0
173 197 0
173 196 0
173 196 0
172 194 0
172 195 0
173 197 0
173 196 0
174 197 0
171 194 0
171 194 0
172 195 0
171 195 0
174 196 0
170 194 0
173 197 0
171 193 0
173 195 0
172 195 0
173 196 0
174 196 0
174 197 0
172 196 0
174 198 0
172 195 0
173 197 0
173 196 0
172 195 0
173 197 0
174 197 0
170 193 0
173 195 11
171 193 11
170 189 22
167 186 22
165 184 22
166 182 30
170 185 41
164 178 36
163 174 49
167 174 60
171 178 63
169 175 64
166 167 70
167 170 67
170 168 75
174 169 82
177 170 89
172 164 90
162 155 84
173 165 93
179 170 99
175 166 101
185 175 108
180 171 102
184 175 108
182 173 106
184 175 111
185 176 113
183 174 110
183 174 110
184 176 113
183 175 112
184 175 113
181 174 113
182 175 114
180 174 114
181 174 114
178 173 114
179 173 114
179 173 114
178 173 114
178 173 114
178 173 114
177 172 114
175 171 114
174 171 114
176 172 114
174 171 114
173 170 114
173 171 114
173 171 114
171 170 114
172 170 114
171 170 114
171 169 114
171 170 114
171 169 114
169 169 114
170 169 114
169 169 114
169 169 114
168 169 114
167 168 114
168 168 114
167 168 114
167 168 114
166 168 114
167 168 114
167 168 114
166 167 114
166 167 114
166 167 114
165 167 114
165 167 114
165 167 114
165 167 114
165 167 114
166 167 114
165 167 114
165 167 114
165 167 114
165 167 114
165 167 114
165 167 114
165 167 114
165 167 114
165 167 114
165 167 114
165 167 114
166 167 114
165 167 114
165 167 114
165 167 114
166 167 114
166 167 114
166 167 114
166 167 114
166 167 114
166 168 114
167 168 114
167 168 114
169 169 114
167 168 114
168 168 114
169 169 114
169 169 114
169 169 114
169 169 114
169 169 114
171 170 114
170 169 114
170 169 114
172 170 114
172 170 114
172 170 114
173 170 114
173 171 114
172 170 114
175 172 114
174 171 114
174 171 114
176 172 114
177 173 114
179 173 114
180 174 114
178 173 114
179 173 114
179 174 114
181 174 114
181 174 114
182 175 114
183 175 114
183 175 113
184 175 113
184 176 112
181 171 109
178 170 109
182 173 109
184 175 109
178 169 103
176 166 99
174 166 102
174 164 99
168 159 94
169 163 90
165 161 84
167 166 76
167 168 71
165 169 71
158 165 54
165 174 53
165 179 45
167 183 41
169 184 39
164 181 32
172 191 28
173 193 25
175 197 16
176 198 0
173 197 0
175 197 0
173 197 0
175 198 0
173 196 0
174 197 0
173 195 0
172 196 0
174 197 0
175 198 0
173 197 0
173 196 0
175 198 0
175 198 0
175 198 0
175 198 0
174 197 0
173 197 0
173 197 0
173 196 0
174 197 0
174 197 0
174 197 0
174 197 0
175 198 0
174 197 0
176 198 0
171 195 0
175 198 0
173 196 0
173 196 0
173 197 0
174 198 0
171 195 0
175 198 0
172 196 0
175 198 0
175 197 0
171 195 0
175 198 0
172 196 0
174 198 0
173 197 0
174 198 0
175 198 0
175 198 0
174 197 0
174 197 0
175 198 0
173 197 0
175 198 0
171 196 0
173 197 0
172 196 0
173 197 0
174 198 0
172 196 0
174 197 0
175 197 0
173 197 0
172 196 0
173 196 0
172 196 0
173 196 0
173 196 0
174 198 0
174 198 0
172 196 0
171 195 0
174 197 0
173 196 0
174 197 0
174 197 0
174 198 0
173 197 0
174 197 0
174 197 0
174 197 0
174 197 0
174 197 0
173 197 0
173 197 0
172 195 0
175 198 0
173 196 0
174 197 0
173 197 0
172 195 0
173 197 0
173 196 0
172 196 0
176 198 0
174 197 0
175 197 0
176 199 0
173 196 0
173 197 0
175 198 0
173 197 0
174 198 0
172 196 0
174 197 0
173 197 0
172 196 0
172 195 0
171 195 0
173 196 0
173 197 0
172 196 0
173 196 0
174 197 0
173 196 0
173 197 0
174 196 0
171 195 0
174 197 0
173 196 0
173 197 0
172 195 0
172 196 0
175 198 0
173 197 0
171 194 0
173 196 0
173 196 0
171 194 0
173 196 0
173 196 0
174 197 0
170 193 0
175 197 0
174 198 0
173 197 0
169 193 0
174 197 0
174 196 0
173 196 0
175 197 0
174 196 0
172 195 0
174 197 0
172 196 0
174 196 0
174 197 0
174 197 0
171 195 0
171 194 0
173 197 0
173 197 0
176 198 0
174 197 0
172 196 0
172 195 0
175 198 0
174 198 0
171 194 18
171 194 36
170 193 36
160 184 72
157 181 84
146 170 105
142 166 107
133 159 120
128 153 126
114 141 143
112 139 145
107 135 150
88 119 164
86 117 166
82 114 170
76 109 174
68 103 178
63 100 180
61 99 181
62 99 181
62 99 181
62 100 181
62 99 181
62 99 180
61 98 178
62 99 180
62 99 181
61 99 181
62 99 181
61 99 181
61 98 181
62 99 181
61 98 180
61 99 181
61 98 181
68 103 178
74 108 175
72 106 175
84 115 169
96 125 159
97 126 157
102 130 153
101 130 154
117 143 138
128 153 130
139 164 110
144 169 103
154 177 92
160 183 72
163 188 54
169 193 44
173 195 18
173 196 18
173 196 0
172 195 0
173 195 0
175 198 0
170 193 0
173 197 0
171 193 0
173 196 0
172 194 0
173 196 0
173 196 0
173 196 0
175 198 0
173 195 0
171 195 0
174 197 0
171 194 0
173 196 0
173 197 0
173 196 0
173 197 0
174 197 0
171 194 0
173 197 0
173 197 0
173 197 0
171 195 0
172 196 0
172 196 0
173 196 0
172 197 0
172 195 0
171 194 0
167 189 0
170 191 11
171 191 25
174 194 28
164 182 28
161 177 36
164 178 37
165 176 47
165 174 52
162 172 48
168 175 62
173 173 73
164 164 75
169 165 80
172 169 79
160 155 77
175 168 90
165 159 81
177 168 97
176 167 97
176 166 98
175 165 100
183 173 106
182 172 107
184 174 109
182 173 107
184 175 110
185 175 110
186 176 112
184 176 113
184 176 113
182 175 112
182 175 113
182 175 114
183 175 113
180 174 114
180 174 114
179 174 114
180 174 114
180 174 114
176 172 114
178 173 114
177 173 114
175 172 114
174 171 114
175 172 114
174 171 114
174 171 114
173 171 114
173 171 114
173 171 114
173 171 114
172 170 114
171 169 114
172 170 114
171 170 114
170 169 114
170 169 114
170 169 114
168 168 114
169 169 114
169 169 114
168 169 114
168 168 114
168 168 114
167 168 114
167 168 114
167 168 114
167 168 114
167 168 114
166 168 114
166 167 114
166 167 114
165 167 114
165 167 114
166 167 114
166 167 114
165 167 114
165 167 114
165 167 114
165 167 114
165 167 114
165 167 114
165 167 114
165 167 114
165 167 114
165 167 114
166 167 114
165 167 114
165 167 114
166 167 114
166 168 114
166 167 114
167 168 114
166 167 114
166 167 114
166 167 114
167 168 114
167 168 114
167 168 114
167 168 114
168 168 114
168 168 114
169 169 114
169 169 114
168 169 114
170 169 114
170 169 114
170 169 114
170 169 114
170 169 114
171 170 114
171 170 114
172 170 114
172 170 114
173 171 114
173 171 114
173 171 114
176 172 114
174 171 114
176 172 114
176 172 114
176 172 114
176 172 114
178 173 114
180 174 114
181 174 114
180 174 114
180 174 114
180 174 114
182 175 114
184 176 114
183 175 113
185 176 113
183 175 113
183 174 110
181 173 110
180 171 108
179 170 107
180 170 107
177 169 104
175 165 98
173 164 98
173 162 97
169 160 90
166 159 89
170 165 84
159 155 75
168 169 72
167 173 62
159 167 51
165 176 52
164 179 32
168 181 45
169 184 39
168 185 34
169 189 25
171 193 16
171 194 16
173 197 0
174 197 0
174 196 0
175 197 0
174 197 0
176 198 0
174 196 0
174 197 0
173 196 0
175 198 0
174 197 0
173 197 0
170 195 0
176 199 0
174 198 0
174 198 0
174 197 0
172 196 0
172 195 0
173 196 0
173 197 0
174 198 0
172 196 0
174 198 0
173 197 0
172 196 0
174 198 0
175 198 0
174 197 0
175 198 0
173 196 0
173 196 0
174 197 0
174 197 0
173 197 0
175 198 0
172 196 0
176 199 0
172 196 0
174 196 0
173 197 0
174 198 0
175 198 0
173 197 0
174 197 0
174 198 0
172 195 0
172 195 0
174 198 0
174 196 0
175 198 0
173 196 0
173 197 0
173 196 0
174 197 0
175 198 0
175 198 0
173 197 0
175 197 0
175 197 0
173 196 0
174 197 0
174 197 0
175 198 0
172 195 0
173 197 0
174 197 0
173 196 0
172 195 0
174 198 0
175 198 0
174 197 0
175 198 0
174 198 0
175 197 0
172 196 0
174 198 0
174 198 0
171 194 0
172 195 0
174 197 0
175 198 0
174 197 0
173 196 0
175 198 0
172 196 0
174 197 0
171 195 0
175 198 0
173 196 0
174 198 0
173 197 0
172 196 0
174 197 0
172 196 0
174 198 0
171 195 0
175 198 0
173 197 0
174 198 0
171 194 0
174 197 0
173 197 0
173 196 0
173 196 0
172 195 0
172 196 0
173 197 0
174 197 0
173 196 0
174 197 0
172 196 0
173 197 0
170 193 0
173 197 0
173 196 0
174 197 0
173 196 0
173 196 0
173 197 0
174 197 0
174 197 0
174 197 0
172 195 0
174 196 0
171 195 0
173 196 0
173 197 0
171 195 0
174 197 0
171 194 0
173 196 0
172 195 0
173 195 0
172 196 0
173 197 0
175 198 0
172 196 0
175 198 0
173 197 0
172 196 0
172 195 0
174 197 0
173 196 0
172 195 0
174 198 0
172 196 0
175 198 0
173 197 0
175 198 0
174 197 0
174 196 0
173 195 25
168 192 44
163 187 60
165 187 65
150 175 94
142 168 110
134 159 121
126 152 130
108 136 151
95 124 160
83 115 167
80 113 171
64 100 179
62 99 181
63 100 180
62 99 181
62 99 181
62 99 181
62 99 181
61 99 181
61 99 181
62 99 181
62 99 181
62 99 181
61 99 181
62 99 180
62 99 181
62 99 181
62 99 181
62 99 181
62 99 181
61 99 181
62 99 181
62 99 181
61 98 181
61 98 180
62 99 181
61 98 180
62 99 180
61 98 180
61 98 181
62 99 181
61 98 178
62 99 180
61 99 181
73 107 176
71 106 174
87 118 164
91 121 163
107 136 150
120 146 136
139 163 111
128 154 128
148 172 83
150 174 89
157 181 80
164 188 57
170 193 31
172 196 0
174 197 18
171 194 0
173 196 0
172 195 0
175 198 0
172 195 0
173 196 0
175 198 0
171 194 0
172 195 0
172 195 0
173 197 0
173 197 0
173 195 0
172 195 0
174 196 0
173 196 0
172 194 0
173 197 0
173 196 0
174 197 0
173 196 0
171 194 0
171 195 0
173 197 0
172 195 0
173 196 0
174 196 0
169 191 11
172 194 0
171 192 19
167 186 25
168 188 16
167 186 25
172 187 45
168 185 37
168 181 49
159 167 54
166 176 52
169 174 60
165 168 64
161 165 64
168 167 76
168 166 77
168 163 80
172 167 86
166 160 80
171 162 86
173 165 92
174 165 98
176 167 97
180 170 103
183 173 104
181 173 106
183 174 105
183 174 109
182 173 106
182 174 111
181 174 109
182 175 113
182 175 112
184 176 113
184 175 113
183 175 114
182 175 114
182 175 114
180 174 114
177 173 114
178 173 114
179 173 114
176 172 114
177 172 114
176 172 114
176 172 114
175 172 114
175 171 114
175 172 114
174 171 114
173 170 114
173 171 114
174 171 114
171 170 114
172 170 114
171 170 114
171 170 114
172 170 114
170 169 114
170 169 114
169 169 114
169 169 114
170 169 114
167 168 114
167 168 114
168 168 114
169 169 114
167 168 114
168 168 114
167 168 114
167 168 114
166 167 114
166 168 114
166 168 114
166 167 114
166 167 114
166 167 114
165 167 114
166 167 114
165 167 114
165 167 114
165 167 114
165 167 114
165 167 114
165 167 114
165 167 114
166 167 114
165 167 114
166 167 114
165 167 114
165 167 114
165 167 114
166 167 114
166 168 114
166 167 114
166 167 114
166 168 114
166 167 114
167 168 114
167 168 114
167 168 114
167 168 114
167 168 114
168 168 114
168 168 114
168 168 114
168 168 114
169 169 114
168 168 114
171 170 114
171 170 114
170 169 114
170 169 114
172 170 114
172 170 114
172 170 114
173 171 114
172 170 114
173 171 114
174 171 114
173 171 114
175 172 114
176 172 114
176 172 114
178 173 114
176 172 114
177 173 114
178 173 114
180 174 114
180 174 114
180 174 114
181 174 114
183 175 114
182 175 114
183 175 114
183 175 111
184 176 113
184 175 112
186 176 113
179 171 108
183 173 108
180 170 107
180 170 103
180 170 101
174 165 101
171 162 97
163 155 91
168 160 89
171 164 92
162 157 78
162 161 75
170 169 79
161 166 56
164 171 58
167 179 51
168 183 37
169 183 48
168 187 30
171 190 25
172 195 0
174 196 11
174 198 0
173 197 0
173 196 0
174 197 0
174 198 0
174 197 0
175 198 0
174 196 0
175 198 0
173 197 0
174 197 0
173 196 0
174 198 0
173 197 0
174 198 0
173 197 0
169 193 0
176 199 0
173 197 0
173 196 0
174 197 0
174 198 0
174 197 0
173 197 0
173 196 0
173 197 0
174 197 0
175 198 0
174 197 0
171 195 0
172 196 0
174 197 0
173 196 0
172 196 0
174 197 0
174 197 0
173 197 0
174 197 0
173 197 0
174 197 0
175 198 0
173 196 0
172 196 0
173 197 0
174 197 0
172 196 0
172 196 0
173 196 0
174 197 0
173 196 0
175 198 0
171 195 0
173 197 0
174 197 0
175 198 0
174 197 0
171 194 0
173 196 0
174 197 0
175 198 0
174 197 0
174 197 0
172 196 0
173 195 0
172 196 0
173 197 0
174 197 0
173 195 0
173 197 0
172 195 0
173 197 0
175 198 0
171 194 0
174 197 0
175 198 0
171 195 0
173 196 0
174 198 0
174 197 0
173 197 0
174 197 0
174 197 0
173 197 0
173 196 0
172 195 0
171 194 0
173 196 0
173 196 0
171 195 0
170 193 0
172 196 0
175 198 0
174 197 0
173 197 0
173 197 0
174 197 0
173 196 0
171 194 0
174 198 0
175 198 0
175 198 0
176 198 0
173 196 0
173 195 0
173 197 0
175 198 0
172 196 0
173 196 0
174 197 0
175 198 0
173 197 0
171 193 0
173 196 0
171 195 0
172 196 0
174 197 0
173 197 0
173 197 0
173 196 0
171 195 0
174 197 0
173 196 0
172 196 0
173 197 0
172 196 0
173 196 0
175 198 0
175 197 0
172 195 0
175 197 0
173 196 0
173 197 0
173 196 0
173 196 0
171 194 0
175 198 0
173 196 0
173 196 0
172 196 0
173 196 0
173 196 0
174 198 0
172 195 0
172 195 0
173 196 0
172 195 0
174 197 0
174 197 0
172 195 0
171 194 25
164 188 62
164 188 65
158 181 82
155 179 84
139 164 110
127 153 131
111 138 148
94 124 159
90 121 162
76 109 172
65 101 180
62 99 180
62 99 180
62 99 181
61 99 181
61 99 181
61 99 181
61 99 181
62 99 181
61 99 181
62 99 181
61 99 181
62 99 181
61 98 181
61 99 181
62 99 181
61 99 181
62 99 181
61 98 181
62 99 181
62 99 181
62 99 181
61 99 181
61 98 181
61 98 181
61 99 181
61 98 181
61 98 180
62 99 181
61 99 181
61 99 180
62 99 180
61 99 180
61 99 181
62 99 181
62 99 180
62 99 180
61 99 181
61 98 180
61 98 180
61 98 178
63 99 176
73 107 172
78 111 170
96 125 156
105 133 149
122 147 135
136 161 120
142 166 113
155 179 86
157 181 80
163 186 61
169 192 44
170 193 18
173 196 0
174 197 0
172 195 0
173 196 0
172 195 0
172 196 0
174 197 0
173 195 0
174 197 0
172 196 0
171 194 0
174 196 0
172 196 0
174 197 0
171 195 0
173 195 0
172 195 0
172 195 0
173 196 0
172 195 0
175 198 0
171 194 0
174 197 0
171 194 0
173 195 0
175 198 0
171 193 11
171 192 11
170 189 30
170 188 28
169 186 32
163 179 30
166 180 42
167 182 37
165 177 49
163 168 63
170 176 60
168 171 66
164 167 64
164 166 71
171 167 82
171 163 87
170 164 86
174 165 95
165 156 91
177 167 97
179 169 97
178 169 97
180 171 100
180 171 105
183 173 104
181 172 105
183 174 107
183 174 109
186 176 113
186 177 113
185 176 113
184 175 112
183 175 113
185 176 114
182 175 114
180 174 113
180 174 114
180 174 114
178 173 114
178 173 114
178 173 114
176 172 114
177 172 114
175 172 114
176 172 114
174 171 114
175 171 114
175 171 114
174 171 114
174 171 114
173 171 114
173 171 114
172 170 114
171 170 114
171 170 114
172 170 114
170 169 114
171 170 114
171 170 114
169 169 114
169 169 114
169 169 114
169 169 114
169 169 114
167 168 114
168 168 114
168 168 114
168 168 114
166 168 114
167 168 114
167 168 114
167 168 114
166 168 114
166 168 114
166 167 114
165 167 114
166 167 114
166 167 114
166 167 114
166 167 114
165 167 114
166 167 114
166 167 114
165 167 114
166 167 114
165 167 114
166 167 114
165 167 114
166 167 114
166 167 114
166 167 114
165 167 114
166 167 114
166 168 114
166 167 114
167 168 114
166 167 114
166 168 114
167 168 114
167 168 114
167 168 114
168 168 114
167 168 114
168 168 114
168 168 114
169 169 114
169 169 114
169 169 114
168 168 114
170 169 114
171 170 114
170 169 114
170 169 114
171 170 114
172 170 114
173 170 114
174 171 114
174 171 114
174 171 114
176 172 114
176 172 114
175 172 114
174 171 114
178 173 114
178 173 114
177 172 114
178 173 114
179 174 114
180 174 114
182 175 114
182 175 114
181 174 114
183 175 113
182 175 113
184 176 113
184 175 111
183 174 111
185 175 112
182 173 109
181 171 108
184 174 108
183 174 103
177 168 101
174 165 100
178 168 101
171 162 95
168 159 90
166 161 82
166 164 79
164 161 80
162 160 73
166 171 62
168 178 56
163 172 53
166 177 54
165 177 45
169 188 22
175 192 36
174 194 30
174 195 11
174 196 16
173 196 0
174 197 0
174 197 0
173 196 0
175 198 0
173 197 0
172 196 0
174 197 0
172 196 0
173 197 0
174 197 0
175 198 0
173 196 0
174 197 0
174 198 0
173 196 0
172 196 0
174 197 0
173 197 0
174 197 0
175 198 0
173 196 0
173 196 0
175 198 0
175 198 0
174 197 0
175 198 0
174 197 0
173 196 0
175 198 0
173 197 0
175 198 0
173 196 0
174 197 0
175 198 0
174 197 0
173 197 0
172 196 0
171 195 0
173 197 0
174 198 0
172 196 0
172 196 0
174 197 0
173 197 0
173 196 0
174 198 0
174 198 0
175 198 0
174 197 0
173 197 0
174 197 0
173 196 0
174 197 0
174 197 0
174 197 0
174 197 0
174 198 0
174 197 0
173 197 0
173 197 0
172 195 0
173 196 0
173 197 0
173 195 0
173 197 0
174 197 0
170 194 0
173 197 0
172 196 0
175 198 0
175 198 0
176 199 0
172 195 0
171 195 0
172 195 0
174 197 0
175 198 0
172 196 0
173 197 0
173 197 0
174 197 0
171 195 0
174 197 0
175 198 0
171 196 0
173 196 0
175 197 0
175 197 0
172 196 0
170 194 0
173 196 0
173 196 0
172 195 0
171 196 0
170 194 0
172 196 0
173 195 0
173 197 0
174 197 0
174 197 0
174 198 0
175 198 0
172 196 0
174 198 0
172 195 0
173 196 0
173 197 0
174 197 0
174 198 0
171 195 0
172 196 0
172 196 0
171 195 0
174 197 0
174 196 0
175 198 0
174 197 0
175 198 0
173 197 0
175 197 0
175 198 0
176 198 0
168 191 0
175 198 0
173 197 0
172 196 0
174 197 0
171 195 0
172 195 0
173 197 0
173 196 0
174 197 0
173 197 0
173 197 0
172 196 0
172 196 0
174 198 0
173 196 0
174 196 0
172 195 0
173 196 0
175 198 0
172 195 0
173 197 0
167 191 0
171 195 25
168 191 47
160 184 74
141 166 111
136 162 117
126 151 134
96 125 158
84 115 167
78 110 171
64 101 179
62 99 180
62 99 180
61 99 180
61 98 181
62 99 181
62 99 181
62 99 181
62 99 181
61 99 181
62 99 181
61 98 181
62 99 181
61 99 181
61 99 181
61 99 181
62 99 181
61 99 181
61 98 181
62 99 181
62 99 181
62 99 181
61 99 181
61 99 181
61 99 181
62 99 181
62 99 181
61 99 181
61 99 181
62 99 181
61 98 181
61 99 181
62 99 181
62 99 181
61 99 181
61 99 181
62 99 181
61 99 181
61 98 180
62 99 180
62 99 181
61 99 181
62 99 181
61 98 180
62 99 181
61 98 179
62 99 179
62 99 181
64 100 177
66 102 178
74 107 174
99 128 157
104 132 153
121 148 136
135 160 121
147 171 102
151 175 89
163 186 65
168 192 47
168 191 40
172 195 0
172 196 0
173 195 0
171 194 0
171 193 0
173 196 0
173 195 0
174 197 0
174 197 0
172 195 0
172 196 0
171 194 0
170 193 0
175 197 0
173 196 0
172 195 0
172 195 0
175 198 0
173 194 0
171 193 0
172 195 0
171 193 0
172 195 0
171 194 0
171 194 0
169 190 19
171 191 22
166 184 30
163 177 41
166 182 28
165 177 42
167 179 45
159 167 51
160 167 54
162 165 63
166 170 68
171 172 79
164 164 75
173 167 84
166 161 79
171 164 89
165 157 86
176 166 97
176 167 95
180 170 96
178 169 98
183 173 103
181 172 105
180 172 106
183 173 104
184 175 109
184 175 109
184 175 112
183 175 111
184 176 112
185 176 113
184 175 114
184 176 114
181 174 114
180 174 114
180 174 114
181 174 114
179 173 114
180 174 114
178 173 114
178 173 114
176 172 114
177 173 114
176 172 114
175 171 114
175 172 114
175 172 114
175 172 114
173 171 114
173 171 114
173 171 114
172 170 114
172 170 114
171 170 114
171 170 114
171 170 114
171 170 114
170 169 114
169 169 114
170 169 114
169 169 114
169 169 114
169 169 114
169 169 114
167 168 114
168 168 114
167 168 114
167 168 114
168 168 114
167 168 114
167 168 114
167 168 114
167 168 114
166 167 114
166 167 114
166 168 114
166 168 114
166 167 114
166 167 114
165 167 114
166 167 114
166 167 114
166 167 114
165 167 114
166 167 114
166 167 114
166 167 114
166 167 114
166 167 114
167 168 114
166 167 114
166 168 114
165 167 114
166 167 114
167 168 114
167 168 114
167 168 114
166 168 114
167 168 114
168 168 114
167 168 114
168 168 114
169 169 114
168 168 114
170 169 114
169 169 114
170 169 114
170 169 114
171 170 114
171 170 114
172 170 114
170 169 114
172 170 114
172 170 114
172 170 114
173 171 114
173 171 114
174 171 114
175 171 114
175 172 114
174 171 114
175 171 114
176 172 114
178 173 114
178 173 114
178 173 114
178 173 114
180 174 114
181 174 114
181 174 114
181 174 114
183 175 114
182 175 114
183 175 113
184 175 112
183 174 110
184 175 109
184 174 111
181 173 109
184 174 109
178 169 104
182 172 104
176 167 98
172 163 95
176 166 95
169 160 93
171 164 92
170 163 87
165 162 79
168 168 76
162 164 63
160 165 59
160 168 51
167 176 56
168 181 45
169 184 37
173 191 32
172 190 37
172 191 28
173 194 11
175 198 0
173 195 0
173 196 0
174 196 0
173 197 0
174 197 0
175 198 0
174 197 0
174 197 0
173 197 0
174 198 0
173 196 0
175 198 0
172 196 0
174 198 0
175 198 0
174 198 0
175 198 0
172 196 0
173 196 0
174 197 0
173 196 0
170 194 0
171 194 0
173 196 0
175 198 0
173 197 0
173 197 0
174 197 0
172 196 0
172 196 0
173 196 0
173 196 0
174 197 0
174 197 0
174 198 0
174 197 0
174 197 0
176 199 0
174 197 0
173 197 0
174 197 0
174 197 0
174 197 0
173 197 0
174 197 0
175 198 0
175 197 0
175 198 0
171 195 0
173 197 0
175 198 0
172 195 0
174 198 0
171 195 0
174 197 0
173 196 0
175 198 0
173 197 0
173 197 0
175 198 0
174 198 0
176 198 0
173 197 0
174 197 0
173 196 0
173 196 0
173 197 0
173 197 0
173 195 0
174 197 0
173 197 0
174 197 0
174 198 0
172 194 0
174 197 0
174 198 0
174 198 0
173 197 0
174 197 0
172 196 0
173 196 0
174 198 0
170 193 0
171 195 0
174 197 0
171 195 0
172 196 0
174 198 0
174 197 0
175 198 0
170 195 0
172 194 0
171 194 0
173 197 0
172 196 0
173 196 0
173 197 0
173 196 0
175 198 0
171 195 0
170 194 0
175 198 0
174 198 0
171 195 0
174 198 0
172 196 0
173 196 0
173 196 0
174 197 0
172 195 0
175 197 0
172 195 0
171 195 0
173 197 0
173 197 0
176 198 0
174 197 0
172 196 0
173 197 0
174 197 0
170 193 0
173 195 0
174 197 0
173 196 0
173 196 0
176 198 0
174 197 0
173 196 0
170 194 0
173 196 0
173 196 0
170 193 0
172 196 0
173 196 0
172 196 0
173 197 0
173 196 0
174 197 0
173 196 0
172 196 0
171 194 0
173 197 0
173 196 18
172 195 31
162 186 70
151 174 94
142 167 107
122 147 136
113 140 144
102 130 157
72 106 176
66 101 178
63 99 177
61 99 180
61 99 181
62 99 180
62 99 181
62 99 180
62 99 181
62 99 181
62 99 181
61 98 181
61 98 181
61 98 181
61 99 181
61 99 181
61 99 181
61 99 181
61 98 181
62 99 181
61 98 181
61 99 181
61 98 181
61 99 181
61 99 181
61 99 181
62 99 181
61 99 181
62 99 181
61 98 181
62 99 181
61 99 181
62 99 181
61 98 180
61 98 181
61 99 181
61 99 181
62 99 181
61 98 181
62 99 181
61 99 181
61 99 181
61 98 181
62 99 181
62 99 181
61 99 180
61 99 181
62 99 181
62 99 179
62 98 178
62 99 181
62 99 181
62 98 178
62 99 180
61 98 179
61 98 179
66 102 178
63 100 178
95 125 160
107 135 147
121 146 138
136 161 120
152 176 85
162 187 65
166 190 57
171 194 31
173 196 0
173 197 0
174 197 0
176 198 0
170 193 0
173 197 0
172 194 0
172 195 0
173 195 0
174 196 0
173 196 0
171 193 0
172 195 0
170 192 0
174 198 0
174 196 0
173 196 0
173 196 0
173 196 0
174 195 0
171 193 0
172 193 16
172 193 16
171 192 19
167 186 22
167 184 25
164 182 30
165 179 39
165 176 48
158 168 53
169 176 62
168 172 61
166 170 65
162 162 72
164 161 74
169 163 77
167 160 81
171 165 82
174 165 93
179 169 97
176 166 95
177 167 99
176 167 95
180 170 100
176 168 99
185 175 108
183 173 104
186 176 109
186 176 110
185 175 110
184 175 112
183 175 113
184 176 114
183 175 114
183 175 113
181 174 114
181 174 114
181 174 114
180 174 114
180 174 114
178 173 114
180 174 114
179 173 114
179 173 114
177 172 114
178 173 114
176 172 114
175 172 114
174 171 114
174 171 114
175 172 114
174 171 114
173 171 114
174 171 114
172 170 114
171 170 114
171 170 114
171 170 114
171 170 114
171 170 114
171 170 114
169 169 114
170 169 114
169 169 114
169 169 114
168 168 114
168 169 114
168 168 114
168 168 114
168 168 114
168 168 114
167 168 114
166 168 114
166 167 114
167 168 114
167 168 114
167 168 114
166 168 114
166 167 114
166 167 114
166 167 114
166 168 114
166 168 114
166 167 114
166 167 114
166 167 114
165 167 114
166 167 114
166 167 114
166 167 114
166 167 114
166 167 114
166 168 114
166 168 114
167 168 114
166 168 114
166 168 114
167 168 114
166 168 114
167 168 114
167 168 114
166 168 114
167 168 114
167 168 114
168 168 114
168 168 114
168 169 114
169 169 114
170 169 114
169 169 114
170 169 114
170 169 114
170 169 114
171 170 114
171 170 114
171 170 114
172 170 114
172 170 114
174 171 114
174 171 114
174 171 114
176 172 114
174 171 114
176 172 114
176 172 114
177 173 114
178 173 114
177 172 114
180 174 114
177 173 114
179 174 114
179 174 114
181 174 114
183 175 114
182 175 114
183 175 113
184 176 114
184 176 114
183 174 112
183 174 110
186 176 111
183 174 110
185 175 110
180 170 104
178 168 100
182 172 108
176 167 99
181 170 101
168 159 90
163 156 87
169 163 87
171 166 85
167 162 83
169 169 73
166 169 68
162 171 54
169 180 57
160 173 39
168 184 39
165 180 37
171 191 25
172 192 19
170 192 0
175 197 16
173 196 0
174 198 0
174 197 0
173 196 0
173 196 0
174 197 0
173 197 0
173 196 0
173 197 0
175 198 0
173 197 0
175 198 0
174 197 0
175 198 0
171 196 0
173 197 0
175 197 0
173 197 0
175 198 0
175 198 0
173 197 0
175 198 0
174 198 0
174 197 0
175 198 0
172 195 0
173 197 0
174 197 0
174 197 0
173 197 0
172 196 0
173 197 0
171 195 0
174 197 0
171 195 0
174 198 0
173 196 0
173 197 0
174 197 0
172 196 0
172 196 0
172 196 0
174 197 0
173 196 0
172 195 0
171 195 0
172 196 0
173 197 0
174 197 0
172 196 0
173 196 0
174 197 0
171 195 0
176 198 0
176 199 0
172 196 0
174 197 0
173 196 0
175 198 0
175 198 0
173 196 0
174 197 0
173 197 0
172 196 0
172 195 0
174 197 0
173 197 0
174 197 0
173 197 0
174 196 0
175 198 0
174 198 0
174 197 0
172 196 0
175 198 0
172 196 0
174 197 0
174 197 0
173 197 0
175 198 0
174 197 0
173 197 0
173 196 0
172 196 0
173 197 0
173 197 0
173 196 0
174 197 0
172 196 0
173 197 0
174 197 0
173 196 0
172 195 0
174 197 0
175 198 0
173 196 0
174 197 0
172 195 0
173 197 0
173 196 0
172 196 0
173 195 0
175 198 0
174 197 0
172 196 0
172 196 0
172 196 0
175 198 0
173 197 0
172 195 0
173 196 0
173 197 0
172 196 0
172 195 0
173 197 0
175 198 0
171 195 0
173 196 0
171 194 0
173 196 0
175 198 0
172 195 0
173 196 0
172 195 0
173 196 0
173 196 0
175 198 0
174 196 0
172 196 0
173 196 0
173 196 0
174 198 0
172 196 0
173 196 0
174 197 0
173 197 0
175 198 0
173 196 0
168 191 0
173 196 0
170 194 18
169 193 36
157 181 80
144 167 108
135 160 121
123 149 134
108 135 151
74 108 173
63 100 177
61 99 180
62 99 180
62 99 181
62 99 181
62 99 181
62 99 181
62 99 181
62 99 181
62 99 181
61 99 181
62 99 181
61 99 181
61 99 181
62 99 181
62 99 181
62 99 181
61 99 181
61 99 181
61 99 181
61 99 181
61 98 181
62 99 181
62 99 181
61 99 181
61 98 181
61 98 181
62 99 181
62 99 181
61 99 181
61 98 181
61 99 181
61 99 181
61 98 181
61 99 181
61 99 181
62 99 181
62 99 181
62 99 179
61 99 181
61 98 181
62 99 181
61 99 181
62 99 181
62 99 180
61 99 181
61 98 179
62 99 181
62 99 180
62 99 181
61 98 180
62 99 180
61 98 180
62 99 181
61 98 180
62 99 180
62 99 180
61 98 176
62 99 179
61 98 178
62 99 178
64 100 176
69 103 175
94 123 161
109 136 147
128 154 125
142 166 110
152 176 92
162 185 65
168 191 36
170 193 18
171 193 0
173 196 0
171 194 0
173 196 0
174 198 0
172 194 0
173 196 0
173 196 0
171 194 0
173 196 0
172 197 0
174 197 0
172 196 0
171 194 0
173 197 0
171 193 0
169 192 0
173 195 19
170 192 16
167 188 11
168 186 19
164 180 34
171 186 39
169 186 37
166 181 34
165 175 48
164 173 53
172 179 63
161 164 58
165 165 71
167 167 73
166 166 64
170 165 79
167 159 81
172 164 89
167 158 87
178 169 97
178 169 94
178 169 98
180 170 99
178 169 99
179 170 103
182 173 103
182 173 106
185 176 109
181 173 105
183 175 110
185 176 113
185 176 113
186 176 113
184 175 113
181 173 113
182 174 113
181 174 113
178 172 113
181 174 114
179 173 113
179 173 114
179 173 114
179 173 114
177 172 114
176 171 113
177 173 114
176 172 114
175 172 114
172 170 114
173 171 114
175 171 114
174 171 114
174 171 114
174 171 114
173 171 114
171 170 114
172 170 114
171 170 114
171 170 114
171 170 114
171 170 114
170 169 114
169 169 114
169 169 114
169 169 114
169 169 114
169 169 114
168 169 114
168 168 114
168 168 114
168 168 114
167 168 114
167 168 114
167 168 114
167 168 114
167 168 114
166 168 114
166 168 114
166 167 114
166 167 114
166 168 114
167 168 114
166 168 114
166 167 114
166 168 114
166 167 114
166 167 114
166 167 114
166 168 114
166 167 114
166 168 114
166 168 114
166 167 114
167 168 114
167 168 114
166 167 114
167 168 114
167 168 114
167 168 114
167 168 114
168 168 114
168 168 114
168 169 114
167 168 114
169 169 114
169 169 114
168 169 114
169 169 114
169 169 114
171 170 114
171 170 114
170 169 114
170 169 114
170 169 114
171 170 114
172 170 114
172 170 114
174 171 114
174 171 114
174 171 114
173 171 114
174 171 114
176 172 114
175 171 114
176 172 114
177 172 114
178 173 114
178 173 114
179 174 114
179 173 114
181 174 114
180 174 114
181 174 114
182 175 114
182 175 114
184 176 114
183 175 113
184 176 113
185 176 112
185 175 111
186 176 112
183 175 110
183 173 108
182 173 107
183 173 108
182 172 106
172 163 97
171 161 94
177 167 99
166 158 85
165 156 87
166 162 80
166 161 82
163 164 72
166 171 63
163 168 64
165 171 61
171 185 47
164 180 34
164 181 32
171 190 25
169 188 22
169 190 11
172 193 0
175 197 0
175 198 0
173 197 0
172 195 0
175 198 0
172 196 0
172 196 0
176 199 0
173 197 0
172 196 0
174 197 0
175 198 0
171 195 0
172 196 0
171 195 0
172 196 0
175 198 0
174 197 0
174 197 0
174 197 0
174 198 0
174 198 0
174 197 0
172 196 0
173 197 0
173 197 0
173 196 0
173 197 0
173 196 0
176 198 0
174 198 0
174 197 0
174 197 0
173 197 0
174 197 0
173 197 0
172 196 0
174 197 0
174 198 0
173 197 0
174 197 0
172 196 0
177 199 0
175 198 0
173 197 0
172 197 0
174 197 0
173 197 0
173 196 0
174 198 0
173 196 0
170 194 0
171 195 0
174 196 0
173 197 0
172 196 0
172 196 0
172 195 0
173 197 0
174 197 0
170 193 0
174 197 0
173 196 0
173 197 0
172 196 0
174 197 0
173 196 0
174 197 0
172 195 0
173 196 0
173 197 0
174 197 0
173 196 0
173 196 0
175 198 0
174 197 0
172 195 0
173 197 0
172 195 0
170 194 0
172 195 0
175 197 0
170 192 0
172 196 0
173 197 0
174 197 0
172 195 0
173 196 0
174 197 0
173 196 0
175 198 0
175 198 0
173 196 0
173 196 0
172 195 0
171 195 0
175 198 0
173 196 0
174 197 0
172 196 0
172 196 0
173 197 0
173 197 0
173 196 0
174 198 0
175 197 0
174 197 0
172 195 0
172 196 0
174 197 0
172 194 0
174 197 0
174 197 0
173 195 0
174 197 0
172 195 0
175 198 0
172 195 0
173 195 0
172 196 0
175 197 0
176 198 0
171 194 0
170 194 0
173 197 0
175 198 0
174 197 0
174 196 0
175 198 0
173 196 0
174 197 0
173 196 0
174 198 0
172 196 0
174 196 0
173 196 0
172 196 0
173 197 0
170 194 25
166 189 51
153 178 88
140 165 114
126 152 133
118 145 142
84 115 166
73 107 173
62 99 179
62 99 180
63 100 181
62 99 181
62 99 179
62 99 181
62 99 181
62 99 180
62 99 181
62 99 181
61 99 181
62 99 181
61 99 181
62 99 181
61 98 181
61 99 181
62 99 181
61 99 181
61 99 181
61 99 181
61 99 181
61 99 181
61 98 181
61 99 181
61 99 181
62 99 181
62 99 181
62 99 181
61 98 181
61 99 181
61 98 181
61 98 181
62 99 181
61 98 181
61 99 181
61 99 181
61 98 181
62 99 181
61 98 181
62 99 181
62 99 181
62 99 181
61 98 180
61 98 181
61 99 181
62 99 181
61 98 181
62 99 181
62 99 181
61 99 181
62 99 180
62 99 181
62 99 181
61 98 181
62 99 181
61 99 181
62 99 181
61 98 181
61 99 180
61 98 178
62 99 180
62 99 181
61 98 178
62 98 178
61 99 179
62 98 176
65 101 175
89 118 165
99 128 158
123 148 138
136 161 117
144 168 104
159 182 76
167 189 51
166 190 45
173 196 0
173 194 0
174 197 0
173 196 0
172 195 0
171 193 0
172 195 0
171 195 0
172 195 0
173 196 0
175 198 0
172 195 0
170 193 0
171 195 0
172 195 0
168 189 0
168 190 16
165 186 0
170 189 28
168 186 30
167 183 30
166 183 30
167 180 41
173 183 59
165 176 47
158 165 48
170 173 63
170 168 79
169 167 78
167 167 73
166 161 79
167 159 84
164 156 79
172 163 91
175 166 92
180 171 98
177 168 100
183 173 104
180 171 100
183 173 105
181 172 103
184 174 106
184 175 110
183 174 109
186 176 112
184 175 110
185 176 112
183 175 113
182 174 112
182 174 113
181 174 114
179 173 113
180 173 113
179 173 113
179 173 114
179 173 114
180 174 114
179 174 114
179 173 114
176 172 114
177 173 114
176 172 114
176 172 114
175 172 114
176 172 114
174 171 114
173 171 114
174 171 114
174 171 114
172 170 114
173 170 114
171 170 114
171 170 114
172 170 114
171 170 114
171 170 114
171 170 114
171 170 114
170 169 114
169 169 114
169 169 114
168 168 114
167 168 114
168 168 114
168 168 114
168 168 114
168 168 114
167 168 114
167 168 114
167 168 114
167 168 114
167 168 114
166 167 114
167 168 114
166 167 114
166 168 114
166 167 114
167 168 114
166 168 114
167 168 114
166 168 114
166 167 114
166 167 114
166 168 114
166 168 114
166 167 114
166 168 114
166 167 114
166 168 114
166 168 114
166 168 114
167 168 114
167 168 114
167 168 114
167 168 114
167 168 114
168 168 114
168 168 114
168 168 114
169 169 114
169 169 114
169 169 114
170 169 114
169 169 114
170 169 114
169 169 114
172 170 114
171 170 114
170 169 114
172 170 114
172 170 114
172 170 114
172 170 114
174 171 114
174 171 114
174 171 114
176 172 114
176 172 114
176 172 114
175 172 114
177 172 114
176 172 114
179 174 114
179 173 114
179 173 114
177 173 114
181 174 114
181 174 114
182 175 114
184 176 114
183 175 114
185 176 113
184 176 113
185 176 114
185 176 112
184 175 111
186 176 109
182 172 104
182 173 105
182 172 103
181 171 103
177 167 99
176 167 99
177 168 100
172 162 95
176 166 97
167 160 84
169 164 80
168 166 76
164 165 69
164 172 53
171 179 64
166 175 52
171 184 48
168 182 41
167 184 36
167 186 19
171 193 19
172 194 0
174 197 0
173 196 0
175 198 0
173 196 0
173 196 0
175 198 0
173 197 0
173 197 0
173 196 0
174 198 0
173 197 0
173 197 0
175 198 0
174 197 0
174 197 0
173 197 0
174 197 0
173 196 0
174 197 0
173 197 0
174 197 0
174 197 0
174 198 0
173 196 0
173 197 0
172 195 0
172 197 0
174 197 0
174 197 0
173 196 0
175 198 0
173 196 0
173 197 0
172 196 0
173 197 0
173 196 0
174 197 0
173 196 0
172 195 0
171 195 0
174 197 0
172 196 0
173 197 0
173 197 0
174 196 0
172 196 0
174 197 0
173 196 0
173 196 0
172 196 0
174 197 0
173 196 0
173 197 0
174 197 0
174 198 0
173 197 0
174 197 0
173 196 0
174 197 0
174 197 0
171 195 0
174 197 0
173 197 0
174 197 0
173 197 0
173 196 0
176 199 0
174 197 0
176 199 0
175 198 0
174 197 0
172 194 0
171 195 0
172 196 0
175 198 0
173 196 0
173 196 0
173 196 0
172 196 0
173 197 0
173 197 0
174 198 0
171 195 0
174 197 0
173 196 0
174 197 0
172 195 0
172 196 0
173 196 0
171 195 0
173 197 0
174 198 0
174 197 0
174 197 0
174 197 0
172 195 0
171 194 0
174 197 0
172 195 0
174 197 0
173 196 0
174 197 0
171 194 0
172 196 0
174 197 0
173 196 0
173 196 0
173 196 0
172 196 0
173 197 0
173 197 0
173 197 0
173 196 0
170 193 0
172 196 0
175 198 0
172 195 0
173 197 0
172 195 0
172 196 0
174 197 0
171 195 0
174 198 0
172 196 0
173 197 0
173 196 0
172 195 0
170 194 0
174 197 0
174 197 0
172 195 0
172 196 0
171 195 0
173 196 0
171 194 0
171 195 0
169 192 25
165 189 54
156 180 84
140 165 111
123 149 133
88 119 162
86 117 167
64 101 179
62 99 180
62 99 178
62 99 181
62 99 179
61 99 180
61 99 178
61 99 181
62 99 180
62 99 181
63 100 181
62 99 180
62 99 181
62 99 181
62 99 181
61 98 181
61 98 181
62 99 181
62 99 181
61 99 181
61 99 181
61 98 181
61 99 181
61 99 181
61 98 181
61 99 181
62 99 181
61 99 181
61 99 181
61 98 181
61 99 181
61 99 181
61 99 181
62 99 181
61 98 181
62 99 181
62 99 181
61 99 181
62 99 181
62 99 181
61 99 181
61 98 181
61 99 181
61 98 181
61 99 181
61 98 181
61 98 180
62 99 181
61 99 181
62 99 181
61 99 181
61 99 181
61 98 180
62 99 181
61 99 181
62 99 181
62 99 181
62 99 181
61 98 179
62 99 181
62 99 180
61 98 180
62 99 180
61 98 178
61 99 180
62 99 179
62 99 181
62 99 179
62 99 179
62 98 178
62 98 177
63 99 176
68 103 173
96 125 158
121 147 138
135 159 116
147 171 93
158 181 75
165 189 51
167 191 25
175 197 0
173 195 0
174 196 0
170 192 0
171 195 0
174 197 0
170 194 0
171 194 0
170 194 0
172 195 0
173 197 0
173 196 0
173 196 0
172 194 19
171 192 16
171 191 19
170 191 16
167 183 36
164 177 41
165 177 47
168 178 45
162 173 48
166 173 54
170 173 65
167 169 63
167 167 68
163 162 73
163 161 74
159 154 73
174 166 85
172 162 93
171 162 89
174 166 90
176 167 96
179 170 99
181 172 101
184 174 106
181 173 102
180 171 104
180 172 105
185 175 108
183 174 107
182 174 109
185 176 112
182 174 111
181 172 110
184 175 113
183 175 114
181 174 113
180 173 113
181 174 114
181 174 114
180 173 113
179 173 114
178 172 113
177 172 113
177 172 113
176 171 113
179 173 114
176 172 114
176 172 114
175 172 114
175 172 114
175 172 114
176 172 114
175 171 114
172 170 114
172 170 114
172 170 114
173 171 114
172 170 114
170 169 114
171 170 114
170 169 114
170 169 114
171 170 114
170 169 114
170 169 114
169 169 114
169 169 114
169 169 114
169 169 114
168 169 114
169 169 114
168 169 114
168 168 114
167 168 114
168 168 114
167 168 114
167 168 114
167 168 114
167 168 114
167 168 114
167 168 114
167 168 114
166 168 114
166 167 114
166 168 114
166 168 114
167 168 114
166 167 114
167 168 114
167 168 114
167 168 114
167 168 114
167 168 114
167 168 114
168 168 114
167 168 114
167 168 114
168 168 114
168 168 114
167 168 114
167 168 114
167 168 114
169 169 114
169 169 114
168 168 114
169 169 114
169 169 114
168 168 114
171 170 114
170 169 114
170 169 114
170 169 114
172 170 114
171 170 114
172 170 114
173 170 114
173 171 114
174 171 114
173 171 114
174 171 114
174 171 114
174 171 114
176 172 114
175 172 114
176 172 114
176 172 114
176 172 114
179 173 114
177 172 114
179 173 114
180 174 114
181 174 114
181 174 114
183 175 114
182 175 114
183 175 114
182 174 113
186 177 114
183 175 113
183 175 112
184 175 109
183 175 109
184 174 109
185 176 110
183 174 107
177 168 101
180 170 104
174 166 95
173 164 95
170 161 90
169 160 87
159 152 80
166 162 77
165 161 75
163 163 71
168 172 63
171 176 69
166 176 56
167 178 49
166 178 42
170 187 32
170 187 22
170 190 19
169 191 11
176 199 0
173 196 0
171 195 0
173 197 0
172 196 0
173 196 0
173 195 0
174 197 0
174 197 0
173 197 0
172 196 0
174 197 0
173 196 0
174 197 0
175 198 0
173 197 0
173 197 0
173 197 0
174 197 0
173 197 0
174 197 0
174 198 0
173 196 0
173 196 0
174 197 0
173 196 0
175 198 0
175 197 0
170 193 0
174 197 0
175 198 0
174 197 0
175 198 0
173 197 0
173 197 0
173 197 0
174 197 0
174 198 0
173 197 0
172 196 0
174 198 0
174 197 0
173 196 0
174 197 0
173 196 0
172 196 0
173 196 0
173 197 0
175 198 0
173 196 0
174 197 0
172 196 0
174 197 0
175 198 0
174 197 0
173 197 0
174 197 0
176 199 0
173 196 0
172 195 0
173 196 0
176 199 0
172 196 0
172 196 0
174 197 0
172 196 0
172 195 0
170 193 0
173 197 0
173 197 0
173 196 0
173 196 0
175 198 0
171 195 0
174 198 0
175 198 0
171 195 0
172 196 0
173 197 0
174 197 0
171 195 0
172 195 0
174 198 0
175 198 0
173 197 0
173 196 0
174 197 0
172 196 0
173 197 0
173 196 0
172 196 0
172 196 0
175 198 0
171 195 0
171 195 0
173 196 0
172 196 0
175 198 0
175 198 0
172 196 0
174 198 0
171 194 0
173 196 0
174 197 0
172 195 0
172 195 0
174 196 0
172 197 0
172 196 0
172 197 0
172 196 0
172 195 0
174 197 0
172 196 0
173 197 0
174 197 0
171 195 0
173 197 0
173 196 0
173 196 0
173 196 0
174 197 0
173 197 0
172 196 0
174 198 0
172 196 0
172 197 0
172 196 0
173 197 0
171 194 0
172 195 0
174 197 0
172 196 0
171 195 0
173 196 25
168 190 47
159 183 76
132 157 120
117 143 142
101 130 155
74 108 174
62 99 181
62 99 179
63 100 181
61 99 179
62 99 179
62 99 181
62 99 179
61 99 180
61 99 181
62 99 180
61 99 180
61 99 179
62 99 181
62 99 181
61 99 181
61 98 181
62 99 181
61 99 181
61 98 181
61 99 181
61 99 181
61 99 181
61 98 181
61 98 181
61 99 181
61 99 181
62 99 181
62 99 181
61 99 181
62 99 181
62 99 181
61 98 181
62 99 181
61 99 181
61 98 181
61 98 181
61 98 181
62 99 181
61 98 181
61 98 181
61 98 181
61 99 181
61 98 181
62 99 181
61 99 181
61 99 181
61 99 181
61 99 181
61 99 181
61 98 181
61 99 181
61 99 181
62 99 181
61 99 181
61 99 181
62 99 181
62 99 181
61 99 181
62 99 181
61 99 181
62 99 180
62 99 180
62 99 180
62 99 181
61 98 181
61 99 181
61 99 180
62 99 180
61 98 178
61 98 180
62 99 181
62 99 180
62 99 179
62 99 178
62 99 180
61 98 177
79 111 171
90 121 160
111 137 144
141 165 107
142 165 94
160 184 66
170 192 51
168 192 26
173 196 0
172 195 0
172 195 0
172 195 0
173 197 0
172 195 0
172 195 0
174 196 0
170 193 0
172 195 0
174 197 0
173 195 16
169 189 11
166 186 0
169 186 32
169 186 36
164 179 37
164 177 44
169 178 53
162 170 47
170 177 58
163 166 64
166 167 66
168 166 73
167 164 76
161 157 77
160 155 75
172 163 87
171 162 89
174 165 89
176 167 90
178 169 96
182 172 97
183 173 103
183 173 103
183 173 105
183 173 105
183 174 106
183 174 110
183 174 109
185 176 111
183 174 110
178 171 110
181 173 113
179 172 111
182 174 113
181 173 113
182 174 114
181 174 114
178 172 113
179 172 113
177 171 113
177 172 113
178 172 113
176 171 113
176 171 113
176 171 114
177 172 114
176 172 114
177 172 114
174 170 113
174 171 114
175 171 114
175 171 114
173 171 114
172 170 114
172 170 114
173 171 114
172 170 114
172 170 114
171 170 114
171 170 114
171 170 114
170 169 114
171 170 114
169 169 114
170 169 114
169 169 114
169 169 114
170 169 114
169 169 114
168 168 114
169 169 114
168 169 114
168 168 114
167 168 114
167 168 114
167 168 114
167 168 114
167 168 114
167 168 114
167 168 114
166 168 114
167 168 114
166 168 114
166 168 114
167 168 114
167 168 114
166 167 114
167 168 114
167 168 114
167 168 114
167 168 114
167 168 114
167 168 114
167 168 114
167 168 114
167 168 114
167 168 114
168 168 114
167 168 114
168 168 114
169 169 114
169 169 114
169 169 114
169 169 114
170 169 114
169 169 114
170 169 114
170 169 114
171 170 114
170 169 114
172 170 114
172 170 114
172 170 114
173 171 114
174 171 114
172 170 114
174 171 114
174 171 114
175 171 114
174 171 114
176 172 114
175 172 114
177 172 114
178 173 114
177 172 114
178 173 114
177 173 114
179 174 114
178 173 114
180 174 114
179 174 114
182 175 114
183 175 114
183 175 114
183 175 114
185 176 113
184 175 113
184 176 112
185 176 113
185 176 113
185 176 111
185 175 109
182 173 106
181 172 106
184 174 107
179 170 101
177 167 99
179 169 99
173 163 97
177 167 97
163 156 80
162 158 74
165 160 81
166 165 75
162 166 62
164 169 63
165 174 51
168 176 53
160 176 34
165 183 32
167 185 30
169 188 30
169 188 19
173 197 0
174 197 0
174 198 0
174 197 0
174 197 0
173 197 0
173 196 0
172 196 0
174 198 0
175 197 0
172 196 0
173 197 0
172 196 0
173 197 0
173 196 0
174 198 0
175 197 0
172 195 0
172 196 0
170 195 0
173 197 0
173 196 0
173 196 0
173 197 0
173 197 0
175 197 0
174 197 0
174 198 0
173 196 0
173 197 0
172 195 0
171 195 0
172 195 0
174 197 0
173 196 0
171 195 0
174 197 0
176 199 0
175 198 0
172 196 0
172 195 0
174 197 0
174 197 0
175 198 0
175 198 0
176 198 0
175 198 0
172 196 0
173 196 0
174 198 0
174 197 0
172 195 0
173 197 0
173 197 0
174 198 0
174 198 0
176 199 0
171 195 0
174 197 0
173 196 0
172 196 0
174 197 0
175 198 0
173 196 0
174 197 0
172 196 0
174 196 0
172 196 0
170 193 0
173 196 0
174 197 0
172 197 0
174 197 0
171 195 0
172 196 0
172 195 0
175 198 0
171 195 0
173 197 0
174 197 0
173 196 0
175 198 0
173 196 0
171 196 0
174 197 0
172 195 0
173 197 0
175 198 0
174 197 0
174 197 0
174 198 0
172 196 0
171 195 0
174 196 0
174 197 0
174 197 0
170 193 0
173 196 0
170 194 0
175 198 0
175 198 0
174 197 0
174 198 0
171 195 0
173 197 0
170 195 0
172 196 0
172 196 0
172 195 0
174 198 0
173 197 0
171 195 0
173 196 0
173 196 0
173 196 0
174 197 0
174 197 0
174 197 0
172 195 0
172 196 0
172 196 0
174 197 0
171 195 0
174 198 0
171 194 0
174 197 0
172 196 0
172 195 0
171 195 0
171 194 0
174 197 0
173 196 0
172 195 18
168 192 40
161 185 70
150 174 97
120 146 135
100 129 151
79 112 171
64 100 179
62 99 178
62 99 181
62 99 177
62 99 180
62 99 179
61 99 180
62 99 180
62 99 180
62 99 181
61 99 181
62 99 181
61 99 180
62 99 181
62 99 181
61 99 181
62 99 181
61 98 179
62 99 181
62 99 181
62 99 181
62 99 181
61 98 181
61 99 181
61 98 181
62 99 181
61 98 181
62 99 181
61 98 181
61 99 181
62 99 181
61 98 181
61 98 181
61 99 181
62 99 181
61 99 181
62 99 181
61 98 181
61 99 181
61 99 181
62 99 181
61 99 181
62 99 181
61 99 181
62 99 181
61 99 181
61 99 181
61 98 181
61 98 181
61 98 181
61 98 181
60 98 181
61 99 181
62 99 181
62 99 181
61 99 181
61 98 181
61 98 181
61 99 181
62 99 181
62 99 181
62 99 181
62 99 181
62 99 180
61 99 181
61 99 180
62 98 178
62 99 179
62 99 181
62 99 179
62 99 180
62 99 177
61 99 180
61 99 178
62 99 181
62 99 181
62 98 179
62 98 177
62 99 178
64 100 176
67 102 173
92 121 156
119 146 137
137 162 107
154 177 89
165 189 57
167 190 54
169 192 18
172 195 0
171 193 0
171 195 0
171 194 0
174 196 0
170 194 0
173 196 0
171 193 0
170 193 0
171 193 16
172 193 16
168 186 22
167 186 22
165 180 36
165 175 47
166 178 44
162 171 51
167 172 59
170 172 69
168 170 67
163 165 64
165 164 70
168 166 73
166 161 77
170 162 87
174 165 87
174 165 93
173 164 87
176 168 93
179 169 99
180 171 99
180 171 101
180 171 104
179 171 101
177 169 102
184 173 108
182 173 109
184 175 110
181 173 111
181 173 111
180 173 112
182 174 111
178 171 111
180 173 113
175 169 112
179 172 113
179 173 113
177 172 113
177 172 113
173 168 111
176 170 113
177 171 113
177 172 113
175 170 113
176 172 114
174 170 113
173 169 113
175 171 113
173 170 114
175 172 114
174 171 114
174 171 114
173 171 114
173 171 114
173 171 114
173 170 114
172 170 114
171 170 114
172 170 114
170 169 114
172 170 114
171 170 114
170 169 114
170 169 114
169 169 114
170 169 114
169 169 114
168 168 114
170 169 114
168 168 114
168 169 114
167 168 114
168 168 114
167 168 114
168 168 114
168 168 114
168 168 114
168 168 114
167 168 114
168 168 114
167 168 114
168 168 114
167 168 114
167 168 114
167 168 114
168 168 114
168 168 114
167 168 114
168 168 114
167 168 114
167 168 114
167 168 114
167 168 114
167 168 114
167 168 114
167 168 114
167 168 114
169 169 114
168 168 114
168 168 114
169 169 114
168 168 114
170 169 114
169 169 114
169 169 114
170 169 114
171 170 114
171 169 114
170 169 114
170 169 114
170 169 114
173 170 114
172 170 114
172 170 114
172 170 114
173 170 114
173 171 114
174 171 114
174 171 114
175 171 114
174 171 114
175 171 114
175 171 114
175 172 114
177 172 114
179 174 114
180 174 114
179 173 114
179 174 114
181 174 114
180 174 114
183 175 114
182 175 114
182 175 113
182 175 114
183 175 114
184 176 112
186 176 113
186 176 112
186 177 113
182 173 108
182 174 109
183 173 108
181 172 104
181 171 99
180 170 103
177 167 98
175 166 97
175 165 95
176 165 96
165 156 87
171 163 92
169 163 84
159 158 73
165 164 69
168 175 59
162 168 58
168 179 53
170 183 48
163 177 39
163 180 28
172 191 28
173 193 25
168 189 16
173 196 0
173 196 0
175 197 0
174 198 0
175 198 0
173 196 0
172 195 0
172 196 0
172 196 0
173 197 0
174 197 0
174 196 0
173 197 0
172 196 0
172 196 0
175 198 0
172 196 0
173 197 0
174 197 0
175 198 0
173 196 0
172 196 0
174 197 0
172 196 0
173 196 0
174 197 0
174 197 0
174 197 0
171 194 0
172 196 0
173 196 0
175 198 0
171 195 0
174 197 0
175 198 0
175 197 0
173 197 0
174 197 0
175 198 0
173 197 0
173 197 0
171 195 0
174 197 0
173 197 0
175 198 0
174 197 0
175 198 0
174 197 0
174 197 0
174 197 0
174 197 0
173 197 0
175 198 0
173 196 0
175 197 0
175 198 0
173 196 0
175 198 0
172 196 0
173 197 0
172 196 0
173 196 0
172 196 0
173 197 0
172 196 0
173 196 0
172 196 0
171 195 0
172 196 0
171 195 0
174 197 0
171 195 0
172 195 0
172 196 0
173 196 0
175 198 0
173 196 0
174 198 0
174 197 0
172 195 0
173 196 0
173 196 0
173 196 0
173 196 0
172 195 0
174 197 0
174 197 0
174 198 0
172 196 0
174 198 0
173 197 0
174 197 0
173 196 0
172 196 0
172 196 0
173 197 0
171 194 0
173 197 0
172 194 0
172 195 0
172 196 0
173 197 0
170 192 0
171 195 0
173 197 0
173 196 0
172 195 0
170 194 0
174 196 0
173 195 0
174 197 0
173 196 0
175 198 0
173 196 0
173 197 0
173 197 0
171 195 0
175 197 0
174 197 0
172 196 0
172 196 0
173 196 0
173 196 0
173 196 0
175 197 0
172 196 0
172 196 0
171 194 0
174 197 0
170 195 0
171 194 31
164 187 60
147 172 99
128 154 129
108 134 144
77 110 172
64 100 177
62 99 181
62 99 180
62 99 179
62 99 181
62 99 179
62 99 180
62 99 179
61 99 181
62 99 180
62 99 180
62 99 181
61 99 181
62 99 181
61 99 180
62 99 181
61 99 179
62 99 181
62 99 181
62 99 181
62 99 181
61 99 181
61 98 181
61 99 181
61 99 181
62 99 181
61 99 181
61 99 181
62 99 181
62 99 181
61 98 181
61 98 181
61 98 181
61 99 181
61 98 181
62 99 181
61 98 181
61 99 181
61 99 181
62 99 181
61 98 181
61 99 181
61 99 181
61 98 181
61 99 181
61 98 181
61 98 181
61 98 181
62 99 181
61 99 181
61 98 181
61 99 181
61 99 181
61 99 181
62 99 181
61 98 181
62 99 181
62 99 181
62 99 181
61 99 181
61 99 181
62 99 181
62 99 181
61 98 181
62 99 181
61 99 181
62 99 181
61 99 181
62 99 180
62 99 180
63 100 179
62 99 181
62 99 178
62 99 178
62 99 178
61 98 180
61 98 180
62 99 181
62 99 180
62 99 178
62 99 179
62 99 179
61 97 172
64 99 176
74 106 173
103 130 147
115 140 136
143 167 103
152 176 82
167 189 51
169 192 36
175 197 0
172 195 0
174 197 0
173 195 0
171 195 0
173 197 0
173 196 0
173 194 11
167 185 22
168 187 22
167 185 25
166 185 25
167 181 37
166 178 41
160 171 44
159 168 42
159 164 57
168 170 66
168 171 66
165 165 71
165 159 75
159 154 75
169 162 85
169 161 88
175 166 90
174 164 92
176 167 92
180 170 98
181 172 101
182 173 102
183 173 103
178 169 102
180 171 101
182 173 105
181 173 106
182 173 108
183 173 108
181 173 110
179 171 108
179 171 110
180 172 110
179 172 112
179 172 112
178 171 112
182 174 113
174 168 111
177 171 113
174 169 112
171 166 110
177 172 113
176 170 113
176 171 113
175 171 113
176 171 113
174 170 113
173 170 113
174 170 113
172 169 113
175 171 114
175 171 114
174 171 114
172 170 113
173 171 114
171 170 114
173 170 114
173 170 114
171 170 114
171 170 114
172 170 114
172 170 114
171 170 114
171 169 114
171 170 114
169 169 114
169 169 114
169 169 114
168 169 114
169 169 114
169 169 114
168 168 114
169 169 114
169 169 114
168 168 114
167 168 114
168 168 114
169 169 114
169 169 114
168 168 114
168 168 114
168 168 114
167 168 114
168 168 114
168 168 114
167 168 114
167 168 114
167 168 114
168 168 114
168 168 114
168 168 114
167 168 114
168 168 114
167 168 114
168 169 114
168 168 114
169 169 114
169 169 114
168 168 114
169 169 114
169 169 114
170 169 114
169 169 114
169 169 114
169 169 114
169 169 114
169 169 114
171 170 114
169 169 114
171 169 114
171 170 114
172 170 114
172 170 114
172 170 114
172 170 114
173 171 114
171 170 114
176 172 114
174 171 114
174 171 114
174 171 114
175 172 114
177 172 114
177 172 114
176 172 114
177 173 114
177 172 114
179 173 114
180 174 114
179 173 114
181 174 114
179 173 114
182 175 114
181 174 114
183 175 114
183 175 114
183 175 113
185 176 113
184 176 113
184 176 113
185 176 113
182 174 108
183 174 108
182 173 105
182 172 107
180 171 103
180 171 103
181 171 103
176 167 99
172 164 93
172 163 90
164 155 87
169 162 87
164 159 81
162 157 79
166 165 74
164 165 67
162 169 57
157 163 54
165 176 52
164 179 39
167 184 32
168 185 32
169 190 16
169 189 19
172 195 11
173 196 0
175 198 0
174 197 0
174 198 0
175 198 0
172 196 0
173 196 0
173 196 0
172 195 0
173 196 0
174 198 0
173 197 0
173 196 0
174 197 0
172 196 0
173 197 0
174 197 0
172 196 0
173 197 0
174 198 0
175 198 0
174 197 0
174 197 0
174 197 0
173 197 0
174 198 0
173 196 0
171 195 0
173 196 0
173 197 0
175 198 0
171 194 0
174 197 0
175 198 0
173 197 0
173 196 0
172 195 0
175 198 0
174 197 0
174 197 0
173 197 0
173 196 0
173 196 0
172 196 0
173 197 0
171 195 0
175 198 0
172 196 0
175 198 0
173 197 0
175 198 0
173 197 0
172 196 0
172 195 0
174 198 0
174 197 0
173 197 0
173 197 0
174 197 0
175 198 0
172 196 0
174 197 0
172 196 0
174 197 0
175 198 0
175 198 0
174 197 0
174 197 0
172 196 0
173 196 0
172 196 0
172 196 0
172 197 0
173 196 0
171 195 0
173 196 0
173 197 0
174 197 0
173 197 0
170 194 0
173 197 0
172 195 0
174 197 0
173 196 0
174 197 0
174 197 0
174 198 0
174 197 0
174 196 0
173 196 0
174 197 0
174 197 0
172 196 0
174 197 0
173 196 0
173 196 0
173 197 0
174 198 0
174 197 0
173 196 0
175 198 0
172 195 0
174 197 0
172 196 0
173 196 0
171 194 0
173 196 0
173 197 0
171 195 0
173 196 0
175 198 0
174 197 0
170 192 0
175 198 0
173 196 0
172 195 0
172 195 0
172 196 0
171 195 0
172 195 0
173 197 0
174 197 0
175 197 0
174 196 0
174 197 0
171 195 0
173 197 0
172 195 18
160 185 65
159 182 72
128 154 124
121 148 134
85 117 165
67 102 176
62 99 179
62 99 175
62 99 178
62 99 178
62 99 178
62 99 177
62 99 179
62 99 180
61 98 181
62 99 180
61 99 181
61 99 181
62 99 181
62 99 181
62 99 181
62 99 180
62 99 181
61 99 180
61 99 180
61 99 181
61 99 181
61 99 181
62 99 180
61 98 181
61 98 181
62 99 181
61 99 181
61 99 181
61 99 181
62 99 181
61 98 181
61 99 181
61 98 181
62 99 181
61 98 181
61 99 181
61 98 181
61 98 181
61 99 181
61 98 181
61 99 181
61 99 181
61 99 181
61 99 181
61 98 181
62 99 181
61 98 181
61 99 181
61 99 181
61 99 181
61 98 181
61 99 181
61 99 181
61 99 181
62 99 181
62 99 181
61 99 181
62 99 181
62 99 181
62 99 181
62 99 181
62 99 181
61 99 181
61 99 181
62 99 181
62 99 180
61 98 180
61 98 180
62 99 179
61 98 179
62 99 180
62 99 179
62 98 179
61 98 179
62 99 177
62 99 181
62 99 179
62 98 177
61 99 179
61 98 176
62 99 179
61 98 178
62 98 176
62 98 178
62 98 174
62 99 179
64 100 177
81 113 164
108 135 147
131 155 120
148 172 94
153 176 87
169 193 36
172 195 18
171 194 0
173 194 0
174 197 0
172 194 0
170 192 11
172 194 16
165 184 22
168 186 22
166 182 36
170 187 30
165 181 30
166 177 45
164 172 54
162 169 51
160 166 47
168 171 66
169 166 73
162 163 60
155 154 68
166 160 75
170 162 84
170 161 84
174 165 93
172 164 88
172 163 91
175 167 94
177 168 94
179 170 99
179 170 102
183 173 105
176 168 103
182 172 105
179 170 104
179 171 108
181 172 105
182 174 109
176 169 109
175 168 108
175 168 109
176 169 111
178 170 112
172 166 109
177 171 113
177 171 112
173 168 111
173 168 111
175 170 112
176 171 113
176 171 113
174 170 113
175 170 112
177 172 114
174 170 113
173 170 113
172 169 112
175 170 113
174 170 113
171 168 113
174 171 114
173 170 114
173 171 114
174 171 114
174 171 114
174 171 114
173 170 114
172 170 114
172 170 114
172 170 114
171 170 114
170 169 114
170 169 114
170 169 114
170 169 114
171 170 114
170 169 114
171 169 114
169 169 114
169 169 114
169 169 114
169 169 114
169 169 114
168 168 114
169 169 114
169 169 114
168 168 114
168 169 114
169 169 114
168 168 114
168 168 114
167 168 114
167 168 114
168 168 114
169 169 114
168 169 114
168 168 114
168 168 114
168 168 114
167 168 114
168 168 114
168 168 114
168 168 114
168 168 114
168 168 114
169 169 114
168 168 114
169 169 114
169 169 114
169 169 114
170 169 114
170 169 114
169 169 114
170 169 114
170 169 114
171 170 114
171 170 114
171 170 114
172 170 114
170 169 114
172 170 114
172 170 114
173 171 114
173 170 114
173 170 114
174 171 114
174 171 114
175 171 114
175 172 114
176 172 114
176 172 114
176 172 114
176 172 114
177 172 114
178 173 114
178 173 114
179 173 114
179 173 114
182 175 114
181 175 114
182 175 114
181 174 114
184 176 114
184 175 114
185 176 113
184 176 114
187 177 113
184 175 112
183 174 110
185 176 111
185 175 109
185 175 109
181 172 104
182 172 103
183 173 106
183 173 101
178 168 100
176 168 94
177 167 99
174 165 92
171 161 90
164 157 82
167 161 82
165 162 75
165 168 65
161 171 49
166 175 48
162 175 42
163 173 49
164 180 39
170 187 37
171 189 28
173 196 0
173 196 0
173 197 0
173 196 0
174 197 0
174 197 0
175 198 0
173 197 0
175 198 0
173 197 0
170 194 0
175 198 0
174 196 0
174 197 0
174 198 0
173 197 0
174 197 0
170 194 0
173 196 0
171 195 0
172 196 0
175 198 0
173 196 0
174 197 0
174 198 0
173 196 0
174 197 0
174 197 0
174 197 0
174 197 0
176 199 0
173 197 0
174 197 0
172 196 0
175 198 0
173 196 0
174 197 0
172 196 0
174 197 0
173 197 0
172 196 0
172 196 0
172 196 0
174 197 0
173 197 0
173 197 0
176 199 0
173 196 0
172 196 0
172 196 0
174 196 0
173 196 0
173 196 0
173 197 0
174 197 0
173 196 0
173 197 0
172 196 0
172 196 0
172 196 0
172 196 0
173 196 0
174 197 0
173 197 0
172 195 0
173 196 0
173 196 0
173 196 0
173 197 0
174 197 0
171 194 0
173 196 0
171 194 0
174 198 0
172 195 0
172 196 0
174 197 0
173 197 0
173 197 0
174 198 0
174 197 0
172 196 0
172 195 0
174 196 0
173 196 0
172 195 0
172 196 0
172 195 0
173 196 0
170 193 0
173 197 0
172 196 0
173 197 0
173 196 0
172 196 0
172 196 0
172 196 0
173 197 0
173 196 0
173 196 0
173 196 0
174 197 0
174 197 0
172 195 0
171 194 0
174 197 0
175 198 0
173 196 0
171 195 0
173 196 0
171 195 0
170 194 0
169 192 0
171 194 0
172 196 0
173 196 0
172 196 0
171 193 0
174 197 0
173 196 0
172 196 0
173 196 0
174 197 0
172 195 0
172 195 0
172 195 0
173 196 0
175 198 0
169 192 25
161 185 70
139 163 120
120 147 136
100 128 155
67 103 174
63 99 177
62 99 180
62 99 179
62 99 181
62 99 179
62 99 180
62 99 179
62 99 179
62 99 179
62 99 177
62 99 181
63 100 180
62 99 181
62 99 181
61 99 180
62 99 181
62 99 181
62 99 181
61 99 181
62 99 181
61 99 180
61 99 181
62 99 181
62 99 181
62 99 180
62 99 181
61 98 181
61 98 181
61 98 180
61 99 181
61 98 181
61 98 181
61 98 181
61 98 181
61 98 181
61 99 181
61 98 181
62 99 181
61 99 181
61 98 181
61 98 181
61 98 181
62 99 181
61 99 181
61 98 181
62 99 181
61 99 181
61 98 181
62 99 181
61 99 181
61 99 181
61 99 181
62 99 181
61 99 181
62 99 181
61 98 181
62 99 181
61 98 180
62 99 181
61 99 181
62 99 181
61 99 180
61 99 181
61 99 181
62 99 181
61 98 178
62 99 180
61 99 181
61 99 180
61 99 180
62 99 180
62 99 181
61 98 179
61 99 180
62 99 180
61 98 179
61 98 178
61 98 178
62 99 178
62 99 179
61 98 180
62 99 180
62 98 177
62 99 181
62 99 176
62 99 179
61 97 174
61 97 174
62 99 178
62 98 175
62 97 170
80 112 165
100 128 153
133 157 123
153 176 86
161 185 58
167 189 37
172 195 0
171 194 0
172 194 0
167 190 11
168 191 16
168 188 0
165 183 19
167 183 34
171 184 41
160 173 41
162 176 34
161 172 39
159 167 49
161 164 57
159 159 68
168 171 65
162 158 75
164 161 69
162 156 76
171 164 85
165 157 81
166 157 83
175 165 95
174 165 89
180 171 95
170 163 94
176 167 96
177 169 101
173 166 103
174 166 99
183 173 108
179 170 106
177 169 107
179 171 107
177 169 107
177 170 108
174 167 108
173 167 107
175 168 110
175 168 110
174 168 111
169 164 110
176 170 112
174 168 111
170 165 111
172 167 111
176 170 112
173 168 112
173 168 111
173 168 112
173 168 112
170 167 111
177 172 113
170 167 112
174 171 114
175 171 114
175 172 114
174 171 114
173 170 113
174 171 114
173 170 114
173 170 114
173 171 114
171 169 114
173 170 114
172 170 114
171 170 114
173 171 114
171 170 114
171 170 114
170 169 114
171 170 114
171 169 114
170 169 114
170 169 114
170 169 114
169 169 114
168 168 114
169 169 114
169 169 114
169 169 114
168 168 114
168 168 114
168 169 114
168 168 114
169 169 114
168 168 114
168 168 114
168 168 114
168 168 114
168 168 114
167 168 114
167 168 114
168 168 114
168 168 114
167 168 114
169 169 114
168 168 114
168 168 114
169 169 114
168 168 114
169 169 114
170 169 114
169 169 114
169 169 114
169 169 114
169 169 114
170 169 114
171 170 114
170 169 114
170 169 114
171 170 114
172 170 114
171 170 114
171 170 114
172 170 114
172 170 114
172 170 114
172 170 114
173 171 114
173 171 114
173 170 114
176 172 114
174 171 114
177 172 114
176 172 114
175 172 114
176 172 114
176 172 114
176 172 114
178 173 114
178 173 114
179 173 114
179 173 114
182 175 114
181 175 114
180 174 114
182 175 114
182 175 114
184 176 114
184 176 114
185 176 114
184 176 113
186 176 113
186 176 112
186 177 113
186 176 110
187 177 112
182 174 110
184 174 106
185 175 106
177 168 101
176 168 99
177 167 97
179 168 101
173 164 95
172 163 90
167 159 84
159 153 82
168 162 82
164 161 74
169 169 68
163 167 58
166 172 53
167 178 49
167 178 51
161 178 30
164 182 28
166 186 22
171 192 16
172 193 11
172 195 0
174 197 0
174 197 0
174 197 0
174 197 0
174 198 0
173 195 0
175 198 0
173 197 0
174 197 0
173 197 0
175 198 0
174 198 0
174 197 0
175 197 0
173 196 0
171 195 0
173 196 0
173 196 0
173 196 0
173 196 0
174 197 0
173 196 0
172 195 0
173 196 0
174 197 0
174 197 0
174 197 0
173 197 0
170 195 0
174 197 0
174 197 0
174 197 0
174 198 0
173 196 0
173 197 0
174 197 0
174 197 0
171 195 0
173 196 0
173 197 0
174 197 0
174 197 0
171 195 0
174 198 0
173 197 0
172 195 0
175 198 0
173 197 0
176 198 0
172 195 0
174 197 0
175 198 0
174 197 0
175 198 0
173 197 0
173 197 0
172 196 0
174 197 0
171 194 0
171 195 0
175 198 0
173 197 0
171 195 0
174 197 0
174 197 0
172 196 0
174 197 0
175 198 0
172 196 0
175 198 0
173 197 0
174 197 0
173 196 0
173 196 0
173 197 0
172 196 0
175 198 0
176 198 0
173 197 0
175 198 0
173 196 0
172 196 0
173 196 0
173 196 0
172 196 0
171 195 0
173 197 0
171 195 0
173 196 0
171 195 0
174 197 0
173 196 0
173 196 0
173 197 0
172 194 0
172 195 0
173 195 0
170 194 0
174 197 0
169 193 0
173 196 0
174 197 0
172 196 0
172 196 0
173 196 0
172 196 0
174 197 0
173 197 0
175 198 0
174 197 0
169 193 0
170 194 0
173 197 0
173 195 0
173 196 0
171 194 0
174 197 0
171 194 0
173 196 0
170 194 0
171 195 0
172 196 0
173 196 0
174 197 18
172 195 25
146 171 103
125 151 135
102 131 153
76 110 169
62 99 176
62 99 176
61 98 176
62 99 180
63 99 179
62 99 180
62 99 180
62 99 179
62 99 179
61 99 180
62 99 180
62 99 181
62 99 180
62 99 179
62 99 180
62 100 181
63 100 180
62 99 181
61 98 181
61 99 180
61 99 181
62 99 181
62 99 181
61 99 181
62 99 181
61 99 181
62 99 181
61 99 181
61 99 181
62 99 181
61 99 181
62 99 181
61 99 181
62 99 181
61 98 181
61 99 181
61 98 181
61 98 181
62 99 181
61 99 181
61 99 181
60 98 181
61 99 181
62 99 181
62 99 181
61 99 181
61 98 181
62 99 181
61 99 181
62 99 181
61 99 181
61 99 181
62 99 181
61 99 181
61 99 181
62 99 181
62 99 181
62 99 181
62 99 181
61 98 181
61 99 181
62 99 181
62 99 181
61 99 181
61 99 180
62 99 181
61 99 181
62 99 181
62 99 181
62 99 181
62 99 179
62 99 179
62 99 181
62 99 181
61 98 180
62 99 181
62 99 180
62 99 180
61 98 179
61 99 180
61 98 179
61 98 181
62 99 180
62 99 181
62 98 177
61 98 178
62 99 177
62 98 175
62 99 178
62 98 176
62 98 175
62 98 177
60 96 173
64 100 176
70 103 170
97 125 157
113 140 139
141 165 104
156 179 83
165 187 57
170 193 19
170 193 0
171 193 11
170 191 19
167 187 22
166 182 34
166 183 30
169 187 28
164 178 34
160 171 36
161 170 47
162 169 52
165 173 56
161 162 63
162 159 68
171 168 76
167 164 74
164 156 79
167 159 80
164 156 82
175 166 87
179 170 95
177 167 95
176 167 97
180 171 100
181 171 105
179 170 103
181 172 105
176 168 104
180 171 107
172 165 102
179 170 106
174 166 102
174 167 105
175 167 109
175 168 110
171 165 110
172 166 109
176 170 112
169 164 109
169 164 109
167 162 108
167 163 110
174 169 112
170 165 110
173 167 111
170 166 111
169 165 111
172 169 112
169 165 111
168 165 111
173 169 113
171 168 112
172 168 112
173 170 113
176 172 114
172 169 113
171 168 113
171 169 113
174 171 114
175 171 114
173 171 114
172 170 114
172 170 114
173 170 114
173 170 114
172 170 114
172 170 114
172 170 114
171 170 114
171 170 114
170 169 114
171 170 114
170 169 114
170 169 114
171 170 114
168 168 114
170 169 114
169 169 114
169 169 114
169 169 114
168 168 114
168 168 114
168 168 114
169 169 114
169 169 114
169 169 114
169 169 114
169 169 114
168 169 114
169 169 114
169 169 114
168 168 114
169 169 114
168 169 114
168 168 114
168 168 114
168 168 114
169 169 114
169 169 114
169 169 114
169 169 114
170 169 114
169 169 114
170 169 114
170 169 114
170 169 114
171 170 114
171 170 114
170 169 114
171 170 114
170 169 114
171 170 114
173 170 114
172 170 114
171 170 114
172 170 114
173 171 114
172 170 114
175 172 114
175 171 114
174 171 114
175 171 114
174 171 114
175 172 114
176 172 114
176 172 114
176 172 114
177 172 114
178 173 114
179 173 114
179 173 114
179 173 114
180 174 114
182 175 114
181 174 114
182 175 114
183 175 114
183 175 114
182 175 114
184 175 113
185 176 112
186 176 112
186 176 112
184 175 112
185 176 109
186 176 110
186 176 109
184 175 107
181 172 105
178 169 96
182 172 102
181 171 101
176 167 97
176 166 93
176 166 95
173 163 93
167 159 86
172 164 87
163 164 72
160 162 68
161 164 58
162 164 63
161 170 48
166 178 45
167 183 36
168 185 37
163 182 22
170 190 19
175 198 16
171 195 0
174 197 0
173 197 0
171 195 0
173 196 0
174 197 0
174 198 0
173 197 0
173 196 0
172 196 0
175 198 0
174 197 0
175 198 0
172 196 0
175 198 0
172 196 0
173 197 0
173 196 0
173 196 0
170 194 0
174 197 0
173 197 0
172 196 0
174 197 0
174 197 0
175 197 0
173 196 0
173 197 0
171 194 0
173 196 0
173 197 0
171 195 0
173 196 0
174 197 0
173 197 0
175 198 0
175 198 0
174 197 0
174 197 0
171 195 0
172 196 0
175 198 0
177 199 0
172 196 0
172 195 0
174 197 0
171 195 0
174 198 0
170 195 0
171 195 0
173 197 0
172 196 0
172 196 0
175 198 0
172 195 0
175 198 0
172 196 0
174 197 0
174 197 0
175 198 0
172 196 0
170 193 0
173 197 0
173 196 0
170 193 0
172 195 0
176 198 0
174 197 0
175 198 0
174 198 0
173 196 0
173 196 0
173 197 0
173 196 0
173 196 0
173 196 0
174 197 0
172 196 0
173 197 0
171 194 0
173 196 0
171 195 0
172 196 0
173 197 0
172 196 0
171 195 0
171 194 0
173 197 0
170 193 0
172 196 0
173 197 0
173 197 0
172 195 0
174 196 0
173 196 0
173 196 0
174 198 0
173 196 0
175 198 0
169 193 0
173 196 0
173 196 0
174 197 0
175 198 0
174 197 0
173 196 0
172 196 0
173 196 0
174 198 0
172 196 0
173 196 0
170 194 0
173 196 0
173 196 0
172 196 0
174 197 0
173 196 0
172 195 0
171 194 0
171 195 0
173 195 0
174 198 0
172 194 0
168 192 36
164 187 60
144 168 102
125 150 129
85 116 163
63 100 178
62 99 175
62 99 178
62 99 177
62 99 180
62 99 180
62 99 179
62 99 179
63 100 179
63 100 180
61 98 179
62 99 179
62 99 180
62 99 181
62 99 181
62 99 180
62 99 180
62 99 181
62 99 181
62 99 180
62 99 181
62 99 181
62 99 181
62 99 181
61 99 181
62 99 181
62 99 181
62 99 181
61 99 181
62 99 181
62 99 181
61 99 181
61 99 181
61 99 181
62 99 181
62 99 181
61 98 181
62 99 181
61 98 181
61 99 181
62 99 181
61 99 181
62 99 181
62 99 181
61 99 181
62 99 181
62 99 181
61 99 181
62 99 181
61 98 181
61 99 181
62 99 181
61 99 181
61 98 181
61 99 181
61 99 181
61 99 181
61 99 181
61 98 181
61 99 181
61 98 181
61 98 181
62 99 181
61 99 181
62 99 181
61 98 181
62 99 181
61 99 181
62 99 181
62 99 181
61 99 181
61 99 180
61 99 181
62 98 178
62 99 181
63 99 180
61 98 180
61 99 181
62 99 178
62 99 177
62 99 180
61 99 181
61 99 180
61 98 177
62 99 179
62 99 179
62 99 179
62 99 181
62 99 180
62 98 176
62 99 178
61 98 177
62 99 177
62 99 178
61 98 176
62 98 176
62 99 177
61 97 172
88 118 158
105 132 146
127 152 119
153 176 85
160 183 65
170 193 25
170 192 11
169 189 19
168 186 30
169 189 22
164 176 39
162 177 32
162 172 39
163 174 45
160 170 45
165 169 61
161 163 60
159 158 60
170 170 71
165 160 79
168 161 78
165 158 81
166 158 77
164 156 86
168 160 82
176 167 95
172 163 91
177 168 95
176 167 98
179 170 97
176 169 102
180 171 105
178 170 101
174 166 100
173 166 104
172 165 104
173 166 106
171 164 104
174 167 108
174 166 109
170 164 108
171 165 109
168 162 109
171 166 110
166 161 108
163 159 106
163 159 107
173 168 111
172 167 111
169 164 109
172 167 111
171 166 111
171 167 111
169 165 111
170 167 112
171 168 113
171 168 112
172 169 113
170 168 113
171 167 112
170 168 113
171 169 113
173 170 113
174 171 114
173 171 114
173 171 114
172 170 114
173 171 114
173 170 114
172 170 114
170 169 114
172 170 114
171 170 114
172 170 114
170 169 114
171 170 114
170 169 114
171 169 114
171 170 114
170 169 114
170 169 114
170 169 114
170 169 114
169 169 114
169 169 114
169 169 114
169 169 114
169 169 114
169 169 114
169 169 114
169 169 114
168 169 114
168 168 114
169 169 114
168 168 114
168 168 114
168 168 114
169 169 114
168 168 114
169 169 114
170 169 114
169 169 114
168 168 114
169 169 114
171 170 114
169 169 114
169 169 114
170 169 114
171 170 114
170 169 114
170 169 114
171 170 114
170 169 114
171 170 114
171 170 114
172 170 114
172 170 114
173 171 114
173 171 114
173 171 114
172 170 114
175 171 114
174 171 114
174 171 114
174 171 114
173 171 114
176 172 114
175 172 114
175 172 114
176 172 114
177 173 114
176 172 114
178 173 114
178 173 114
180 174 114
180 174 114
180 174 114
181 174 114
181 174 114
181 174 114
182 175 114
183 175 114
182 175 114
185 176 113
185 176 114
185 176 113
186 176 113
186 176 110
184 175 110
186 176 110
186 176 111
183 174 108
181 172 104
183 173 104
180 170 101
182 173 103
182 173 101
181 171 97
174 165 95
173 163 97
172 163 90
170 162 87
168 162 83
169 162 81
160 162 63
161 164 58
164 172 54
161 168 57
162 173 41
164 178 39
165 182 25
169 186 30
168 188 16
172 194 0
174 196 0
174 197 0
173 196 0
172 195 0
174 197 0
174 196 0
174 197 0
172 195 0
175 198 0
173 196 0
173 196 0
173 196 0
174 197 0
173 196 0
174 197 0
174 197 0
174 198 0
171 195 0
173 197 0
175 198 0
173 196 0
173 196 0
173 197 0
172 196 0
173 196 0
171 194 0
174 197 0
171 196 0
170 194 0
173 197 0
171 195 0
172 196 0
173 196 0
175 198 0
173 196 0
172 195 0
172 196 0
172 195 0
171 195 0
172 195 0
174 197 0
173 197 0
174 197 0
174 197 0
172 196 0
174 198 0
172 195 0
173 197 0
172 195 0
173 196 0
174 198 0
172 196 0
172 196 0
175 198 0
174 197 0
174 197 0
171 195 0
171 195 0
173 197 0
174 197 0
174 198 0
172 196 0
174 197 0
173 196 0
172 196 0
171 195 0
172 196 0
171 195 0
171 194 0
171 195 0
172 196 0
175 198 0
172 196 0
173 196 0
174 197 0
174 197 0
173 196 0
173 196 0
173 197 0
172 195 0
172 196 0
172 196 0
174 196 0
174 197 0
173 196 0
172 196 0
173 197 0
173 196 0
171 195 0
172 195 0
173 197 0
174 197 0
171 195 0
174 198 0
174 197 0
171 194 0
174 197 0
172 195 0
173 197 0
173 197 0
173 197 0
171 195 0
174 197 0
173 196 0
175 197 0
171 195 0
171 195 0
173 197 0
172 195 0
173 197 0
170 194 0
174 197 0
172 195 0
173 196 0
173 196 0
174 196 0
171 193 0
175 198 0
173 196 0
172 194 0
174 197 0
173 196 18
168 191 54
154 178 88
138 163 113
125 151 130
74 108 170
62 99 178
62 99 178
62 99 180
61 98 177
62 99 181
62 99 179
62 99 181
61 99 179
62 99 180
62 99 178
62 99 179
62 99 181
62 99 180
62 99 179
63 100 181
62 99 181
62 99 180
62 99 181
61 99 180
62 99 180
62 99 180
62 99 181
62 99 180
62 99 180
62 99 181
61 99 181
62 99 181
61 99 180
62 99 181
62 99 181
62 99 180
61 99 181
62 99 181
61 98 181
62 99 181
61 99 181
61 98 181
61 98 181
61 99 181
62 99 181
62 99 181
61 99 181
61 98 181
61 99 181
61 99 181
61 99 181
61 99 181
61 99 181
61 99 181
61 98 181
62 99 181
61 98 181
61 99 181
61 99 181
62 99 181
62 99 181
61 99 181
62 99 181
61 99 181
61 99 181
61 99 181
61 99 181
61 99 181
62 99 181
61 98 181
62 99 181
61 99 181
62 99 181
61 99 181
61 99 181
61 98 181
61 98 181
62 99 181
62 98 178
62 99 181
61 98 180
61 98 179
61 98 181
62 99 181
61 99 181
61 98 179
61 98 178
61 98 180
62 99 179
61 99 179
61 98 178
61 98 178
61 98 177
62 99 180
62 99 179
61 98 176
61 98 179
61 98 176
62 99 178
62 98 177
62 99 178
63 99 176
62 99 177
61 98 178
61 98 176
64 100 173
101 129 149
125 150 127
151 174 83
156 177 70
162 182 38
167 185 30
165 182 32
163 178 32
155 168 36
164 175 39
166 176 44
162 172 37
166 171 54
162 170 57
164 165 65
163 161 72
167 165 69
162 160 68
164 156 81
167 159 84
168 160 77
175 166 93
170 162 85
177 168 94
175 167 92
172 165 93
176 168 98
173 165 96
179 170 104
174 166 104
180 171 103
172 164 99
176 169 105
173 165 102
171 164 102
176 168 106
169 162 106
168 162 107
175 167 109
174 167 109
167 162 108
170 164 108
170 164 108
167 162 109
168 164 109
170 164 108
156 153 105
165 161 108
163 160 109
168 164 109
167 163 110
171 167 111
166 163 109
172 168 112
171 168 112
168 166 111
172 169 113
171 168 113
170 167 112
173 170 113
171 168 113
174 171 113
174 170 113
174 171 114
173 170 114
172 170 114
172 170 114
174 171 114
173 171 114
173 170 114
171 170 114
172 170 114
171 170 114
171 170 114
171 170 114
170 169 114
171 169 114
169 169 114
170 169 114
171 170 114
169 169 114
171 169 114
170 169 114
169 169 114
170 169 114
169 169 114
169 169 114
169 169 114
169 169 114
170 169 114
170 169 114
169 169 114
169 169 114
169 169 114
170 169 114
170 169 114
170 169 114
169 169 114
170 169 114
169 169 114
169 169 114
170 169 114
169 169 114
170 169 114
170 169 114
170 169 114
171 170 114
170 169 114
170 169 114
171 170 114
171 170 114
171 170 114
171 170 114
172 170 114
171 170 114
172 170 114
171 170 114
172 170 114
174 171 114
174 171 114
174 171 114
175 172 114
176 172 114
174 171 114
175 172 114
175 172 114
177 172 114
175 172 114
177 173 114
178 173 114
178 173 114
178 173 114
179 173 114
180 174 114
180 174 114
183 175 114
180 174 114
181 174 114
185 176 114
183 175 114
183 175 114
183 175 113
185 176 113
186 176 113
185 176 112
184 175 111
187 177 111
186 176 110
185 175 109
181 173 105
185 175 106
184 174 105
181 172 102
182 172 103
179 169 99
174 166 93
178 169 96
166 157 84
162 155 77
172 163 87
166 158 79
171 163 86
169 164 77
165 169 63
172 177 66
165 174 51
164 176 41
163 176 45
169 186 32
169 185 41
174 194 22
172 193 16
172 194 11
173 196 0
175 196 0
172 196 0
174 198 0
174 198 0
174 198 0
173 197 0
175 198 0
174 196 0
175 198 0
174 197 0
174 197 0
174 197 0
174 197 0
175 198 0
173 196 0
174 198 0
174 197 0
174 197 0
173 196 0
175 198 0
175 198 0
169 193 0
171 195 0
173 197 0
173 197 0
174 197 0
174 198 0
172 196 0
172 196 0
173 196 0
174 197 0
175 198 0
173 197 0
173 196 0
174 197 0
173 196 0
175 198 0
173 197 0
173 196 0
172 196 0
172 196 0
175 198 0
168 191 0
172 195 0
175 198 0
172 197 0
174 198 0
173 196 0
171 195 0
174 198 0
170 194 0
175 198 0
174 197 0
174 198 0
174 197 0
174 197 0
174 198 0
173 197 0
173 196 0
172 195 0
171 194 0
171 194 0
174 197 0
173 196 0
175 198 0
173 197 0
172 196 0
175 198 0
173 197 0
170 194 0
171 194 0
174 198 0
174 197 0
173 196 0
171 195 0
172 196 0
173 196 0
172 195 0
173 196 0
173 196 0
174 197 0
175 198 0
174 197 0
172 196 0
170 192 0
173 196 0
173 197 0
175 198 0
171 195 0
174 198 0
173 196 0
173 196 0
173 196 0
172 196 0
172 195 0
172 196 0
172 195 0
172 195 0
174 196 0
174 197 0
171 194 0
172 196 0
173 196 0
174 198 0
172 196 0
172 196 0
173 197 0
172 195 0
174 197 0
173 196 0
174 197 0
173 196 0
173 196 0
173 196 0
172 196 0
173 196 0
171 195 0
170 194 0
172 195 0
166 190 36
151 176 94
127 152 125
92 122 157
64 100 176
63 100 176
62 99 179
62 99 180
62 99 177
61 98 178
62 99 178
62 99 178
62 99 180
61 98 179
62 99 179
62 99 178
62 99 179
62 99 181
62 99 180
61 99 181
61 99 180
62 99 181
61 99 181
62 99 181
62 99 181
61 98 181
62 99 180
61 98 180
61 99 180
62 99 181
62 99 181
61 98 181
62 99 181
61 99 181
62 99 181
62 99 181
62 99 181
61 99 181
61 99 181
61 99 181
61 98 181
62 99 181
62 99 181
61 99 181
61 98 181
62 99 181
62 99 181
62 99 181
62 99 181
62 99 181
62 99 181
62 99 180
62 99 181
62 99 181
62 99 181
62 99 181
62 99 181
62 99 181
62 99 181
61 99 181
62 99 181
61 99 181
61 99 181
62 99 181
62 99 181
61 99 181
61 98 181
61 99 181
62 99 181
62 99 181
62 99 181
61 99 181
61 99 181
62 99 181
62 99 180
62 99 181
61 99 181
62 99 179
61 98 180
62 99 181
62 99 179
61 98 179
62 99 181
63 100 179
62 99 179
61 99 179
62 99 181
61 98 179
61 99 180
62 99 179
62 99 180
61 99 180
62 99 180
62 99 176
62 99 181
62 99 180
62 99 179
61 98 175
62 98 177
61 98 177
61 98 179
61 98 173
61 98 177
62 98 178
61 98 177
61 98 177
62 98 173
65 100 171
85 115 158
108 135 149
131 155 109
152 174 78
159 178 49
163 182 18
166 182 34
168 184 37
167 180 41
156 169 30
168 175 54
165 173 53
163 168 56
167 168 63
166 164 66
160 157 69
163 158 71
173 166 79
164 156 78
165 157 82
173 164 88
170 161 89
174 165 95
176 168 93
170 162 87
172 164 93
171 164 99
173 164 100
174 166 102
168 160 97
168 161 101
180 171 106
171 164 104
174 166 105
165 160 105
159 153 101
170 163 107
166 161 105
164 159 106
160 156 104
156 153 104
164 160 107
165 161 108
165 161 107
159 156 106
164 160 108
160 157 107
160 158 106
159 156 106
165 162 109
165 162 109
163 160 108
165 163 110
171 168 112
169 167 112
170 167 112
171 168 112
172 169 113
174 171 114
171 169 113
170 167 112
171 169 113
171 168 113
173 170 114
173 170 113
172 169 113
173 170 114
173 171 114
173 171 114
173 170 114
172 170 114
173 170 114
171 170 114
172 170 114
172 170 114
171 169 114
171 170 114
171 170 114
171 170 114
171 169 114
170 169 114
170 169 114
170 169 114
169 169 114
170 169 114
170 169 114
170 169 114
170 169 114
169 169 114
169 169 114
171 170 114
171 170 114
170 169 114
169 169 114
169 169 114
170 169 114
170 169 114
170 169 114
171 170 114
171 170 114
170 169 114
170 169 114
171 170 114
170 169 114
170 169 114
171 170 114
170 169 114
171 170 114
172 170 114
171 170 114
170 169 114
171 170 114
172 170 114
173 171 114
173 170 114
173 171 114
174 171 114
174 171 114
174 171 114
173 171 114
175 171 114
174 171 114
176 172 114
176 172 114
176 172 114
176 172 114
177 172 114
180 174 114
178 173 114
178 173 114
179 173 114
180 174 114
179 173 114
180 174 114
180 174 114
181 175 114
182 175 114
183 175 114
183 175 114
182 175 114
184 176 113
184 176 113
185 176 114
185 176 112
185 176 112
184 175 109
186 176 112
185 176 110
183 174 103
181 172 104
185 175 108
185 175 104
182 172 103
178 168 95
180 170 102
175 166 92
175 166 91
173 163 92
174 165 92
167 159 87
165 161 75
170 167 76
165 165 72
159 164 58
161 167 51
164 174 47
159 172 37
163 177 34
172 189 36
169 189 22
167 189 11
173 194 11
174 197 0
173 197 0
175 198 0
174 197 0
174 198 0
174 197 0
174 197 0
175 198 0
173 197 0
176 198 0
173 196 0
173 197 0
174 197 0
173 197 0
172 196 0
173 196 0
174 197 0
175 198 0
173 197 0
172 196 0
174 197 0
172 195 0
173 197 0
175 198 0
175 198 0
173 197 0
173 196 0
172 195 0
172 196 0
173 196 0
175 198 0
174 197 0
174 197 0
173 196 0
171 195 0
172 196 0
175 198 0
173 197 0
172 196 0
173 196 0
171 195 0
173 197 0
174 198 0
173 197 0
175 197 0
170 194 0
174 198 0
173 197 0
175 198 0
172 196 0
172 196 0
175 198 0
170 194 0
172 195 0
175 198 0
173 196 0
173 195 0
174 198 0
174 197 0
175 198 0
173 196 0
174 196 0
172 195 0
172 195 0
172 196 0
172 196 0
172 196 0
171 195 0
174 197 0
172 195 0
172 195 0
175 197 0
174 197 0
173 196 0
173 196 0
171 195 0
174 197 0
172 195 0
174 197 0
173 196 0
175 198 0
173 196 0
172 196 0
172 195 0
171 196 0
171 195 0
172 196 0
172 195 0
172 196 0
171 194 0
172 194 0
173 197 0
173 196 0
174 197 0
171 195 0
173 196 0
171 194 0
171 194 0
172 196 0
173 196 0
173 196 0
174 197 0
173 196 0
173 196 0
174 198 0
173 196 0
173 196 0
171 195 0
172 196 0
175 197 0
172 195 0
173 197 0
175 198 0
173 196 0
174 197 0
175 198 0
174 196 0
174 197 0
169 193 31
161 185 60
139 164 113
116 143 139
96 125 154
63 100 174
62 99 176
61 98 176
62 99 175
61 99 177
62 99 180
62 99 180
62 99 179
62 99 181
62 99 179
62 99 179
62 99 181
62 99 178
61 98 179
62 99 181
62 99 181
62 99 181
61 98 180
62 99 179
62 99 181
61 99 181
62 99 181
62 99 180
62 99 180
62 99 180
61 99 181
61 99 181
61 99 181
62 99 181
61 99 181
61 98 181
62 99 181
62 99 181
61 99 181
62 99 180
62 99 181
62 99 181
61 99 181
62 99 181
62 99 181
61 99 181
62 99 181
62 99 181
62 99 181
62 99 181
62 99 181
62 99 181
61 99 181
62 99 181
61 98 181
61 99 181
61 98 181
61 99 181
62 99 181
61 98 181
62 99 181
61 99 181
61 99 181
61 99 181
61 98 181
61 99 181
62 99 181
61 99 181
62 99 181
61 99 180
62 99 181
61 99 181
62 99 181
62 99 181
61 98 180
62 99 180
61 98 181
61 98 180
62 99 181
62 99 181
62 99 181
61 99 181
62 99 181
62 99 181
62 99 181
61 99 181
62 99 181
62 99 181
62 99 179
62 99 179
61 98 178
61 98 181
62 99 181
62 99 180
62 99 176
62 99 178
61 98 176
61 98 178
61 98 178
62 99 178
62 98 176
62 98 177
62 99 178
62 99 179
61 98 175
61 98 176
62 98 175
61 96 172
61 97 174
62 98 176
64 99 172
84 114 162
96 124 152
132 154 119
146 164 71
155 173 60
160 175 45
165 180 34
164 177 36
166 172 60
157 165 45
158 163 47
163 169 56
158 163 48
164 162 73
165 162 70
167 162 76
165 158 79
164 156 78
175 166 88
170 162 89
175 166 95
169 161 86
169 161 92
172 164 90
170 162 95
177 168 100
171 163 96
168 161 98
167 161 96
166 160 96
167 161 102
170 163 102
170 163 106
159 153 102
159 154 102
158 154 100
157 153 102
158 153 102
167 162 108
157 153 105
166 161 108
159 155 105
166 161 108
161 157 107
161 157 106
169 165 110
162 160 109
166 162 109
169 165 110
165 162 109
165 162 109
163 160 109
166 163 110
169 166 111
170 167 111
168 165 111
166 163 110
171 168 112
169 167 112
171 169 113
174 171 114
170 168 113
175 171 114
173 170 113
172 170 114
174 171 114
173 170 114
173 171 114
172 170 114
172 170 114
172 170 114
172 170 114
174 171 114
171 170 114
172 170 114
173 171 114
171 170 114
171 170 114
170 169 114
172 170 114
170 169 114
170 169 114
170 169 114
169 169 114
171 170 114
171 169 114
170 169 114
169 169 114
171 170 114
170 169 114
170 169 114
171 170 114
170 169 114
169 169 114
170 169 114
169 169 114
170 169 114
170 169 114
171 170 114
170 169 114
171 170 114
171 170 114
170 169 114
171 170 114
171 170 114
171 170 114
171 170 114
172 170 114
172 170 114
172 170 114
173 171 114
173 171 114
172 170 114
174 171 114
173 171 114
173 171 114
174 171 114
175 171 114
175 172 114
175 172 114
175 172 114
175 172 114
177 172 114
176 172 114
176 172 114
177 173 114
179 174 114
179 173 114
178 173 114
179 173 114
179 173 114
180 174 114
183 175 114
181 175 114
181 174 114
182 175 114
183 175 114
183 175 114
184 176 114
184 175 113
185 176 113
185 176 112
185 176 112
183 175 111
186 176 110
186 176 109
185 175 109
185 175 108
185 175 107
185 174 102
180 171 103
181 171 99
180 171 97
179 169 96
178 168 96
175 165 93
170 161 87
174 164 95
170 161 86
164 158 77
170 166 80
155 155 62
161 166 58
163 170 52
165 175 52
161 175 36
164 180 28
166 185 22
171 190 22
169 188 28
174 196 0
172 195 0
175 197 0
173 196 0
173 197 0
175 197 0
174 198 0
172 196 0
173 197 0
173 196 0
172 195 0
174 197 0
175 198 0
172 196 0
172 196 0
170 195 0
174 197 0
174 197 0
174 198 0
172 196 0
173 197 0
174 197 0
173 196 0
174 197 0
172 196 0
172 194 0
170 194 0
169 193 0
172 195 0
174 197 0
174 197 0
174 198 0
171 195 0
174 197 0
173 196 0
170 194 0
174 197 0
173 196 0
175 198 0
172 196 0
173 197 0
174 197 0
175 198 0
174 198 0
174 198 0
174 197 0
174 197 0
174 198 0
173 196 0
173 196 0
173 197 0
173 196 0
172 196 0
172 195 0
171 194 0
172 196 0
174 198 0
173 196 0
172 196 0
173 196 0
172 195 0
173 196 0
174 197 0
171 194 0
174 198 0
174 197 0
172 195 0
172 196 0
172 196 0
172 196 0
174 197 0
172 195 0
173 196 0
174 197 0
175 198 0
172 195 0
174 197 0
171 194 0
171 195 0
173 196 0
174 197 0
172 196 0
174 197 0
172 196 0
169 194 0
173 196 0
173 196 0
172 196 0
173 196 0
174 197 0
172 195 0
174 197 0
175 198 0
173 197 0
173 197 0
174 197 0
174 197 0
171 194 0
172 196 0
174 197 0
172 194 0
172 195 0
173 195 0
172 195 0
171 193 0
172 195 0
171 194 0
172 196 0
173 196 0
171 194 0
170 194 0
174 197 0
173 195 0
171 195 0
171 194 0
171 193 0
173 196 0
173 197 0
167 191 40
154 178 82
136 162 110
124 150 133
70 105 172
62 99 174
62 99 180
62 99 176
62 98 174
62 99 179
61 98 176
62 99 180
62 99 179
62 99 180
62 99 177
61 98 178
62 99 179
62 99 178
62 99 179
62 99 180
62 99 181
62 99 181
61 98 179
62 99 180
62 99 181
62 99 180
62 99 180
62 99 181
62 99 180
61 99 181
62 99 181
62 99 180
62 99 181
61 99 181
61 98 180
62 99 181
61 99 181
62 99 180
61 99 181
62 99 181
62 99 181
61 99 181
61 99 181
61 98 181
61 98 181
62 99 181
61 99 181
61 99 181
62 99 181
61 99 181
62 99 181
62 99 181
61 99 181
61 99 181
62 99 181
62 99 181
62 99 181
62 99 181
62 99 179
62 99 181
61 99 181
62 99 181
62 99 181
62 99 181
61 98 181
62 99 181
61 99 181
62 99 181
62 99 181
61 98 180
62 99 181
62 99 181
62 99 181
61 98 181
62 99 181
62 99 181
61 98 181
62 99 181
61 99 181
61 98 181
62 99 181
61 99 181
62 99 181
62 99 180
62 99 181
62 99 181
62 99 180
62 99 180
61 99 180
61 99 181
62 99 180
61 99 180
62 99 180
61 99 180
62 99 178
62 99 179
62 99 179
62 99 180
62 99 179
62 98 175
62 99 179
61 98 176
61 98 179
61 98 176
63 99 177
62 99 176
61 98 177
61 97 176
61 97 174
61 97 170
62 98 173
62 98 176
61 97 172
70 103 171
88 116 162
118 141 125
140 159 90
158 175 72
156 169 60
158 169 36
164 169 56
164 172 56
162 169 48
163 165 57
166 168 62
164 161 68
165 161 74
164 160 74
168 161 79
170 162 86
167 159 81
168 160 83
172 164 87
167 159 86
170 163 91
170 162 93
173 165 94
170 162 93
167 160 94
163 157 98
172 164 101
161 155 96
164 158 104
163 157 101
157 152 99
160 155 103
166 160 103
161 157 105
163 157 106
163 157 105
155 152 102
160 156 106
158 155 105
151 149 102
159 156 106
161 158 106
167 162 109
158 155 105
162 159 108
161 158 107
164 160 109
166 162 109
165 162 109
160 158 107
165 162 109
169 166 111
169 166 111
171 168 112
169 166 111
170 167 111
165 163 110
168 166 111
172 169 113
172 169 113
172 169 113
170 167 112
172 170 114
174 171 114
171 169 113
173 171 114
172 170 114
173 171 114
173 171 114
172 170 114
172 170 114
172 170 114
172 170 114
172 170 114
172 170 114
173 171 114
171 170 114
172 170 114
171 170 114
171 170 114
170 169 114
170 169 114
171 170 114
171 170 114
171 170 114
172 170 114
170 169 114
170 169 114
170 169 114
170 169 114
170 169 114
171 170 114
171 170 114
171 170 114
171 170 114
171 170 114
169 169 114
171 170 114
172 170 114
172 170 114
170 169 114
172 170 114
172 170 114
173 170 114
173 171 114
172 170 114
174 171 114
172 170 114
173 171 114
173 170 114
173 171 114
173 171 114
174 171 114
175 172 114
174 171 114
175 171 114
175 172 114
176 172 114
176 172 114
176 172 114
176 172 114
178 173 114
176 172 114
178 173 114
178 173 114
180 174 114
179 173 114
179 174 114
180 174 114
178 173 114
180 174 114
182 175 114
182 175 114
180 174 114
184 176 114
184 175 113
186 177 114
184 176 113
185 176 113
185 175 110
184 175 112
186 176 112
184 175 109
182 174 107
186 176 110
185 175 108
183 174 106
184 174 109
182 172 102
178 169 101
181 171 102
178 169 98
175 166 95
177 168 91
176 167 90
171 161 88
168 159 86
161 155 76
166 162 75
167 166 72
164 167 60
158 165 54
166 175 51
160 168 49
167 178 47
171 189 34
166 185 19
171 192 28
168 188 19
172 196 0
173 196 0
172 196 0
173 197 0
173 197 0
173 197 0
174 197 0
173 197 0
175 198 0
174 197 0
175 198 0
174 198 0
173 196 0
176 198 0
173 197 0
173 197 0
173 196 0
175 198 0
175 198 0
172 196 0
172 196 0
175 198 0
175 197 0
174 197 0
172 196 0
172 196 0
174 197 0
173 196 0
172 196 0
173 196 0
172 196 0
174 197 0
173 197 0
173 196 0
173 196 0
173 197 0
173 196 0
172 196 0
173 197 0
174 197 0
171 195 0
173 196 0
176 199 0
171 195 0
174 197 0
174 197 0
173 197 0
171 195 0
174 197 0
173 197 0
174 197 0
175 198 0
169 192 0
172 196 0
171 194 0
175 198 0
171 194 0
174 197 0
174 196 0
173 197 0
173 197 0
171 195 0
175 198 0
173 197 0
175 197 0
173 197 0
172 196 0
173 196 0
173 197 0
171 194 0
174 197 0
175 198 0
175 198 0
175 197 0
173 197 0
169 192 0
173 197 0
173 197 0
174 196 0
173 196 0
173 197 0
172 195 0
173 196 0
175 197 0
170 194 0
170 193 0
171 195 0
172 195 0
171 195 0
173 197 0
172 195 0
175 197 0
173 196 0
172 195 0
173 196 0
174 198 0
174 197 0
174 197 0
172 195 0
173 197 0
173 196 0
171 195 0
174 197 0
172 196 0
173 196 0
170 194 0
174 197 0
174 197 0
170 194 0
172 196 0
172 195 0
172 195 0
173 197 0
171 195 0
169 193 0
170 193 0
166 189 44
153 177 84
129 154 127
107 134 149
71 105 169
63 99 178
62 99 176
62 99 176
61 99 179
62 99 179
62 99 175
62 99 179
62 99 181
62 99 180
62 99 181
62 99 180
62 99 180
62 99 180
62 99 180
62 99 179
62 99 179
63 100 180
62 99 181
61 98 181
62 99 181
62 99 181
62 99 181
62 99 179
62 99 181
62 99 180
62 99 181
62 99 181
61 99 181
61 99 181
61 98 180
62 99 180
61 99 180
62 99 181
62 99 181
62 99 181
62 99 181
62 99 181
61 99 181
62 99 181
62 99 181
61 99 181
61 99 181
61 99 181
62 99 181
62 99 181
61 99 181
61 99 181
62 99 181
62 99 181
62 99 181
63 100 181
62 99 181
61 99 181
62 99 181
62 99 181
62 99 180
62 99 181
62 99 181
62 99 181
62 99 180
62 99 181
62 99 181
61 99 181
62 99 181
61 98 181
61 99 179
61 98 181
62 99 181
62 99 181
62 99 181
62 99 181
61 99 181
61 99 181
62 99 181
62 99 181
62 99 181
62 99 180
62 99 181
62 99 179
61 99 180
62 99 181
62 99 180
62 99 181
62 99 181
61 98 178
62 99 179
62 99 179
61 99 179
61 99 181
61 99 180
62 99 179
61 98 178
61 98 180
62 98 178
61 98 178
62 99 179
61 98 177
62 99 180
62 99 178
62 99 177
62 99 179
61 98 175
62 99 177
62 98 178
62 98 176
62 99 177
62 98 177
62 99 177
62 99 177
62 98 176
67 100 166
87 113 156
112 134 134
137 151 102
151 164 79
159 171 53
164 172 49
158 167 44
167 171 58
160 164 54
164 165 61
162 161 68
157 154 64
169 163 73
165 157 78
168 160 84
168 160 82
166 158 80
165 157 88
170 161 92
171 163 91
168 161 88
170 162 94
174 166 101
161 155 91
163 157 92
169 161 101
160 153 96
154 150 95
162 156 100
155 151 100
156 151 99
163 157 103
161 156 103
152 149 99
153 150 102
159 155 104
155 152 103
153 151 103
161 158 107
147 145 101
158 155 105
158 155 105
161 158 107
153 151 103
158 155 106
166 162 109
161 158 108
165 162 109
160 158 108
157 155 106
166 164 111
167 163 110
168 165 111
169 165 111
167 165 111
164 162 109
168 165 111
172 169 112
172 169 113
170 168 112
173 170 113
174 170 113
173 170 114
173 170 114
172 170 114
173 171 114
172 170 114
173 171 114
174 171 114
173 171 114
172 170 114
171 170 114
173 171 114
172 170 114
171 170 114
172 170 114
171 170 114
173 171 114
173 171 114
171 170 114
171 170 114
171 170 114
170 169 114
171 170 114
171 170 114
171 170 114
170 169 114
171 170 114
171 170 114
171 169 114
172 170 114
170 169 114
171 170 114
172 170 114
173 171 114
172 170 114
172 170 114
172 170 114
172 170 114
172 170 114
171 170 114
171 170 114
172 170 114
172 170 114
173 171 114
173 171 114
172 170 114
173 171 114
173 171 114
174 171 114
175 171 114
174 171 114
175 172 114
174 171 114
173 170 114
175 172 114
175 171 114
176 172 114
177 172 114
176 172 114
177 173 114
177 173 114
177 173 114
178 173 114
179 173 114
179 173 114
179 173 114
181 174 114
180 174 114
181 175 114
180 174 114
183 175 114
183 175 114
184 175 113
183 175 114
183 175 113
185 176 114
186 176 113
184 175 112
186 177 112
185 176 109
185 175 110
186 176 108
185 175 110
185 175 107
182 173 101
184 174 105
181 171 99
184 174 104
184 173 103
182 172 99
177 168 94
169 160 85
173 164 88
169 160 84
166 157 85
158 151 75
161 156 74
159 157 66
160 161 62
161 163 61
164 170 56
169 178 52
169 183 37
171 186 36
167 181 34
169 188 30
171 194 16
175 197 0
173 196 11
174 197 0
174 198 0
172 195 0
174 197 0
173 197 0
173 197 0
173 197 0
176 198 0
175 198 0
173 197 0
171 195 0
170 194 0
174 197 0
175 197 0
172 196 0
170 192 0
175 198 0
176 199 0
173 197 0
174 197 0
172 196 0
172 195 0
174 197 0
173 197 0
173 196 0
173 197 0
172 195 0
173 196 0
177 199 0
172 195 0
173 196 0
174 197 0
173 197 0
173 195 0
173 196 0
175 198 0
174 197 0
173 197 0
172 195 0
171 195 0
173 197 0
171 195 0
174 198 0
174 197 0
172 195 0
172 196 0
172 196 0
174 197 0
173 197 0
173 196 0
174 197 0
173 197 0
173 197 0
171 195 0
172 195 0
172 196 0
174 197 0
174 197 0
173 196 0
172 196 0
171 195 0
173 196 0
175 198 0
173 197 0
171 195 0
174 197 0
173 197 0
172 196 0
172 195 0
174 197 0
173 197 0
171 195 0
175 198 0
172 196 0
174 197 0
173 197 0
171 195 0
170 193 0
170 195 0
173 196 0
173 196 0
173 197 0
170 194 0
172 195 0
175 197 0
172 194 0
173 197 0
173 197 0
171 194 0
174 198 0
172 195 0
175 198 0
174 197 0
171 194 0
171 194 0
173 195 0
173 196 0
171 195 0
171 194 0
174 197 0
173 195 0
173 195 0
172 195 0
174 196 0
171 195 0
173 197 0
173 197 0
174 198 0
173 197 0
170 193 0
173 196 0
170 194 0
172 194 18
166 189 51
147 172 99
130 155 122
89 119 162
64 101 178
62 99 178
61 98 176
62 99 174
61 98 172
62 99 179
62 99 181
62 99 177
61 99 180
62 99 180
62 99 178
61 98 176
62 99 181
62 99 180
61 98 181
62 99 179
62 99 180
62 99 181
61 99 180
62 99 180
62 99 180
62 99 181
61 99 181
61 99 180
62 99 181
62 99 181
62 99 181
61 98 179
62 99 181
62 99 181
61 98 180
62 99 181
61 99 181
61 98 181
62 99 181
61 99 180
62 99 181
61 99 181
62 99 181
62 99 181
62 99 181
61 99 180
61 99 181
62 99 181
62 99 181
62 99 181
61 98 181
62 99 181
61 99 181
62 99 181
62 99 181
61 99 181
62 99 181
61 98 180
61 99 180
61 99 181
62 99 181
61 99 181
62 99 181
61 99 181
61 99 181
61 98 181
61 99 181
62 99 181
62 99 181
62 99 181
62 99 181
62 99 181
61 99 181
62 99 180
62 99 181
61 99 181
62 99 180
61 98 181
62 99 181
61 99 180
62 99 180
62 99 180
62 99 181
61 99 181
62 99 181
63 100 181
61 98 180
62 99 179
61 99 178
62 99 181
62 99 179
62 99 179
62 99 179
61 98 179
62 99 179
62 99 179
62 99 181
62 99 180
62 99 179
62 99 177
61 98 179
61 98 178
61 99 180
62 99 177
62 99 179
62 99 177
61 98 177
61 98 179
62 98 176
61 98 175
62 98 176
62 98 179
62 99 176
61 97 171
62 98 172
61 97 174
62 98 174
63 98 171
70 101 164
111 128 138
133 146 103
136 146 87
155 163 57
162 169 49
160 166 47
162 163 58
162 161 68
155 155 53
163 159 70
165 158 75
161 154 76
173 163 90
167 159 86
167 159 87
164 157 81
169 162 88
164 157 86
166 159 92
168 160 94
165 158 91
160 154 92
157 152 88
153 148 96
159 153 97
162 155 99
146 143 92
157 152 101
152 148 101
152 148 99
147 144 97
159 154 102
150 147 101
152 148 102
156 153 103
145 143 100
153 150 102
159 156 105
159 156 106
150 148 101
155 152 104
154 152 104
153 152 105
157 155 106
162 159 108
157 155 106
156 154 106
157 155 106
162 160 109
165 162 109
162 160 109
162 160 108
165 163 110
167 165 111
166 164 111
174 170 113
173 169 113
174 170 113
172 169 113
173 170 113
171 168 113
175 171 114
174 171 114
173 170 113
175 172 114
173 171 114
173 170 114
173 171 114
173 171 114
174 171 114
172 170 114
173 171 114
171 170 114
173 170 114
172 170 114
172 170 114
171 170 114
172 170 114
170 169 114
171 170 114
171 170 114
170 169 114
172 170 114
172 170 114
172 170 114
170 169 114
171 170 114
172 170 114
171 170 114
171 170 114
171 170 114
171 170 114
172 170 114
173 170 114
172 170 114
172 170 114
173 171 114
173 170 114
173 170 114
172 170 114
173 170 114
174 171 114
173 171 114
172 170 114
174 171 114
173 171 114
174 171 114
174 171 114
175 172 114
175 172 114
175 172 114
176 172 114
175 171 114
175 171 114
176 172 114
176 172 114
178 173 114
177 173 114
177 173 114
179 173 114
179 173 114
178 173 114
179 173 114
181 174 114
180 174 114
182 175 114
181 174 114
179 173 114
182 175 114
181 174 114
183 175 114
184 175 114
184 176 114
182 175 113
185 176 113
184 175 111
185 176 112
186 176 112
185 175 110
187 177 112
185 176 110
184 175 106
184 175 109
183 174 104
183 173 100
183 173 103
180 171 97
182 172 101
179 169 94
180 170 95
176 167 95
174 164 92
170 161 87
171 162 86
166 158 84
166 162 76
158 155 69
164 165 71
164 169 63
162 163 61
167 175 48
163 177 34
166 181 28
167 186 19
171 187 28
171 192 16
172 194 16
174 197 0
172 196 0
177 199 0
172 196 0
174 197 0
172 195 0
173 196 0
173 196 0
173 196 0
174 198 0
173 196 0
174 197 0
173 196 0
173 196 0
175 198 0
174 197 0
174 198 0
174 198 0
171 194 0
172 196 0
172 196 0
174 197 0
174 197 0
172 196 0
174 198 0
173 196 0
172 196 0
173 196 0
172 195 0
174 198 0
173 197 0
175 198 0
173 196 0
173 197 0
172 196 0
174 197 0
174 197 0
174 197 0
174 197 0
173 197 0
173 196 0
175 198 0
174 198 0
173 197 0
173 196 0
174 197 0
174 198 0
173 196 0
172 196 0
174 197 0
173 197 0
172 196 0
175 198 0
173 196 0
173 197 0
173 196 0
175 198 0
172 194 0
173 196 0
173 196 0
174 198 0
174 197 0
174 198 0
174 197 0
173 197 0
172 195 0
174 197 0
172 194 0
174 198 0
174 197 0
172 195 0
171 195 0
171 194 0
173 197 0
174 197 0
172 195 0
174 197 0
173 196 0
174 197 0
173 196 0
170 193 0
172 196 0
173 197 0
170 194 0
171 195 0
173 196 0
171 194 0
172 196 0
173 197 0
173 196 0
173 196 0
171 195 0
172 195 0
173 197 0
170 193 0
171 194 0
173 196 0
172 196 0
170 194 0
174 197 0
171 194 0
176 198 0
173 197 0
172 195 0
173 196 0
173 197 0
171 194 0
174 197 0
172 195 0
175 198 0
175 198 0
169 193 0
173 196 18
164 188 51
147 172 88
119 146 135
75 108 170
62 99 174
62 99 177
62 99 172
62 99 173
62 99 174
62 99 179
62 99 180
62 100 181
62 99 179
62 99 177
62 99 180
62 99 177
62 99 181
62 99 179
62 99 178
62 99 178
61 99 180
61 99 178
62 99 179
61 98 179
62 99 181
62 99 181
61 99 180
62 99 181
62 99 180
62 99 181
62 99 181
62 99 179
61 99 181
62 99 180
62 99 181
61 99 180
63 100 181
61 98 180
62 99 181
62 99 181
62 99 181
62 99 179
61 99 181
62 99 181
61 99 180
62 99 181
61 99 181
62 99 181
62 99 181
62 99 181
62 99 180
62 99 181
62 99 181
61 99 181
62 99 180
62 99 181
61 99 181
62 99 181
61 99 180
62 99 181
61 99 180
61 98 181
61 99 180
62 99 181
62 99 181
62 99 181
62 99 181
61 98 181
62 99 181
61 98 181
61 98 181
61 99 181
60 98 180
62 99 181
62 99 181
62 99 181
62 99 181
62 99 181
62 99 181
62 99 181
62 99 181
62 99 181
62 99 181
62 99 181
62 99 180
61 99 180
62 99 181
61 99 180
62 99 180
61 98 179
62 99 180
62 99 178
62 99 179
61 99 180
62 99 179
62 99 177
62 99 178
61 98 178
62 99 180
62 99 179
62 99 178
62 99 180
62 99 178
62 99 178
62 99 178
62 99 179
62 99 178
62 99 176
62 99 179
62 99 180
61 97 173
61 98 177
62 99 178
62 98 171
62 98 174
62 98 175
62 98 174
61 96 171
62 98 174
61 96 169
68 101 168
107 123 143
130 141 114
143 154 93
158 168 58
156 162 45
159 162 54
154 150 58
163 161 65
170 164 79
161 156 68
165 158 84
172 164 86
166 159 84
162 156 79
164 157 83
168 161 91
171 164 90
167 159 90
164 157 94
158 152 91
160 155 93
153 149 90
152 147 89
152 148 96
150 145 94
159 154 98
150 145 94
146 143 97
159 154 103
147 144 98
138 136 94
149 146 100
145 143 97
148 146 100
144 142 99
153 150 101
146 144 100
150 147 100
155 152 103
152 150 103
152 151 104
157 154 106
149 148 104
153 152 104
155 153 105
162 159 107
159 157 107
156 155 106
165 162 110
161 159 107
164 161 110
167 164 110
161 158 107
165 163 110
170 167 112
168 165 111
172 168 112
172 168 112
172 169 113
174 171 113
173 170 113
174 170 113
175 172 114
174 171 114
173 171 114
175 172 114
174 171 114
175 171 114
172 170 114
173 171 114
174 171 114
173 170 114
172 170 114
172 170 114
172 170 114
173 171 114
171 170 114
172 170 114
173 171 114
173 171 114
172 170 114
171 170 114
171 170 114
173 170 114
173 171 114
172 170 114
172 170 114
172 170 114
171 170 114
173 171 114
171 170 114
172 170 114
172 170 114
172 170 114
173 171 114
171 170 114
172 170 114
171 170 114
173 171 114
173 170 114
174 171 114
174 171 114
172 170 114
174 171 114
173 170 114
174 171 114
174 171 114
176 172 114
174 171 114
176 172 114
176 172 114
176 172 114
176 172 114
177 173 114
176 172 114
176 172 114
177 172 114
177 173 114
178 173 114
179 173 114
179 173 114
180 174 114
180 174 114
182 175 114
182 175 114
182 175 114
182 175 114
181 174 114
183 175 114
182 175 114
184 176 113
183 175 114
184 175 113
184 175 112
185 176 111
185 176 112
186 176 112
186 176 112
185 176 109
184 175 109
184 174 106
184 174 103
182 174 105
183 173 103
182 173 103
179 170 95
179 169 93
174 166 88
176 167 91
175 166 90
171 162 84
169 161 83
166 157 81
166 158 80
168 162 79
165 161 75
160 164 59
167 170 66
153 162 36
162 170 49
161 172 47
162 178 36
172 189 30
169 187 30
169 191 11
173 195 0
172 197 0
174 197 0
173 196 0
172 196 0
172 195 0
174 197 0
173 197 0
174 197 0
171 194 0
173 196 0
173 196 0
172 196 0
173 197 0
176 198 0
173 196 0
174 198 0
173 196 0
174 197 0
174 197 0
173 197 0
174 197 0
175 198 0
175 198 0
174 197 0
173 196 0
172 196 0
172 195 0
171 194 0
172 195 0
174 197 0
175 198 0
174 197 0
171 194 0
175 198 0
173 197 0
172 195 0
173 197 0
174 197 0
173 196 0
172 196 0
173 196 0
173 196 0
174 198 0
173 196 0
171 195 0
172 196 0
174 197 0
171 194 0
172 195 0
173 197 0
174 197 0
172 196 0
171 195 0
172 195 0
173 196 0
173 197 0
172 195 0
172 195 0
173 197 0
175 198 0
174 197 0
173 196 0
174 197 0
173 196 0
172 197 0
169 193 0
172 196 0
172 196 0
173 196 0
171 195 0
174 198 0
175 198 0
172 195 0
172 196 0
170 193 0
171 194 0
173 197 0
172 196 0
174 197 0
171 196 0
171 195 0
174 197 0
171 194 0
172 195 0
172 196 0
174 197 0
172 196 0
171 193 0
173 197 0
174 197 0
172 196 0
173 197 0
174 197 0
172 196 0
175 198 0
176 198 0
171 193 0
171 194 0
172 194 0
173 196 0
171 195 0
173 196 0
173 196 0
175 197 0
173 196 0
172 195 0
172 195 0
172 196 0
172 196 0
173 196 0
172 195 0
172 195 18
162 186 62
149 174 95
118 145 136
82 114 162
63 100 179
62 98 173
63 99 174
62 99 177
62 99 176
62 99 176
62 99 175
62 99 179
62 99 176
62 99 180
62 99 179
62 99 177
62 99 177
62 99 179
62 99 180
63 100 180
62 99 178
62 99 180
62 99 181
62 99 178
62 99 180
62 99 180
62 99 180
62 99 181
62 99 180
62 99 181
62 99 181
62 99 181
62 99 180
62 99 180
62 99 180
62 99 181
61 99 180
62 99 181
62 99 181
62 99 181
61 98 181
62 99 181
62 99 181
61 99 181
61 99 181
61 99 181
62 99 181
61 99 180
62 99 181
62 99 181
62 99 181
61 98 181
62 99 181
62 99 181
61 98 180
62 99 181
61 99 181
62 99 181
61 99 181
62 99 181
61 99 181
61 99 181
62 99 181
62 99 180
62 99 181
62 99 181
61 98 181
62 99 181
61 98 181
62 99 181
61 99 181
62 99 181
61 99 180
62 99 181
62 99 179
61 99 181
62 99 180
62 99 181
62 99 181
62 99 181
62 99 180
62 99 181
62 99 181
61 99 180
61 98 180
62 99 181
62 99 181
61 99 179
62 99 180
62 99 180
62 99 180
62 99 180
63 100 181
62 99 180
62 99 181
62 99 180
61 98 178
62 99 180
62 99 179
62 99 179
61 98 178
61 98 177
62 99 179
61 99 180
62 99 179
62 99 179
62 99 178
61 98 173
61 98 179
62 99 178
62 99 177
62 99 176
61 98 174
62 99 177
62 98 175
62 98 173
62 98 173
62 97 172
62 98 174
61 98 175
61 97 172
61 97 172
75 103 162
99 120 149
122 132 109
149 157 100
155 161 75
159 156 65
158 156 61
167 164 72
163 156 76
157 151 68
159 152 73
169 161 84
164 156 85
169 161 83
168 160 86
165 159 86
167 160 85
163 156 90
160 153 94
164 157 92
161 155 98
164 158 99
145 141 91
158 152 97
154 149 96
158 153 100
161 155 102
151 147 98
155 150 100
140 138 95
148 145 99
145 142 97
141 140 98
142 140 96
148 146 101
147 145 100
141 140 98
153 150 102
151 149 102
153 150 102
151 149 104
151 149 103
154 152 104
152 150 104
155 154 106
157 155 105
154 153 105
155 154 105
163 161 109
163 160 109
162 159 108
164 162 109
159 157 108
168 165 111
166 163 110
166 164 110
171 168 112
173 169 113
171 168 112
173 169 113
174 171 114
173 170 113
173 170 113
176 172 114
175 171 114
175 171 114
175 172 114
174 171 114
174 171 114
174 171 114
173 171 114
174 171 114
173 170 114
173 171 114
174 171 114
174 171 114
174 171 114
173 171 114
173 171 114
173 171 114
172 170 114
172 170 114
172 170 114
172 170 114
173 170 114
174 171 114
174 171 114
172 170 114
173 171 114
171 170 114
172 170 114
172 170 114
173 171 114
173 171 114
173 170 114
173 171 114
172 170 114
174 171 114
174 171 114
173 171 114
174 171 114
173 171 114
173 171 114
174 171 114
175 172 114
176 172 114
176 172 114
173 171 114
175 172 114
176 172 114
178 173 114
176 172 114
177 172 114
176 172 114
179 173 114
177 173 114
179 173 114
178 173 114
178 173 114
179 173 114
180 174 114
179 173 114
179 173 114
181 174 114
182 175 114
182 175 114
181 174 114
182 175 114
183 175 114
184 176 114
182 175 114
183 175 112
185 176 113
186 176 113
185 176 112
185 175 109
185 176 112
184 175 109
184 175 108
188 177 111
187 176 109
183 173 104
183 174 104
181 172 99
182 172 98
183 173 102
179 169 95
181 171 97
176 167 93
174 166 89
173 164 90
170 160 84
171 162 88
167 159 80
166 160 78
164 159 76
159 157 64
166 167 67
162 169 54
166 172 56
164 179 36
168 183 37
164 181 32
166 185 16
174 195 19
170 191 16
173 195 0
174 198 0
173 197 0
173 197 0
173 197 0
173 197 0
173 196 0
173 196 0
173 197 0
174 197 0
170 193 0
173 197 0
172 196 0
175 198 0
172 196 0
173 196 0
175 198 0
172 195 0
174 198 0
173 197 0
174 198 0
174 198 0
173 197 0
175 198 0
172 196 0
174 198 0
175 198 0
174 197 0
173 196 0
173 196 0
172 196 0
173 196 0
173 197 0
172 197 0
171 195 0
173 196 0
171 196 0
173 197 0
172 195 0
174 197 0
173 197 0
172 196 0
171 195 0
172 196 0
174 198 0
173 196 0
173 196 0
172 195 0
171 195 0
173 196 0
174 197 0
175 197 0
173 196 0
173 196 0
170 194 0
175 198 0
173 196 0
172 196 0
171 195 0
174 197 0
174 198 0
174 197 0
172 195 0
173 195 0
173 195 0
172 195 0
177 199 0
173 196 0
170 195 0
174 197 0
172 195 0
173 197 0
174 197 0
173 196 0
171 195 0
171 195 0
173 196 0
174 197 0
170 194 0
173 197 0
174 197 0
173 196 0
172 196 0
173 196 0
175 197 0
171 195 0
173 197 0
172 195 0
170 193 0
173 195 0
172 196 0
172 195 0
170 193 0
173 196 0
170 194 0
171 195 0
171 194 0
172 195 0
171 195 0
172 196 0
173 196 0
173 196 0
172 196 0
173 197 0
171 195 0
174 197 0
171 194 0
171 195 0
170 193 0
172 196 0
172 196 0
166 189 54
155 179 80
122 148 129
78 111 167
62 99 178
62 99 175
62 99 177
63 99 175
62 98 177
62 99 178
63 100 180
62 99 177
62 99 180
62 99 174
62 99 175
62 99 178
61 99 179
62 99 180
62 99 180
62 99 179
62 99 180
62 99 179
62 99 179
62 99 180
62 99 180
62 99 179
62 99 179
62 99 181
61 99 180
62 99 180
61 99 181
62 99 181
61 99 181
62 99 181
61 99 181
61 99 180
62 99 179
62 99 181
62 99 181
62 99 181
62 99 181
62 99 181
62 99 181
62 99 181
62 99 181
62 99 180
61 99 181
62 99 181
62 99 180
62 99 181
62 99 181
62 99 180
62 99 181
61 99 181
61 99 180
61 99 181
62 99 180
61 99 181
61 98 181
62 99 180
62 99 181
61 99 180
62 99 180
61 99 181
62 99 181
62 99 181
62 99 181
61 99 180
62 99 181
61 99 181
61 99 181
62 99 181
62 99 181
61 99 181
62 99 181
62 99 181
61 98 180
61 99 181
61 98 180
62 99 180
62 99 180
62 99 181
62 99 180
62 99 180
61 98 181
62 99 179
62 99 181
61 99 181
62 99 180
61 99 180
62 99 180
62 99 179
62 99 180
62 99 180
62 99 181
62 99 180
61 98 178
61 99 178
62 99 180
62 99 180
62 99 180
61 98 180
62 98 174
62 99 179
62 99 180
61 98 176
62 99 177
62 98 177
62 99 179
62 99 178
62 99 176
62 99 176
62 99 176
62 98 178
61 98 174
61 98 173
62 99 176
62 98 170
61 98 176
61 98 175
62 99 178
61 97 170
62 97 167
61 97 172
68 100 168
88 108 157
125 136 118
143 147 96
158 155 77
158 157 64
165 161 73
163 158 69
159 153 74
162 154 81
164 157 78
166 158 86
156 150 81
160 154 84
163 156 90
165 157 89
159 154 87
166 159 92
162 156 92
157 151 95
150 146 89
148 144 94
155 149 96
147 143 92
143 140 90
148 144 94
143 140 95
143 140 96
140 138 95
139 138 96
148 145 100
137 136 96
141 139 97
148 146 101
148 146 101
143 141 98
145 144 100
145 144 101
155 152 103
142 142 99
145 145 101
153 151 104
152 151 104
148 148 104
152 151 105
159 157 107
154 152 105
164 161 108
156 154 105
157 156 106
161 159 108
162 160 109
166 163 110
167 164 110
163 160 108
170 167 111
169 165 110
173 169 113
170 167 112
173 170 113
174 171 113
171 168 113
172 170 113
175 171 114
175 172 114
174 171 114
174 171 114
174 171 114
175 172 114
173 171 114
174 171 114
174 171 114
173 171 114
174 171 114
173 171 114
173 171 114
173 171 114
173 171 114
174 171 114
173 171 114
172 170 114
174 171 114
173 171 114
172 170 114
174 171 114
173 171 114
174 171 114
173 170 114
174 171 114
172 170 114
174 171 114
173 171 114
173 171 114
174 171 114
174 171 114
173 170 114
173 170 114
175 171 114
173 170 114
175 171 114
173 171 114
174 171 114
175 171 114
174 171 114
176 172 114
175 171 114
176 172 114
177 172 114
178 173 114
178 173 114
177 172 114
177 173 114
178 173 114
178 173 114
178 173 114
179 174 114
179 174 114
179 174 114
180 174 114
180 174 114
179 173 114
182 175 114
181 174 114
182 175 114
183 175 114
183 175 114
184 176 114
183 175 114
183 175 113
185 176 113
182 175 112
184 176 113
184 175 112
181 174 109
183 175 110
184 175 110
186 176 111
187 176 110
184 175 106
184 175 109
184 175 106
183 173 101
182 173 102
183 174 103
182 172 100
180 171 95
178 168 93
177 167 95
174 165 91
176 166 90
174 165 89
169 160 82
171 162 84
169 162 81
166 161 76
164 163 65
163 162 64
164 169 53
159 169 42
157 166 44
160 173 32
167 182 34
162 181 16
168 190 16
172 194 0
169 192 0
173 196 0
174 198 0
174 198 0
175 198 0
174 197 0
172 196 0
173 197 0
174 197 0
173 196 0
172 196 0
172 196 0
174 197 0
173 195 0
173 197 0
171 194 0
172 195 0
172 195 0
174 197 0
175 198 0
173 196 0
173 196 0
172 195 0
173 196 0
170 194 0
174 197 0
169 193 0
170 194 0
174 197 0
174 196 0
176 198 0
171 195 0
172 195 0
172 196 0
173 197 0
174 198 0
173 196 0
172 196 0
175 197 0
172 194 0
173 196 0
174 197 0
174 197 0
174 197 0
169 193 0
174 196 0
175 198 0
172 195 0
173 196 0
175 197 0
172 196 0
171 194 0
173 196 0
174 197 0
174 197 0
174 197 0
174 197 0
172 195 0
171 194 0
172 196 0
174 197 0
174 198 0
173 195 0
173 197 0
173 196 0
171 195 0
171 195 0
173 197 0
173 197 0
173 196 0
173 196 0
172 194 0
174 198 0
172 195 0
172 195 0
172 195 0
170 194 0
170 193 0
171 195 0
173 197 0
172 195 0
171 195 0
171 195 0
172 196 0
172 195 0
174 197 0
172 196 0
173 196 0
172 195 0
172 195 0
174 197 0
172 195 0
170 193 0
170 194 0
173 197 0
172 196 0
173 196 0
170 194 0
171 194 0
173 196 0
170 194 0
172 196 0
171 195 0
173 196 0
171 195 0
174 196 0
172 195 0
171 194 0
172 195 0
171 194 0
166 190 51
144 168 102
111 138 142
72 106 169
62 98 172
62 99 179
62 99 178
62 99 177
62 99 179
62 99 175
62 99 177
62 99 180
62 99 177
62 99 177
62 99 179
62 99 179
63 100 180
62 99 178
62 99 178
62 99 179
62 99 178
62 99 180
62 99 178
62 99 178
62 99 179
61 99 181
62 99 179
62 99 180
62 99 180
61 98 179
62 99 179
62 99 181
61 98 179
62 99 181
62 99 181
62 99 181
62 99 181
62 99 180
62 99 181
61 99 180
61 99 180
61 98 181
61 98 181
62 99 181
61 99 181
62 99 181
62 99 181
61 99 181
62 99 181
61 99 179
61 98 181
61 99 181
61 99 181
62 99 181
61 99 181
62 99 180
61 99 181
61 99 180
62 99 181
62 99 181
62 99 181
62 99 181
62 99 181
62 99 180
61 99 181
62 99 181
61 98 181
61 99 181
61 99 181
61 99 181
61 99 180
62 99 180
61 99 181
61 98 181
61 99 181
62 99 180
61 99 181
62 99 181
61 99 180
62 99 181
61 99 180
62 99 181
61 99 181
62 99 181
62 99 181
62 99 180
62 99 179
62 99 180
61 99 181
61 98 181
63 100 181
62 99 181
62 99 179
62 99 180
61 98 178
61 98 180
62 99 179
62 99 180
62 99 177
62 99 181
62 99 180
63 100 180
62 99 181
62 99 175
62 99 179
62 99 178
62 99 180
62 99 177
62 98 176
62 98 177
61 98 177
61 98 175
62 98 176
62 98 177
63 99 179
62 99 180
62 99 176
62 98 177
62 98 175
62 98 176
61 98 174
62 98 174
63 98 173
60 95 167
61 96 170
62 99 178
72 102 167
92 112 152
130 135 125
142 142 98
157 157 67
161 156 74
159 154 74
165 157 83
160 153 76
159 152 75
167 160 80
162 155 85
162 155 88
161 155 84
154 149 86
152 147 89
152 148 84
149 144 86
152 147 93
140 137 89
146 142 93
154 149 98
142 138 91
146 142 93
138 136 93
140 137 91
133 132 91
144 141 97
144 142 97
144 142 97
141 140 97
138 137 96
135 134 94
142 141 98
141 140 98
141 140 98
138 138 98
140 140 99
141 140 99
143 142 99
154 151 103
151 149 103
149 148 104
154 153 105
149 148 103
152 151 104
159 157 106
157 155 105
159 157 107
160 157 107
163 161 109
168 165 111
162 159 108
168 164 110
173 169 113
167 164 110
170 167 111
169 166 112
172 169 113
174 170 113
175 171 114
173 170 114
177 172 114
175 171 114
176 172 114
176 172 114
175 172 114
175 171 114
175 171 114
174 171 114
174 171 114
173 171 114
174 171 114
174 171 114
174 171 114
173 171 114
174 171 114
174 171 114
173 171 114
172 170 114
173 171 114
173 171 114
174 171 114
174 171 114
173 171 114
173 171 114
173 171 114
174 171 114
173 171 114
174 171 114
173 170 114
173 171 114
175 172 114
174 171 114
173 171 114
174 171 114
174 171 114
174 171 114
174 171 114
176 172 114
175 172 114
175 172 114
176 172 114
175 171 114
177 172 114
175 172 114
176 172 114
177 173 114
178 173 114
177 173 114
176 172 114
179 173 114
179 173 114
178 173 114
179 173 114
180 174 114
179 173 114
181 174 114
179 173 114
181 174 114
181 174 114
181 174 114
183 175 114
183 175 114
183 175 114
183 175 114
184 176 113
184 176 113
184 175 113
185 176 112
184 175 111
184 176 112
185 176 112
184 175 109
184 175 111
186 176 110
184 174 105
187 176 109
184 175 108
184 175 107
185 175 107
181 172 100
179 170 96
181 171 97
182 172 97
176 167 91
180 171 96
173 164 87
169 160 82
167 159 80
175 166 88
166 157 81
164 158 75
159 155 71
171 167 75
159 159 66
158 162 53
158 166 48
160 171 44
167 182 36
163 178 39
166 183 30
167 187 19
172 190 25
172 194 0
174 198 0
174 198 0
172 196 0
174 198 0
174 197 0
174 197 0
173 197 0
174 197 0
173 197 0
174 198 0
174 197 0
171 195 0
173 197 0
174 197 0
175 198 0
172 196 0
173 196 0
176 199 0
175 198 0
173 197 0
173 197 0
170 194 0
173 197 0
173 196 0
173 197 0
173 196 0
174 197 0
173 197 0
175 198 0
171 195 0
171 195 0
172 196 0
173 196 0
174 197 0
172 196 0
174 197 0
171 195 0
174 197 0
171 195 0
171 194 0
174 197 0
172 196 0
171 194 0
172 195 0
175 198 0
173 196 0
173 197 0
174 197 0
171 195 0
172 196 0
173 196 0
173 196 0
173 197 0
172 196 0
171 195 0
171 194 0
174 196 0
175 198 0
172 195 0
172 195 0
174 196 0
172 195 0
172 195 0
174 196 0
174 196 0
171 195 0
173 196 0
172 196 0
173 197 0
171 195 0
173 197 0
169 192 0
174 197 0
173 196 0
171 194 0
173 197 0
172 196 0
174 197 0
172 196 0
172 196 0
173 196 0
171 195 0
174 197 0
172 195 0
173 196 0
172 196 0
175 198 0
170 193 0
173 196 0
171 194 0
172 196 0
172 195 0
171 195 0
174 197 0
170 194 0
172 195 0
172 196 0
171 195 0
175 197 0
173 196 0
172 195 0
173 196 0
172 196 0
169 193 0
171 195 0
172 195 0
171 194 0
172 195 0
162 186 62
146 171 99
120 147 131
77 110 165
62 99 176
62 99 176
61 98 176
63 100 179
62 99 176
62 98 173
63 99 176
62 99 178
62 99 178
62 99 177
61 98 178
63 99 176
62 99 179
63 99 178
62 99 178
63 100 179
62 99 179
62 99 179
62 99 178
62 99 178
62 99 178
62 99 181
62 99 179
62 99 180
62 99 180
62 99 181
61 98 179
62 99 180
62 99 181
61 99 181
62 99 180
62 99 181
63 100 180
61 98 178
61 99 181
62 99 181
62 99 181
62 99 181
61 98 181
62 99 180
62 99 180
61 99 181
62 99 181
62 99 181
62 99 180
62 99 181
62 99 181
61 99 181
62 99 181
61 99 181
62 99 181
61 99 181
61 99 180
61 98 178
61 99 180
62 99 181
62 99 181
62 99 180
62 99 181
62 99 181
61 98 178
62 99 181
62 99 181
61 98 180
62 99 181
62 99 180
61 99 181
62 99 181
62 99 181
62 100 181
61 99 180
61 99 181
62 99 179
62 99 181
61 99 181
61 98 180
62 99 181
61 99 180
62 99 181
62 99 181
62 99 180
61 99 179
61 99 181
61 99 180
61 99 181
62 99 181
62 99 181
61 98 175
61 99 179
62 99 179
61 98 178
62 99 180
61 98 178
61 99 181
62 99 180
62 99 180
62 99 180
62 99 181
62 99 179
62 99 177
62 99 177
63 99 176
62 99 179
61 98 178
62 99 177
62 98 174
61 98 173
62 99 178
61 98 174
62 99 179
61 98 176
61 98 177
62 98 175
61 98 175
62 99 175
61 98 174
62 99 176
62 98 174
62 99 175
62 98 176
62 98 175
61 97 168
60 95 165
61 97 172
69 100 169
103 119 150
115 126 127
147 146 99
159 156 87
159 154 75
161 154 77
161 154 80
160 153 78
162 155 79
162 156 82
162 155 83
146 141 81
156 150 86
146 142 79
155 149 88
147 143 88
152 148 90
152 147 90
145 142 92
147 142 96
149 144 95
137 135 91
135 133 89
141 137 90
134 132 93
127 127 91
146 143 98
139 137 96
136 135 94
128 128 92
134 134 96
141 140 97
137 136 94
146 144 100
131 132 95
137 137 98
141 140 99
142 142 100
140 140 99
154 152 104
141 141 99
148 147 101
144 144 101
150 149 103
152 151 104
164 161 109
154 152 105
144 145 102
159 157 107
163 160 108
169 165 111
155 153 105
166 163 109
165 162 110
170 167 111
171 167 112
174 170 113
170 167 112
173 170 113
173 169 113
175 171 114
176 172 114
174 171 113
174 171 114
177 173 114
176 172 114
177 172 114
175 171 114
176 172 114
173 171 114
175 172 114
175 171 114
175 171 114
174 171 114
175 171 114
174 171 114
173 171 114
175 171 114
174 171 114
173 171 114
174 171 114
173 170 114
173 171 114
174 171 114
173 171 114
174 171 114
174 171 114
176 172 114
175 171 114
174 171 114
174 171 114
175 172 114
174 171 114
174 171 114
176 172 114
175 172 114
175 171 114
176 172 114
176 172 114
177 172 114
176 172 114
177 172 114
178 173 114
177 172 114
176 172 114
178 173 114
177 173 114
178 173 114
177 173 114
178 173 114
179 173 114
178 173 114
179 173 114
180 174 114
180 174 114
182 175 114
181 174 114
182 175 114
181 174 114
182 175 114
182 175 114
182 175 114
183 175 114
184 176 114
186 176 114
184 175 113
185 176 114
185 176 113
183 175 110
186 176 111
185 176 110
187 176 111
186 176 109
186 176 110
182 173 104
184 174 104
183 174 103
184 174 104
184 174 102
181 172 98
182 172 97
181 171 97
180 171 95
179 170 96
179 170 95
173 164 88
176 166 87
175 165 89
171 161 87
166 157 82
169 161 79
165 159 79
152 153 54
153 155 52
164 170 56
159 167 48
164 172 45
167 181 42
160 175 32
169 187 32
171 190 19
171 193 19
173 196 0
173 197 0
171 195 0
174 197 0
175 198 0
174 198 0
170 194 0
173 196 0
173 197 0
174 197 0
174 198 0
172 196 0
170 193 0
174 197 0
172 195 0
175 198 0
172 195 0
174 197 0
175 198 0
172 196 0
172 195 0
175 198 0
172 196 0
170 194 0
173 197 0
174 197 0
174 196 0
172 196 0
171 195 0
172 196 0
175 198 0
172 196 0
172 195 0
174 197 0
172 197 0
174 198 0
173 196 0
174 197 0
174 197 0
171 195 0
174 198 0
174 197 0
173 196 0
174 197 0
173 197 0
174 197 0
173 196 0
172 195 0
174 198 0
171 195 0
174 198 0
174 197 0
172 195 0
173 197 0
174 197 0
172 196 0
171 194 0
175 197 0
174 197 0
173 197 0
175 198 0
175 198 0
171 195 0
170 193 0
172 195 0
173 196 0
174 197 0
172 196 0
170 194 0
174 197 0
172 195 0
172 196 0
168 192 0
173 197 0
171 195 0
174 196 0
173 197 0
172 196 0
171 195 0
173 197 0
171 195 0
172 194 0
174 197 0
171 194 0
172 195 0
175 197 0
171 195 0
173 196 0
174 197 0
170 193 0
172 195 0
171 195 0
172 196 0
172 196 0
172 195 0
171 194 0
172 197 0
173 196 0
168 192 0
174 197 0
168 192 0
172 196 0
172 195 0
172 196 0
172 195 0
170 194 0
172 195 0
172 194 0
168 191 44
145 169 102
106 134 144
71 105 171
62 99 173
62 99 173
62 99 175
62 99 176
62 99 174
62 99 175
62 99 178
61 99 177
62 99 178
62 99 180
62 99 177
62 99 178
62 99 176
61 98 177
62 99 179
62 99 179
61 99 178
62 99 180
62 99 179
62 99 180
62 99 180
62 99 180
62 99 179
62 99 180
62 99 179
62 99 178
62 99 181
62 99 179
62 99 181
62 99 180
62 99 181
62 99 181
62 99 181
62 99 180
62 99 181
62 99 180
62 99 180
62 99 180
62 99 181
62 99 181
62 99 181
62 99 181
62 99 181
62 99 180
61 99 181
62 99 180
62 99 181
62 99 181
62 99 181
62 99 180
61 99 180
62 99 180
62 99 181
62 99 181
62 99 180
62 99 180
62 99 181
62 99 181
61 99 181
61 99 181
62 99 181
62 99 181
62 99 181
61 99 181
62 99 181
61 99 181
61 99 180
62 99 181
61 99 180
62 99 180
61 99 181
62 99 180
61 99 179
62 99 179
62 99 180
61 99 179
62 99 180
62 99 181
61 99 179
61 99 180
61 99 181
62 99 178
62 99 180
61 98 178
62 99 181
62 99 180
61 98 176
62 99 179
61 99 180
61 98 180
62 99 179
62 99 178
62 99 181
62 99 179
62 99 181
62 99 180
62 99 179
62 99 178
62 99 177
61 98 176
61 99 179
62 99 178
62 99 179
62 99 178
62 99 178
62 99 179
61 98 177
62 99 176
62 99 175
62 99 178
61 98 174
62 98 174
62 98 171
62 99 179
62 99 176
62 99 178
62 99 180
62 98 174
61 97 168
62 99 177
62 99 175
61 97 170
61 97 170
62 97 169
62 97 171
62 97 168
85 109 164
98 115 155
119 127 121
141 141 106
146 142 82
161 154 72
164 157 73
161 153 79
153 147 77
159 153 80
165 157 86
159 153 82
163 156 92
148 144 84
145 139 86
153 147 90
145 140 91
140 137 88
142 139 91
144 140 91
140 137 93
145 142 96
129 128 87
139 137 94
144 141 98
134 133 92
126 126 88
132 132 93
123 124 90
140 139 96
136 135 95
137 136 95
136 135 95
139 139 99
129 131 94
135 136 97
134 135 95
140 140 99
145 145 102
143 143 100
146 145 102
149 148 103
150 149 103
148 147 101
152 150 102
159 157 107
152 150 104
158 156 107
155 154 106
154 153 105
159 157 107
161 158 108
167 163 110
164 161 109
170 166 111
173 169 113
170 166 111
172 168 112
176 172 114
175 171 113
176 172 114
175 171 113
174 171 114
176 172 114
175 171 114
176 172 114
176 172 114
175 172 114
177 172 114
175 172 114
175 171 114
175 172 114
174 171 114
174 171 114
176 172 114
174 171 114
175 171 114
174 171 114
175 171 114
175 172 114
173 171 114
176 172 114
175 172 114
178 173 114
175 171 114
175 171 114
175 172 114
174 171 114
175 171 114
174 171 114
174 171 114
175 171 114
176 172 114
175 171 114
176 172 114
175 172 114
176 172 114
174 171 114
176 172 114
175 172 114
176 172 114
176 172 114
176 172 114
180 174 114
177 173 114
180 174 114
179 173 114
177 172 114
178 173 114
178 173 114
179 173 114
178 173 114
181 174 114
181 174 114
181 174 114
180 174 114
181 174 114
181 174 114
182 175 114
182 175 114
183 175 114
184 176 114
182 175 114
184 175 113
183 175 112
185 176 113
185 176 113
187 177 113
185 176 112
185 176 112
185 176 111
186 176 111
185 176 110
186 176 110
184 175 108
184 174 105
184 174 101
183 174 104
182 173 104
181 172 99
180 171 97
182 172 97
179 170 96
183 173 97
181 171 99
178 169 91
178 169 93
169 161 80
169 160 82
164 157 76
164 158 72
157 152 68
157 153 69
163 164 64
167 165 64
162 168 53
166 176 48
165 178 37
169 182 42
164 182 25
163 181 16
173 193 22
171 194 0
175 198 0
172 196 0
173 196 0
175 198 0
174 197 0
173 196 0
174 197 0
172 196 0
174 197 0
173 197 0
173 196 0
174 197 0
175 198 0
172 196 0
174 197 0
173 196 0
174 197 0
173 196 0
173 197 0
172 195 0
174 197 0
170 193 0
173 197 0
171 195 0
173 197 0
173 197 0
174 197 0
171 194 0
173 197 0
175 198 0
170 194 0
168 192 0
175 197 0
173 197 0
173 197 0
173 197 0
174 198 0
173 196 0
174 197 0
174 196 0
174 198 0
175 198 0
174 198 0
174 198 0
173 197 0
173 196 0
171 195 0
171 195 0
173 195 0
173 197 0
174 197 0
172 196 0
171 194 0
172 196 0
173 196 0
171 195 0
173 196 0
175 198 0
173 197 0
171 194 0
170 193 0
172 195 0
175 198 0
173 196 0
173 197 0
170 194 0
170 194 0
170 194 0
170 194 0
171 195 0
171 194 0
174 197 0
170 194 0
172 196 0
173 197 0
173 196 0
175 198 0
172 194 0
173 196 0
173 196 0
171 194 0
170 194 0
174 197 0
172 196 0
172 195 0
171 194 0
172 196 0
171 195 0
172 195 0
168 191 0
172 196 0
169 194 0
171 194 0
171 194 0
173 196 0
171 195 0
173 197 0
173 197 0
174 196 0
171 194 0
172 195 0
170 194 0
171 194 0
173 196 0
172 194 0
173 196 0
166 189 51
149 173 90
112 140 137
84 115 160
61 98 173
63 100 179
61 98 174
62 99 178
61 99 179
62 99 173
62 99 177
63 99 177
61 98 176
62 99 177
62 99 180
61 98 176
62 99 177
62 99 177
62 99 179
62 99 178
62 99 179
62 99 176
62 99 179
61 99 179
63 100 181
62 99 179
62 99 180
62 99 180
62 99 181
61 99 179
62 99 181
62 99 179
62 99 181
62 99 179
62 99 180
62 99 180
62 99 181
62 99 181
62 99 179
61 99 180
62 99 180
62 99 180
62 99 180
62 99 180
63 100 181
62 99 180
62 99 180
62 99 179
62 99 181
61 99 181
61 99 181
62 99 181
62 99 181
62 99 179
62 99 181
62 99 181
62 99 179
62 99 180
62 99 181
62 99 180
62 99 181
62 99 181
62 99 181
62 99 181
62 99 181
61 98 181
62 99 181
62 99 180
61 99 181
61 99 180
61 98 179
61 99 180
61 99 181
62 99 180
61 99 180
63 100 181
61 99 181
62 99 181
61 99 181
61 99 180
62 99 180
62 99 181
61 99 181
62 99 180
61 99 180
62 99 181
62 99 180
62 99 179
62 99 180
62 99 180
62 99 180
62 99 181
63 100 180
62 99 181
62 99 180
62 99 180
62 99 179
61 99 181
62 99 180
62 99 180
62 99 179
61 99 180
61 99 180
62 99 180
62 99 179
61 98 175
61 99 178
61 99 180
62 99 178
61 98 173
62 99 177
61 98 176
62 99 180
62 98 174
62 99 178
61 97 172
62 99 176
62 99 174
62 98 176
62 99 179
62 99 177
62 99 176
62 98 171
61 98 172
61 98 173
61 98 175
61 98 175
61 97 171
61 97 172
61 97 171
62 96 164
62 97 172
70 100 164
102 117 145
128 133 121
147 144 98
164 157 92
164 157 76
163 155 83
155 149 77
160 153 78
149 144 79
155 149 79
146 141 80
150 145 82
152 146 88
150 145 87
130 128 76
151 146 90
139 135 86
134 132 87
136 133 89
126 125 82
123 122 86
134 132 92
120 120 85
128 127 90
129 128 90
126 126 88
135 134 93
124 124 88
126 127 90
130 130 93
136 135 96
133 134 96
126 127 91
140 140 98
131 132 94
136 136 96
124 126 93
137 138 98
144 144 100
143 143 100
146 145 101
151 150 104
150 148 102
152 151 104
155 153 105
147 146 101
156 154 104
156 154 105
160 158 107
161 158 107
167 164 110
165 162 109
164 162 110
165 163 109
170 166 111
174 170 113
173 169 112
173 170 113
178 173 114
175 170 113
177 172 114
177 172 114
178 173 114
176 172 114
176 172 114
176 172 114
175 172 114
175 172 114
176 172 114
175 171 114
175 172 114
176 172 114
176 172 114
176 172 114
175 172 114
176 172 114
174 171 114
174 171 114
175 172 114
175 171 114
175 171 114
176 172 114
176 172 114
176 172 114
176 172 114
175 172 114
175 171 114
177 172 114
176 172 114
177 173 114
176 172 114
176 172 114
176 172 114
177 173 114
176 172 114
177 172 114
176 172 114
174 171 114
178 173 114
178 173 114
176 172 114
177 172 114
178 173 114
179 173 114
178 173 114
177 173 114
181 174 114
179 174 114
179 173 114
180 174 114
181 174 114
180 174 114
179 173 114
182 175 114
182 175 114
181 174 114
183 175 114
182 175 114
184 175 114
185 176 113
183 175 113
184 176 113
183 175 111
185 176 113
187 177 112
182 174 110
184 175 111
183 175 110
187 177 111
184 176 112
184 175 106
187 176 110
184 174 104
183 174 103
185 175 104
182 173 99
185 175 104
181 172 99
181 172 97
180 171 93
181 171 97
176 168 90
179 169 90
181 171 93
177 168 93
171 163 79
165 158 75
164 155 80
168 161 77
162 156 78
170 166 75
161 160 64
158 160 59
165 172 52
156 164 45
163 177 32
161 176 28
167 185 28
166 188 0
168 189 0
170 191 11
172 196 0
175 198 0
174 198 0
171 194 0
174 198 0
174 196 0
173 196 0
173 196 0
172 195 0
172 196 0
172 196 0
173 197 0
174 197 0
172 195 0
174 197 0
175 198 0
173 196 0
173 196 0
170 194 0
172 195 0
172 196 0
171 195 0
173 197 0
174 197 0
173 196 0
174 197 0
174 197 0
172 195 0
171 195 0
175 198 0
170 194 0
173 197 0
173 196 0
174 198 0
171 194 0
173 196 0
171 195 0
173 197 0
172 196 0
173 196 0
174 198 0
173 196 0
174 197 0
172 196 0
176 199 0
174 197 0
172 196 0
173 196 0
174 197 0
173 197 0
173 197 0
173 197 0
172 195 0
171 195 0
174 197 0
173 196 0
174 197 0
175 198 0
172 195 0
171 194 0
172 196 0
173 197 0
173 196 0
172 195 0
173 197 0
171 194 0
171 195 0
173 197 0
176 198 0
171 194 0
171 194 0
173 195 0
174 196 0
173 197 0
172 196 0
173 196 0
172 195 0
173 196 0
173 196 0
172 195 0
168 192 0
174 197 0
172 195 0
172 195 0
172 195 0
174 197 0
170 193 0
172 195 0
170 194 0
171 194 0
172 195 0
173 196 0
172 195 0
174 197 0
172 195 0
174 197 0
172 196 0
174 197 0
173 196 0
171 195 0
173 197 0
172 195 0
170 194 0
170 192 0
173 196 0
167 190 40
147 171 97
119 145 135
75 108 165
62 99 169
63 99 180
62 99 170
62 99 170
62 99 177
63 99 173
63 100 178
63 100 178
62 99 178
63 99 173
62 99 179
62 99 180
63 99 177
62 99 174
62 99 177
61 98 178
63 100 179
62 99 179
62 99 180
62 99 179
61 98 177
61 98 180
62 99 177
62 99 180
62 99 180
62 99 179
62 99 181
62 99 181
61 99 179
62 99 179
62 99 180
61 99 178
62 99 180
61 99 181
62 99 181
62 99 180
62 99 179
62 99 181
62 99 181
61 99 179
62 99 180
62 99 181
62 99 180
61 99 180
62 99 181
62 99 181
62 99 180
62 99 179
62 99 181
61 99 181
62 99 181
61 99 181
62 99 181
62 99 181
62 99 181
62 99 181
62 99 181
61 99 180
62 99 181
62 99 179
62 99 180
61 98 181
61 99 181
61 99 179
62 99 180
61 99 180
62 99 179
62 99 181
61 99 179
62 99 181
61 99 180
61 99 179
61 99 181
62 99 180
62 99 180
63 100 181
62 99 180
62 99 180
62 99 179
62 99 180
61 99 181
62 99 181
62 99 179
62 99 181
62 99 180
62 99 180
62 99 179
62 99 180
62 99 179
62 99 181
62 99 180
62 99 181
61 98 179
61 99 181
61 99 180
61 98 177
62 99 179
61 99 180
62 99 180
62 99 177
62 99 180
62 99 176
62 99 180
62 99 180
62 99 178
62 99 181
62 99 175
62 99 176
62 99 174
62 99 177
62 99 179
62 99 180
61 98 176
62 99 177
62 99 176
62 98 175
61 98 175
61 98 175
61 98 174
62 98 174
62 99 174
62 98 175
62 99 175
62 98 171
61 97 172
61 98 174
61 98 174
61 98 176
61 97 169
62 98 170
73 101 162
103 116 143
129 132 119
142 141 103
153 147 86
159 152 82
150 145 72
155 148 80
153 147 77
144 139 83
146 141 79
142 138 81
145 140 84
135 132 83
135 132 85
129 127 82
136 134 89
127 126 85
129 127 86
134 132 89
123 123 86
115 116 84
128 126 86
122 122 87
129 128 90
128 129 92
126 127 91
119 121 87
128 128 92
116 118 87
133 133 94
119 121 89
124 126 92
133 134 96
132 133 95
130 132 95
138 138 97
138 138 97
133 134 95
145 145 101
149 147 101
147 147 102
145 144 101
151 150 103
151 149 103
154 152 105
158 156 107
161 158 108
165 162 108
158 156 106
165 161 109
162 159 108
171 167 111
170 166 111
169 165 111
171 167 111
173 169 112
172 168 111
175 171 113
174 170 113
177 172 114
175 170 113
178 173 114
177 172 114
178 173 114
176 172 114
177 172 114
177 173 114
176 172 114
176 172 114
176 172 114
176 172 114
175 172 114
175 172 114
175 172 114
176 172 114
175 172 114
176 172 114
177 173 114
176 172 114
176 172 114
175 172 114
175 172 114
175 171 114
175 172 114
176 172 114
175 172 114
177 173 114
175 172 114
178 173 114
176 172 114
177 173 114
177 173 114
177 172 114
176 172 114
177 172 114
176 172 114
177 172 114
179 173 114
177 173 114
178 173 114
178 173 114
178 173 114
179 173 114
179 173 114
179 174 114
179 173 114
180 174 114
179 173 114
181 174 114
180 174 114
182 175 114
182 175 114
181 174 114
180 174 114
185 176 114
184 176 114
184 176 114
184 176 114
185 176 114
184 176 114
184 175 113
183 175 112
187 177 113
185 176 113
185 176 109
185 176 111
184 175 108
184 175 108
184 175 108
183 174 106
183 174 105
185 175 105
183 174 104
183 173 101
182 173 99
183 174 104
181 172 103
182 173 99
183 173 98
182 172 97
179 170 93
174 166 88
175 167 89
179 169 90
174 164 88
170 161 83
169 160 86
164 157 73
166 159 75
159 156 63
159 156 64
158 162 49
159 168 45
164 171 49
166 177 45
169 182 39
162 178 30
167 185 22
168 190 16
172 193 11
173 197 0
173 197 0
175 198 0
172 195 0
174 197 0
173 197 0
173 196 0
175 198 0
175 198 0
174 197 0
174 197 0
174 197 0
174 197 0
173 197 0
174 198 0
171 195 0
173 197 0
173 196 0
173 197 0
174 197 0
175 198 0
171 195 0
174 197 0
168 192 0
174 197 0
171 195 0
172 196 0
171 194 0
172 196 0
173 196 0
174 197 0
174 198 0
171 195 0
173 196 0
171 195 0
170 194 0
173 197 0
170 193 0
172 196 0
173 196 0
171 195 0
173 196 0
174 197 0
173 196 0
172 196 0
173 196 0
171 194 0
173 197 0
171 195 0
171 195 0
171 195 0
172 196 0
173 196 0
173 196 0
172 196 0
170 193 0
173 197 0
171 195 0
173 196 0
173 196 0
174 196 0
174 197 0
169 193 0
171 195 0
171 194 0
172 195 0
173 196 0
172 196 0
172 195 0
171 194 0
171 195 0
173 196 0
173 197 0
174 197 0
170 193 0
173 197 0
170 193 0
174 198 0
174 197 0
172 196 0
174 197 0
173 197 0
171 195 0
173 196 0
172 196 0
172 196 0
173 196 0
173 196 0
171 195 0
171 195 0
173 196 0
171 195 0
173 196 0
171 195 0
171 194 0
170 194 0
172 195 0
174 198 0
173 196 0
173 196 0
169 193 0
172 196 0
171 195 0
172 195 0
169 192 40
142 165 95
131 157 117
77 110 167
62 99 170
62 98 172
63 99 174
63 100 176
62 99 172
63 100 178
62 99 173
62 99 175
62 99 179
62 99 177
62 99 178
62 99 178
62 99 173
62 99 179
62 99 180
62 99 177
62 99 176
62 99 179
62 99 178
62 99 181
62 99 178
62 99 173
62 99 179
62 99 179
62 99 178
62 99 177
62 99 180
62 99 180
62 99 181
62 99 180
62 99 180
61 99 180
62 99 178
62 99 181
62 99 180
62 100 181
62 99 178
62 99 179
62 99 180
62 99 180
62 99 180
61 99 180
61 98 181
61 98 180
62 99 181
62 99 179
62 99 181
62 99 181
62 99 181
62 99 180
62 99 178
62 99 181
61 99 181
61 99 180
61 99 180
62 99 181
62 99 181
61 99 181
62 99 181
62 99 181
62 99 181
62 99 181
62 99 181
62 99 181
62 99 181
62 99 181
61 99 181
62 99 180
62 99 181
62 99 181
62 99 181
62 99 179
62 99 181
62 99 180
63 100 181
61 98 180
62 99 180
61 99 181
61 98 178
62 99 179
62 99 177
61 98 178
62 99 180
62 99 181
62 99 181
62 99 180
62 99 181
62 99 180
62 99 178
62 99 178
61 99 180
62 99 179
62 99 179
62 99 177
62 99 181
62 99 179
62 99 181
61 98 179
62 99 176
61 98 179
61 98 178
62 99 179
62 99 178
62 99 180
62 99 181
62 99 179
62 99 177
62 99 179
62 99 180
62 99 176
62 98 176
62 99 176
62 99 178
61 98 177
62 99 174
62 99 178
62 99 178
62 98 174
62 98 175
62 98 170
61 98 173
61 97 173
61 98 174
62 98 176
61 98 175
62 98 177
61 97 168
61 96 167
62 98 173
62 98 170
61 98 174
61 97 167
69 99 161
107 121 147
125 129 122
142 140 97
162 155 87
152 147 70
152 146 79
147 143 87
143 139 81
133 130 80
139 135 78
137 134 79
131 129 82
136 133 84
142 138 88
135 132 86
126 125 87
127 126 83
129 128 90
121 122 86
122 121 84
120 120 84
127 127 90
119 119 85
116 119 87
111 115 86
124 125 88
118 120 88
124 124 89
126 127 92
118 121 89
123 125 90
129 129 93
129 131 95
132 132 93
134 135 96
138 137 96
141 141 99
133 134 97
135 136 97
145 145 101
152 150 103
146 145 101
149 148 103
149 148 103
159 157 107
155 153 106
163 159 107
153 152 105
163 160 109
161 159 108
166 162 109
164 160 108
169 165 110
171 167 112
175 170 113
168 164 109
172 168 111
174 169 113
175 171 113
176 171 113
176 172 114
178 173 114
177 172 114
176 172 114
178 173 114
177 172 114
178 173 114
177 173 114
178 173 114
177 172 114
177 172 114
177 172 114
176 172 114
176 172 114
177 172 114
176 172 114
176 172 114
177 172 114
176 172 114
178 173 114
176 172 114
175 172 114
177 172 114
177 173 114
175 172 114
178 173 114
178 173 114
176 172 114
177 172 114
176 172 114
176 172 114
178 173 114
178 173 114
178 173 114
178 173 114
179 173 114
178 173 114
179 173 114
178 173 114
180 174 114
180 174 114
179 173 114
180 174 114
180 174 114
180 174 114
181 174 114
180 174 114
181 174 114
181 174 114
182 175 114
181 174 114
183 175 114
184 175 114
182 175 113
183 175 114
184 175 113
183 175 113
184 176 113
185 176 112
184 176 113
185 176 112
186 177 113
185 176 113
186 176 112
185 176 110
188 177 110
185 176 109
184 175 108
183 174 106
186 176 109
183 174 107
183 174 104
183 173 101
180 171 97
181 172 99
184 174 101
181 172 99
182 172 94
182 172 95
181 171 93
177 167 89
172 164 83
175 166 85
168 161 78
174 165 88
176 166 89
168 161 77
160 154 68
159 155 64
159 160 61
162 164 61
155 161 47
163 172 51
164 175 41
162 176 25
162 176 30
167 186 11
170 190 16
171 192 16
174 197 0
173 196 0
175 198 0
176 198 0
172 196 0
173 196 0
172 195 0
174 197 0
170 194 0
172 196 0
174 197 0
173 196 0
174 197 0
173 197 0
173 197 0
174 197 0
173 197 0
171 195 0
173 197 0
173 196 0
174 197 0
171 195 0
170 194 0
175 198 0
173 196 0
173 196 0
173 197 0
174 197 0
174 197 0
174 197 0
173 196 0
173 197 0
175 198 0
175 197 0
170 193 0
173 197 0
173 197 0
172 195 0
172 196 0
172 196 0
172 195 0
171 195 0
172 195 0
172 196 0
171 193 0
171 195 0
171 195 0
172 196 0
173 197 0
172 196 0
171 195 0
172 196 0
174 197 0
172 196 0
172 196 0
173 197 0
173 196 0
172 196 0
175 198 0
172 196 0
174 197 0
173 196 0
170 194 0
173 196 0
172 196 0
172 196 0
173 197 0
172 196 0
173 196 0
170 194 0
168 191 0
172 195 0
174 196 0
172 196 0
170 194 0
171 195 0
170 193 0
169 192 0
172 195 0
174 196 0
173 196 0
173 197 0
173 196 0
173 197 0
172 195 0
173 197 0
173 196 0
169 192 0
171 195 0
171 195 0
173 196 0
174 197 0
173 196 0
169 193 0
172 195 0
170 194 0
173 196 0
172 196 0
173 196 0
171 194 0
170 194 0
172 196 0
172 195 0
168 191 44
154 177 78
117 143 135
79 111 165
63 100 177
62 98 170
63 99 172
61 98 170
62 99 174
62 99 176
63 99 177
61 98 176
63 99 179
63 99 179
61 98 173
62 99 180
62 99 177
62 98 174
61 98 173
62 99 178
62 99 179
62 99 178
62 99 178
62 99 179
62 99 179
61 98 179
62 99 180
62 99 177
62 99 180
61 98 174
62 99 179
62 99 179
62 99 179
62 99 181
62 99 180
62 99 180
62 99 180
62 99 178
62 99 181
62 99 180
62 99 181
62 99 181
62 99 181
62 99 178
61 99 180
62 99 181
62 99 180
62 99 179
61 99 180
62 99 179
61 99 181
62 99 179
62 99 180
62 99 181
61 99 180
62 99 180
62 99 180
61 99 181
62 99 179
62 99 179
61 99 179
62 99 181
61 99 180
62 99 179
62 99 180
62 99 179
62 99 181
62 99 180
61 99 180
62 99 178
62 99 181
62 99 181
62 99 180
61 99 180
62 99 181
62 99 180
62 99 181
62 99 180
62 99 180
62 99 181
61 99 180
62 99 180
61 99 181
62 99 181
62 99 180
62 99 179
62 99 178
62 99 181
62 99 180
62 99 181
62 99 179
62 99 180
62 99 177
61 98 177
62 99 181
61 98 178
62 99 180
62 99 181
62 99 178
62 99 177
62 99 179
62 99 179
62 99 179
61 98 177
61 98 178
62 99 181
61 99 179
62 99 177
62 99 181
62 99 180
62 98 174
62 99 177
62 99 177
62 99 177
62 99 176
62 99 178
61 98 177
62 99 174
63 99 176
62 99 175
62 99 176
62 99 177
62 99 177
61 97 169
62 99 179
62 99 177
62 98 172
62 99 177
62 98 175
62 98 174
61 98 175
62 98 174
62 98 172
61 97 171
62 98 173
62 98 174
61 98 170
62 97 170
82 106 159
110 121 135
137 137 115
146 142 82
156 150 83
145 139 78
142 138 72
136 133 69
151 146 85
144 140 86
135 132 78
146 141 87
112 112 72
136 133 85
131 128 84
123 122 81
125 124 87
121 122 84
121 121 83
116 117 83
107 109 80
121 122 87
101 105 79
108 110 80
113 115 83
122 123 89
125 126 90
117 119 86
118 120 85
120 122 89
116 118 87
127 128 92
121 124 90
121 124 90
133 134 95
129 130 94
128 129 93
142 141 99
139 140 98
140 140 97
133 134 96
147 146 102
151 149 103
146 145 101
156 154 104
159 157 107
156 153 105
163 159 107
159 156 106
167 163 109
168 164 109
167 163 109
168 164 110
171 167 111
174 169 112
175 170 113
173 168 112
176 171 113
176 172 113
179 173 114
177 172 114
174 170 113
177 172 114
177 172 114
178 173 114
176 172 114
177 172 114
177 173 114
178 173 114
178 173 114
176 172 114
178 173 114
176 172 114
177 173 114
177 172 114
177 172 114
177 173 114
177 172 114
177 172 114
177 172 114
177 172 114
178 173 114
176 172 114
177 173 114
177 172 114
178 173 114
178 173 114
177 172 114
177 172 114
178 173 114
179 173 114
177 172 114
178 173 114
177 172 114
178 173 114
178 173 114
178 173 114
179 173 114
180 174 114
180 174 114
181 174 114
178 173 114
180 174 114
180 174 114
180 174 114
179 173 114
182 175 114
180 174 114
182 175 114
183 175 114
180 174 114
181 174 114
183 175 114
183 175 114
184 176 114
185 176 113
185 176 113
186 177 114
184 176 113
186 176 112
185 176 113
186 176 112
187 176 110
185 175 110
185 176 109
185 175 108
185 176 110
187 176 110
185 175 108
184 175 107
182 173 104
184 175 106
184 174 102
183 173 101
182 172 99
180 171 95
180 171 94
183 173 100
181 171 96
183 173 100
176 167 89
173 164 87
175 166 87
173 163 90
168 159 83
167 159 78
162 154 75
163 157 68
158 157 59
164 163 61
162 166 58
165 170 57
158 168 42
163 174 39
167 181 41
163 181 22
168 186 25
171 190 19
172 190 25
172 196 0
172 196 0
175 198 0
171 194 0
173 196 0
172 195 0
173 196 0
174 198 0
172 196 0
173 197 0
170 194 0
175 198 0
174 198 0
173 196 0
172 195 0
172 196 0
172 196 0
174 196 0
170 193 0
174 197 0
172 196 0
172 196 0
173 196 0
173 197 0
172 195 0
174 196 0
171 194 0
173 197 0
168 192 0
170 194 0
173 196 0
172 196 0
170 193 0
172 195 0
173 197 0
173 197 0
172 196 0
171 194 0
174 198 0
171 194 0
172 195 0
174 197 0
171 195 0
172 196 0
172 195 0
175 197 0
170 194 0
174 197 0
176 198 0
173 197 0
174 197 0
171 195 0
174 197 0
172 195 0
175 198 0
171 195 0
170 194 0
173 196 0
175 198 0
173 197 0
173 197 0
173 197 0
174 197 0
174 197 0
171 194 0
173 195 0
172 195 0
172 195 0
171 195 0
174 197 0
171 195 0
173 196 0
172 197 0
175 197 0
170 194 0
170 193 0
173 197 0
170 195 0
174 197 0
172 195 0
171 195 0
173 197 0
176 198 0
172 195 0
173 196 0
173 196 0
173 196 0
172 195 0
171 194 0
171 194 0
173 196 0
172 196 0
172 194 0
171 194 0
171 194 0
173 197 0
173 196 0
170 194 0
172 196 0
171 194 0
170 194 0
170 194 0
172 194 18
158 182 67
125 151 120
89 119 158
64 99 169
62 99 172
62 99 173
63 100 174
62 98 172
62 99 174
62 99 174
62 99 178
62 99 176
61 98 173
62 99 176
62 99 174
62 99 177
63 100 180
62 99 172
62 99 177
62 99 178
62 98 176
62 99 177
61 98 179
62 99 180
62 99 179
62 98 174
62 99 177
62 99 175
61 99 180
62 99 178
62 99 181
62 99 178
62 99 178
62 99 179
61 99 180
62 99 181
62 99 180
62 99 181
62 99 180
62 99 181
62 99 177
62 99 180
61 98 177
62 99 180
62 99 180
62 99 179
62 99 181
62 99 181
62 99 181
62 99 180
62 99 180
62 99 180
62 99 180
62 99 180
61 98 180
61 98 181
62 99 179
62 99 181
62 99 181
62 99 181
63 100 180
61 99 180
62 99 181
62 99 180
62 99 180
62 99 181
62 99 181
61 98 180
62 99 181
62 99 181
62 99 180
62 99 181
62 99 179
62 99 179
62 99 181
62 99 180
62 99 181
61 98 178
62 99 181
62 99 178
62 99 181
62 99 181
61 99 178
61 98 178
62 99 181
62 99 181
62 99 178
62 99 181
62 99 180
62 99 179
62 99 180
62 99 181
62 99 180
62 99 181
62 99 180
62 99 177
63 100 181
62 99 180
62 99 181
62 99 179
62 99 179
61 98 178
62 99 179
62 99 180
62 99 181
62 99 177
62 99 178
62 99 177
61 98 177
62 99 178
63 100 178
62 99 177
62 99 179
62 99 180
62 99 178
62 98 173
62 99 179
62 99 180
62 99 178
62 99 180
61 98 174
62 99 178
63 99 179
62 99 178
62 99 177
62 99 176
62 98 176
62 98 173
62 98 174
61 98 171
61 97 174
61 98 173
62 98 172
63 98 172
61 96 166
61 97 169
61 96 164
62 97 169
61 95 162
81 105 157
113 123 135
131 134 117
132 131 92
135 132 75
135 131 72
140 136 77
137 133 80
145 140 81
133 129 77
117 117 74
136 132 80
123 121 77
116 115 77
127 126 84
126 123 80
100 104 76
100 103 76
118 120 86
106 108 79
118 119 86
104 107 79
109 112 82
92 97 74
95 101 79
114 117 87
121 122 86
121 123 90
124 126 90
108 113 86
120 122 88
120 122 90
116 119 87
125 127 93
129 130 93
126 128 92
128 129 92
129 131 94
152 150 103
133 134 95
140 140 99
146 145 100
147 146 102
150 149 102
156 154 106
154 151 103
150 149 103
162 159 107
159 156 107
162 159 108
165 162 108
167 162 109
172 168 111
172 167 111
177 172 113
173 169 112
175 169 112
178 172 114
179 173 114
178 173 114
178 173 114
179 173 114
177 173 114
178 173 114
178 173 114
177 173 114
178 173 114
177 173 114
178 173 114
177 173 114
178 173 114
178 173 114
176 172 114
177 172 114
177 173 114
176 172 114
177 173 114
177 172 114
177 173 114
177 172 114
177 172 114
178 173 114
178 173 114
178 173 114
179 173 114
178 173 114
177 172 114
178 173 114
178 173 114
177 172 114
180 174 114
178 173 114
179 173 114
178 173 114
179 173 114
182 175 114
179 173 114
179 173 114
180 174 114
179 173 114
180 174 114
180 174 114
179 174 114
183 175 114
180 174 114
182 175 114
183 175 114
182 175 114
184 176 114
184 176 114
183 175 113
185 176 114
186 177 114
186 177 114
183 175 112
184 175 113
184 176 114
186 176 112
184 175 110
184 175 112
185 176 113
184 175 111
185 176 110
186 176 108
184 175 108
185 175 105
184 174 107
184 175 107
183 174 104
182 173 101
184 174 103
184 174 104
180 171 96
183 173 99
183 173 100
180 171 93
181 171 93
179 170 95
183 172 98
173 165 80
173 165 83
173 164 86
167 159 80
162 155 74
160 152 75
170 161 84
160 154 68
161 161 65
163 162 62
164 167 62
157 165 37
164 173 42
164 178 39
166 178 36
166 181 30
169 188 28
171 192 11
168 190 11
172 195 0
170 193 0
172 196 0
172 196 0
174 198 0
174 197 0
173 197 0
173 197 0
174 197 0
173 196 0
172 195 0
172 195 0
173 196 0
175 198 0
174 197 0
173 196 0
172 196 0
175 198 0
172 196 0
172 197 0
173 197 0
173 197 0
174 197 0
172 195 0
175 198 0
173 196 0
173 196 0
172 195 0
173 196 0
171 194 0
175 197 0
174 197 0
173 196 0
172 196 0
173 196 0
172 195 0
172 196 0
171 194 0
175 198 0
169 193 0
173 197 0
173 196 0
172 196 0
174 197 0
171 194 0
173 196 0
172 195 0
173 196 0
170 194 0
172 195 0
172 195 0
172 196 0
172 195 0
172 195 0
172 196 0
170 194 0
171 194 0
171 195 0
174 197 0
169 193 0
172 196 0
172 196 0
172 196 0
171 194 0
170 193 0
172 195 0
174 197 0
173 195 0
172 195 0
174 197 0
173 196 0
172 196 0
174 197 0
174 197 0
171 193 0
171 194 0
171 195 0
173 196 0
173 197 0
172 196 0
173 197 0
172 194 0
173 196 0
173 196 0
172 195 0
170 194 0
170 194 0
175 197 0
171 194 0
171 194 0
171 195 0
171 194 0
172 196 0
173 196 0
172 195 0
171 194 0
174 197 0
173 196 0
170 194 0
170 195 0
171 194 0
171 195 18
161 185 54
134 159 113
98 127 150
62 98 173
62 98 167
63 100 177
62 99 171
62 99 173
61 98 169
62 98 173
62 99 168
62 99 172
63 99 174
62 99 172
62 99 178
62 99 171
62 99 177
62 99 178
62 99 178
62 99 178
62 99 177
62 99 177
62 99 177
62 99 179
62 99 174
62 99 177
62 99 178
62 99 179
62 99 179
62 99 179
62 99 179
62 99 180
62 99 180
62 99 179
62 99 180
62 99 181
61 98 180
62 99 180
62 99 180
62 99 180
62 99 180
63 100 181
62 99 180
61 99 179
62 99 179
62 99 180
62 99 181
62 99 180
62 99 181
62 99 180
62 99 181
62 99 181
61 98 179
61 99 180
62 99 181
62 99 179
62 99 179
62 99 181
62 99 179
62 99 181
62 99 180
62 99 179
62 99 181
61 99 179
62 99 181
62 99 180
61 99 179
62 99 179
62 99 179
62 99 179
62 99 180
61 99 180
62 99 181
62 99 177
62 99 181
62 99 181
62 99 180
62 99 179
62 99 181
62 99 179
62 99 180
61 99 179
62 99 178
62 99 179
62 99 179
62 99 181
62 99 180
61 99 178
62 99 180
62 99 179
62 99 181
62 99 181
63 100 180
62 99 180
62 99 179
62 99 181
61 98 179
62 99 181
62 99 179
63 100 179
61 98 177
62 99 176
62 99 180
61 99 179
62 99 178
62 99 177
62 99 178
62 99 178
63 100 180
62 99 179
62 98 174
62 99 177
62 99 178
62 99 178
63 100 178
62 99 175
61 98 173
62 99 180
62 99 178
62 99 175
62 99 177
62 99 173
62 99 176
62 99 179
62 98 174
62 98 173
62 98 174
61 98 174
62 97 168
62 98 174
62 99 174
61 98 174
62 99 173
62 98 174
63 99 172
62 98 173
61 97 170
62 99 176
62 97 167
61 97 169
64 98 168
76 100 152
107 118 131
127 129 103
131 130 73
142 137 75
135 131 77
114 113 66
126 124 73
122 120 75
127 124 73
117 115 73
107 109 73
109 111 76
125 123 82
121 120 82
114 115 82
109 111 79
113 114 83
104 107 78
92 97 71
99 103 79
93 99 77
99 103 79
97 102 79
99 104 80
105 109 81
101 106 82
109 113 83
105 110 85
123 126 92
122 124 91
111 115 84
121 124 91
130 131 95
130 131 93
120 123 91
141 141 99
143 143 99
137 138 96
151 149 102
140 140 99
130 132 95
155 153 105
150 148 102
156 154 106
158 156 106
159 156 105
154 152 105
162 158 107
170 165 110
166 161 109
168 164 110
171 167 110
173 169 112
172 167 111
173 169 112
177 172 113
177 171 113
178 173 114
178 172 113
177 172 113
178 173 114
179 173 114
178 173 114
179 173 114
178 173 114
178 173 114
179 173 114
178 173 114
178 173 114
178 173 114
178 173 114
179 173 114
179 173 114
179 173 114
178 173 114
178 173 114
178 173 114
179 173 114
178 173 114
177 173 114
178 173 114
177 172 114
180 174 114
178 173 114
178 173 114
179 174 114
180 174 114
180 174 114
180 174 114
180 174 114
180 174 114
180 174 114
180 174 114
180 174 114
180 174 114
178 173 114
179 173 114
181 175 114
180 174 114
181 174 114
180 174 114
180 174 114
181 174 114
183 175 114
182 175 114
182 175 114
184 176 114
183 175 113
184 175 114
184 176 114
185 176 113
184 175 112
185 176 113
186 177 114
184 175 113
184 175 112
184 175 112
186 176 110
184 175 111
184 175 108
183 174 105
186 176 111
185 175 108
185 175 106
181 173 103
182 173 102
185 175 106
184 174 103
182 173 99
182 173 99
182 172 99
181 172 97
181 172 97
184 173 100
180 171 95
178 169 90
180 170 93
174 166 84
173 164 82
172 163 82
170 162 78
167 159 71
176 166 87
163 154 72
155 150 64
163 160 64
158 160 51
155 158 51
156 161 52
162 173 39
163 174 34
159 170 30
159 173 30
169 187 30
166 185 19
170 191 19
174 197 0
171 195 0
173 197 0
174 197 0
176 199 0
175 198 0
171 195 0
173 197 0
174 197 0
172 196 0
172 195 0
172 196 0
171 195 0
175 198 0
171 195 0
173 197 0
170 193 0
173 196 0
173 196 0
173 196 0
171 195 0
172 195 0
174 198 0
172 195 0
170 194 0
173 197 0
171 194 0
173 196 0
172 195 0
172 195 0
173 196 0
172 196 0
172 195 0
174 197 0
172 196 0
173 196 0
174 197 0
173 196 0
171 195 0
172 195 0
172 196 0
174 198 0
174 197 0
172 195 0
174 197 0
171 194 0
172 195 0
173 196 0
174 197 0
170 193 0
173 196 0
173 197 0
174 196 0
174 198 0
170 194 0
174 197 0
172 194 0
172 196 0
172 196 0
172 195 0
169 193 0
172 194 0
173 196 0
170 194 0
171 195 0
171 194 0
174 197 0
173 196 0
171 194 0
172 195 0
175 198 0
173 197 0
170 193 0
173 196 0
174 196 0
173 197 0
174 198 0
173 197 0
172 195 0
172 195 0
172 196 0
174 197 0
172 195 0
171 193 0
173 195 0
168 191 0
172 195 0
169 192 0
171 194 0
172 196 0
171 195 0
174 196 0
170 194 0
171 195 0
170 194 0
174 197 0
170 194 0
169 193 0
173 197 0
172 196 0
173 196 0
166 189 44
143 167 100
108 135 139
68 103 172
62 99 172
62 99 176
62 99 176
62 98 169
62 99 176
62 99 177
62 99 175
62 99 172
62 99 175
62 99 173
62 98 172
62 99 179
62 99 174
62 99 177
62 99 180
62 99 176
62 99 180
63 100 179
63 99 179
62 99 179
62 99 178
62 99 178
62 99 177
62 99 179
62 99 178
62 99 179
62 99 177
61 99 178
63 100 179
62 99 178
62 99 179
62 99 180
62 99 180
62 99 180
62 99 180
62 99 180
62 99 181
62 99 181
62 99 180
62 99 181
61 98 180
62 99 180
61 98 180
62 99 179
62 99 178
63 100 180
62 99 179
62 99 179
62 99 180
61 99 180
62 99 181
62 99 180
62 99 180
62 99 179
62 99 180
62 99 181
62 99 181
62 99 180
61 99 181
62 99 180
61 99 180
61 98 179
63 100 181
62 99 179
63 99 180
62 99 180
62 99 180
62 99 180
62 99 180
61 99 178
62 99 179
62 99 180
61 99 180
62 99 180
62 99 179
62 99 181
62 99 180
62 99 180
61 98 178
62 99 180
62 99 181
62 99 179
61 98 174
62 99 180
61 99 178
62 99 180
62 99 181
62 99 179
62 99 181
62 99 180
61 99 179
61 98 177
61 99 179
62 99 180
62 99 175
62 99 179
61 98 176
62 99 179
62 99 177
61 98 178
62 99 177
62 99 179
62 99 172
62 99 180
62 99 178
62 99 178
62 99 177
62 99 178
62 99 178
62 99 178
62 99 178
62 98 176
62 99 179
62 99 178
61 98 175
62 99 179
62 99 178
62 99 180
62 99 178
63 99 176
61 98 176
62 98 176
61 98 174
62 99 177
63 99 174
62 99 177
62 98 177
62 99 173
63 98 173
62 98 174
62 98 172
61 98 172
63 99 177
62 97 172
61 97 168
61 97 168
60 96 164
60 95 166
70 100 162
81 103 148
108 117 129
111 116 104
136 133 81
134 131 69
132 129 78
124 122 74
121 120 75
124 121 75
129 126 80
93 96 70
123 122 80
106 107 76
114 113 77
109 110 78
102 105 77
94 99 76
97 100 74
92 98 76
100 103 77
102 106 80
90 96 74
111 114 84
101 106 82
86 95 77
106 110 81
104 109 83
105 109 82
123 125 91
117 120 87
120 123 89
130 131 93
123 125 91
128 130 93
123 125 92
132 132 94
135 135 95
137 137 96
141 140 97
140 140 96
139 139 97
152 150 103
144 143 98
152 150 103
162 158 106
161 158 107
159 157 106
162 159 108
163 159 106
166 161 108
169 165 110
172 167 110
172 167 111
175 170 111
176 170 112
177 171 113
177 171 113
180 173 114
179 174 114
179 173 114
179 173 114
178 173 114
179 174 114
178 173 114
180 174 114
178 173 114
179 173 114
179 173 114
179 173 114
180 174 114
178 173 114
178 173 114
179 173 114
177 173 114
178 173 114
178 173 114
178 173 114
178 173 114
178 173 114
180 174 114
179 174 114
179 173 114
178 173 114
179 174 114
180 174 114
180 174 114
180 174 114
180 174 114
178 173 114
181 174 114
178 173 114
181 174 114
179 174 114
181 174 114
181 174 114
179 173 114
182 175 114
180 174 114
182 175 114
181 174 114
182 175 114
183 175 114
182 175 114
183 175 114
183 175 114
185 176 114
184 176 114
183 175 114
183 175 112
184 176 113
184 175 113
186 176 113
184 176 113
187 177 113
184 175 112
184 175 110
185 176 112
185 176 110
184 175 108
185 175 108
185 175 110
185 175 107
184 175 108
181 173 105
185 175 106
182 173 102
182 173 102
184 174 103
183 173 100
182 172 99
181 172 96
182 172 96
181 171 94
180 171 93
183 173 98
180 170 93
178 168 90
178 169 92
175 166 86
171 163 81
166 157 76
172 163 80
167 159 75
168 160 77
158 152 62
158 153 64
158 159 54
157 157 57
163 167 49
162 169 49
165 176 42
164 178 36
163 180 25
167 184 22
169 188 11
170 191 16
173 196 0
174 196 0
172 196 0
173 196 0
172 196 0
173 196 0
172 195 0
174 197 0
176 199 0
173 196 0
174 197 0
171 195 0
172 196 0
175 197 0
174 196 0
175 198 0
173 196 0
173 196 0
172 195 0
174 197 0
175 198 0
171 195 0
174 198 0
169 193 0
171 195 0
174 197 0
170 193 0
173 197 0
175 198 0
172 196 0
174 198 0
171 195 0
172 195 0
173 197 0
175 198 0
172 195 0
174 197 0
172 195 0
174 197 0
174 196 0
172 196 0
173 196 0
173 196 0
173 196 0
171 194 0
174 197 0
171 195 0
169 193 0
172 196 0
173 196 0
174 196 0
170 194 0
172 196 0
174 197 0
173 196 0
173 196 0
172 196 0
169 192 0
171 194 0
171 195 0
173 196 0
169 192 0
172 196 0
170 193 0
172 196 0
171 194 0
169 192 0
175 198 0
169 192 0
174 197 0
173 196 0
171 194 0
171 195 0
173 197 0
170 193 0
170 194 0
170 194 0
171 194 0
171 195 0
171 195 0
173 196 0
170 193 0
171 194 0
173 196 0
171 195 0
173 196 0
171 194 0
173 197 0
173 196 0
172 196 0
171 194 0
173 196 0
171 195 0
172 195 0
169 192 0
171 194 0
171 194 0
175 198 0
174 197 0
171 195 0
170 194 25
158 182 80
129 154 125
76 109 162
62 99 177
62 99 172
62 99 173
62 99 171
61 98 172
62 99 177
62 99 174
62 99 174
62 99 177
62 99 174
62 99 178
62 99 175
62 99 178
62 99 174
62 99 177
62 99 177
62 99 176
62 99 176
63 100 180
62 99 175
62 99 178
62 99 179
62 99 179
61 98 177
62 99 179
62 99 176
62 99 177
62 99 181
61 98 176
62 99 180
63 100 178
62 99 178
61 99 180
62 99 178
62 99 180
62 99 178
62 99 180
62 99 179
62 99 178
62 99 180
63 100 181
62 99 180
62 99 181
62 99 180
61 99 180
62 99 181
62 99 180
62 99 178
61 99 179
62 99 181
62 99 180
62 99 179
62 99 181
62 99 179
62 99 181
62 99 180
62 99 180
62 99 178
61 99 181
62 99 180
62 99 180
62 99 180
62 99 181
61 99 179
62 99 180
62 99 178
62 99 178
62 99 181
62 99 179
61 99 181
62 99 178
62 99 180
61 98 180
62 99 180
62 99 180
62 99 181
62 99 179
62 99 180
62 99 179
62 99 179
62 99 179
62 99 180
62 99 179
63 100 179
61 99 180
62 99 178
62 99 180
62 99 180
63 100 181
62 99 179
61 99 179
62 99 181
61 98 176
61 98 178
62 99 179
62 99 178
62 99 179
61 99 180
62 99 177
63 100 181
62 99 179
62 99 179
62 99 179
61 99 178
62 99 178
62 99 177
62 99 175
62 99 179
62 99 178
63 99 178
61 98 176
62 99 179
61 99 178
62 99 174
62 99 177
62 98 175
62 98 175
62 99 178
62 98 174
62 99 177
63 99 176
62 99 177
62 98 170
62 99 173
61 98 176
61 97 166
63 99 178
62 99 174
62 99 176
62 99 176
62 98 173
61 97 167
62 99 175
62 98 175
63 99 174
62 98 174
62 97 172
61 97 167
62 97 166
61 96 166
71 100 160
98 111 139
112 119 119
120 121 92
124 124 81
124 122 73
125 122 75
116 115 67
125 122 77
103 104 68
102 103 71
109 109 73
104 107 79
91 95 71
93 97 70
102 105 77
92 95 69
103 106 76
99 103 79
95 100 76
99 103 76
97 102 79
98 103 78
86 92 72
83 90 72
97 102 79
99 105 81
104 108 82
106 111 84
102 107 82
108 112 84
116 120 89
115 118 89
125 127 92
121 123 89
129 130 93
134 135 96
130 131 94
140 140 98
148 146 101
152 150 103
149 147 101
140 140 100
143 143 101
138 137 95
162 158 107
159 156 107
158 155 105
166 161 108
167 162 109
163 159 108
166 161 108
169 164 110
173 167 111
173 168 111
173 167 111
176 170 112
177 172 113
177 172 113
180 174 114
181 174 114
180 174 114
180 174 114
179 174 114
180 174 114
179 173 114
180 174 114
180 174 114
180 174 114
180 174 114
180 174 114
179 173 114
179 173 114
179 174 114
180 174 114
178 173 114
179 174 114
180 174 114
179 173 114
181 174 114
179 173 114
180 174 114
179 173 114
181 174 114
181 174 114
179 173 114
179 173 114
180 174 114
180 174 114
181 174 114
181 174 114
181 174 114
180 174 114
180 174 114
180 174 114
180 174 114
181 174 114
183 175 114
182 175 114
180 174 114
182 175 114
182 175 114
183 175 114
185 176 114
184 175 113
185 176 114
184 176 113
185 176 114
185 176 114
184 176 114
184 175 112
186 176 113
186 177 113
186 176 113
184 175 110
184 175 110
187 176 110
184 175 111
186 176 110
182 174 105
185 175 106
185 175 108
185 175 106
182 173 103
185 174 103
183 174 104
182 173 102
183 173 99
185 174 101
182 172 98
181 172 95
182 172 97
178 169 91
180 170 92
179 170 95
180 170 93
179 170 92
175 166 84
175 166 84
177 168 87
172 163 81
166 158 80
169 161 78
161 154 73
161 155 71
163 157 72
158 160 54
161 164 60
157 162 52
163 171 45
162 175 37
162 175 36
165 179 32
166 184 25
168 188 16
170 190 16
172 196 0
170 194 0
173 197 0
173 196 0
172 195 0
175 198 0
172 196 0
172 196 0
173 196 0
173 197 0
172 195 0
172 197 0
173 197 0
171 195 0
174 197 0
172 196 0
173 196 0
171 194 0
173 197 0
172 196 0
172 195 0
173 197 0
173 196 0
170 194 0
173 196 0
174 197 0
172 197 0
174 197 0
171 195 0
171 195 0
174 197 0
174 198 0
172 195 0
173 196 0
173 196 0
173 196 0
174 196 0
171 194 0
174 198 0
171 194 0
172 195 0
171 194 0
172 195 0
173 197 0
173 197 0
172 195 0
173 196 0
171 195 0
173 196 0
173 196 0
170 195 0
175 198 0
172 195 0
173 196 0
171 195 0
173 196 0
172 196 0
171 194 0
170 194 0
172 195 0
171 195 0
172 195 0
174 197 0
171 194 0
173 196 0
174 196 0
172 195 0
170 193 0
172 195 0
174 197 0
171 195 0
172 195 0
171 195 0
171 195 0
173 196 0
172 195 0
174 197 0
169 192 0
174 197 0
174 197 0
171 195 0
173 197 0
173 196 0
172 196 0
170 194 0
173 197 0
171 194 0
173 196 0
171 194 0
172 195 0
173 196 0
171 194 0
173 196 0
173 195 0
171 195 0
173 196 0
172 195 0
173 196 0
170 193 0
172 195 18
162 185 60
136 161 117
91 120 149
62 99 168
62 98 166
62 98 169
62 99 173
63 99 175
63 99 173
62 99 176
61 98 172
61 97 167
62 99 178
62 99 174
61 99 177
62 99 181
62 98 172
62 98 174
62 99 176
62 99 175
62 99 177
62 99 179
61 98 173
62 99 180
62 99 177
62 99 179
63 100 178
62 99 178
62 99 181
61 99 181
62 99 179
62 99 177
62 99 181
62 99 180
62 99 176
61 99 178
62 99 176
62 99 178
62 99 179
62 99 180
62 99 179
62 99 180
62 99 179
62 99 181
62 99 178
63 100 181
62 99 179
62 99 180
62 99 180
62 99 180
61 99 181
62 99 180
62 99 181
62 99 181
62 99 181
62 99 180
62 99 181
62 99 180
62 99 180
62 99 181
62 99 180
63 100 180
62 99 180
62 99 181
62 99 181
61 99 179
62 99 181
62 99 180
61 99 180
61 99 180
62 99 180
63 100 180
61 98 177
62 99 180
61 99 179
62 99 179
62 99 177
62 99 180
62 99 179
62 99 179
62 99 181
62 99 181
62 99 181
62 99 179
62 99 180
62 99 180
62 99 181
61 99 180
62 99 180
62 99 179
62 99 181
62 99 175
62 99 177
62 99 179
61 99 181
62 99 180
62 99 177
62 99 179
62 99 179
62 99 177
61 99 179
62 99 181
62 99 179
62 99 179
61 98 175
62 99 177
62 99 180
61 98 176
62 99 177
61 99 178
62 99 178
62 99 179
61 99 178
62 99 171
62 99 178
62 99 179
62 99 177
61 98 177
62 99 175
63 99 177
62 99 177
63 99 178
61 98 176
62 99 177
61 98 169
61 98 178
62 98 176
62 98 173
62 98 174
62 99 177
62 99 175
62 98 172
61 97 167
61 97 168
62 98 173
62 99 176
61 98 174
62 99 177
62 98 171
62 97 169
62 98 170
61 97 167
62 98 170
60 95 163
61 96 164
74 98 148
86 104 138
108 114 109
120 120 87
119 118 73
124 122 73
112 112 69
107 107 67
102 103 69
105 106 71
96 98 71
109 110 78
106 107 74
95 98 71
95 99 76
86 92 71
90 95 73
89 95 72
105 107 80
82 88 70
92 98 78
91 96 73
97 103 81
86 94 76
95 102 80
88 96 74
95 102 79
97 104 82
103 108 80
120 122 88
106 110 83
117 119 86
124 127 93
123 126 91
130 132 95
133 134 95
137 137 97
126 127 91
140 139 97
147 145 100
141 141 99
161 157 106
150 148 102
157 154 104
158 155 105
157 153 103
160 157 106
169 165 110
166 162 108
162 157 105
169 163 109
173 167 110
172 167 111
175 169 112
177 171 113
173 168 111
179 173 113
175 170 112
177 171 113
178 172 113
180 174 114
181 174 114
181 174 114
180 174 114
181 174 114
181 174 114
181 174 114
179 173 114
179 173 114
180 174 114
179 173 114
181 174 114
181 174 114
179 174 114
181 174 114
180 174 114
180 174 114
179 173 114
179 173 114
181 174 114
180 174 114
179 173 114
179 173 114
181 174 114
182 175 114
179 173 114
182 175 114
180 174 114
183 175 114
182 175 114
183 175 114
182 175 114
181 174 114
181 174 114
181 175 114
182 175 114
183 175 114
182 175 114
182 175 114
184 176 113
184 176 113
184 176 114
184 176 114
184 176 114
182 175 113
185 176 114
183 175 111
186 177 113
185 176 113
184 175 112
185 176 112
183 174 109
183 175 111
185 176 112
184 175 108
185 176 112
185 176 110
185 176 109
184 175 106
184 175 106
184 174 106
186 176 108
184 175 108
182 173 103
185 175 106
183 173 101
184 174 101
182 173 101
182 173 98
183 173 99
178 170 91
182 172 95
179 169 91
179 169 91
179 170 92
179 169 93
176 168 87
176 167 85
172 163 85
170 162 75
174 164 85
172 163 82
164 156 76
161 154 73
164 159 63
161 159 60
162 164 53
164 171 47
157 166 41
165 177 45
166 178 39
165 179 22
165 184 19
166 185 22
170 190 16
174 197 0
172 196 0
171 195 0
171 194 0
172 195 0
169 193 0
173 197 0
173 196 0
174 198 0
173 197 0
173 196 0
171 195 0
174 196 0
172 196 0
173 196 0
174 198 0
173 196 0
173 196 0
172 195 0
169 193 0
169 194 0
173 196 0
172 195 0
174 197 0
174 197 0
174 197 0
171 195 0
174 197 0
173 196 0
173 197 0
171 196 0
174 197 0
171 195 0
170 194 0
171 195 0
172 195 0
171 194 0
171 195 0
172 196 0
174 197 0
172 195 0
172 196 0
171 195 0
174 196 0
172 196 0
173 196 0
174 197 0
173 196 0
174 197 0
174 197 0
174 197 0
170 194 0
173 196 0
172 195 0
173 197 0
171 195 0
170 193 0
172 196 0
176 198 0
173 197 0
173 197 0
169 193 0
172 195 0
173 195 0
173 196 0
173 196 0
173 196 0
172 196 0
174 196 0
172 194 0
171 194 0
168 192 0
169 192 0
172 194 0
172 196 0
169 193 0
170 193 0
171 195 0
172 195 0
170 194 0
172 195 0
172 196 0
174 197 0
172 196 0
173 196 0
172 195 0
170 194 0
172 195 0
172 196 0
172 195 0
171 194 0
168 191 0
172 194 0
171 194 0
173 196 0
170 193 0
172 195 0
171 195 0
170 193 18
164 188 57
136 161 105
103 131 148
64 100 172
62 99 170
62 99 173
63 99 169
63 100 176
62 99 172
62 98 170
62 99 179
62 98 172
62 99 174
63 99 176
62 99 177
62 99 175
62 99 175
62 99 177
63 100 179
62 98 173
62 99 177
61 98 174
63 99 179
62 99 178
62 99 178
62 99 178
62 99 179
62 99 175
62 99 180
62 99 178
62 99 180
62 99 179
62 99 178
62 99 178
62 99 179
62 99 178
62 99 175
63 99 178
62 99 180
63 99 180
62 99 178
62 99 181
61 99 180
63 100 181
62 99 181
62 99 180
63 100 180
62 99 180
61 98 181
62 99 179
61 98 181
62 99 181
62 99 180
62 99 179
61 99 180
62 99 179
62 99 178
62 99 180
62 99 181
62 99 179
62 99 178
62 99 180
62 99 181
62 99 181
61 99 179
62 99 180
62 99 181
62 99 181
62 99 181
62 99 180
61 98 179
62 99 181
62 99 178
62 99 180
61 99 181
62 99 177
61 99 181
61 99 179
63 100 179
62 99 180
63 100 181
62 99 179
61 99 178
62 99 176
62 99 181
61 99 178
62 99 178
62 99 181
62 99 178
62 99 180
61 99 179
62 99 181
61 98 178
62 99 179
62 99 179
62 99 179
61 99 177
63 99 178
62 99 180
61 98 178
63 99 177
62 99 179
62 99 178
62 99 178
62 99 179
62 98 175
62 99 177
63 100 179
61 98 174
61 98 174
62 99 180
62 99 177
62 99 178
62 99 177
62 99 175
62 98 174
62 99 176
62 99 177
62 99 176
62 98 176
62 99 179
62 99 174
62 99 176
62 98 174
62 99 179
62 98 175
62 99 173
62 99 173
63 100 178
62 99 175
62 98 173
62 99 175
62 99 175
62 98 179
62 98 175
61 98 171
62 99 171
63 99 172
61 97 169
62 98 169
62 98 170
62 98 172
62 98 171
62 98 173
61 96 165
61 96 162
61 96 164
71 98 150
82 98 120
115 120 111
117 116 82
121 119 74
112 111 70
109 109 66
101 102 69
85 90 64
90 94 66
90 93 64
85 90 70
81 88 68
84 90 70
79 86 68
75 83 68
92 96 73
80 87 67
82 88 67
95 100 75
72 81 67
89 97 76
81 89 72
79 88 72
90 97 76
95 101 77
99 104 79
103 109 83
105 109 83
110 114 84
118 120 87
109 113 87
122 125 91
118 121 87
119 121 90
126 128 94
129 130 92
141 140 97
133 134 96
143 142 99
138 137 95
150 147 100
144 143 100
159 155 105
160 156 106
160 156 105
158 155 105
165 160 107
167 162 108
167 163 109
174 168 110
176 169 111
174 168 111
176 170 112
177 171 112
180 172 113
179 173 114
181 174 114
178 172 113
180 173 114
182 175 114
180 174 114
183 175 114
181 174 114
180 174 114
181 174 114
180 174 114
181 174 114
180 174 114
181 174 114
180 174 114
181 174 114
182 175 114
180 174 114
180 174 114
179 173 114
180 174 114
180 174 114
180 174 114
182 175 114
181 174 114
181 175 114
182 175 114
181 175 114
181 174 114
181 174 114
182 175 114
183 175 114
184 176 114
184 176 114
181 174 114
182 175 114
182 175 114
184 176 114
183 175 114
184 176 114
183 175 114
184 176 114
184 176 113
185 176 113
184 176 113
184 176 114
185 176 114
184 176 113
185 176 114
186 176 113
185 176 112
185 176 113
185 176 112
185 176 110
186 177 112
182 174 107
185 176 111
186 176 110
185 175 108
186 176 110
185 175 106
184 174 106
186 176 108
181 172 101
183 174 106
184 174 101
185 175 105
182 173 101
182 173 99
182 173 100
182 172 97
182 173 99
181 171 93
180 171 93
179 170 91
179 170 92
179 170 89
180 171 92
182 171 95
174 165 85
173 164 83
169 161 78
173 164 79
170 161 82
171 161 81
164 156 71
158 152 68
152 148 61
155 154 57
159 163 56
164 170 49
157 166 41
156 169 32
161 173 36
169 187 25
165 185 16
171 190 16
171 193 11
174 197 0
172 195 0
170 194 0
173 196 0
173 197 0
172 196 0
172 195 0
174 197 0
170 194 0
172 196 0
174 198 0
173 197 0
174 197 0
174 198 0
175 198 0
173 196 0
172 195 0
174 197 0
174 197 0
171 194 0
172 194 0
173 196 0
173 196 0
172 195 0
171 194 0
175 198 0
171 195 0
172 196 0
172 196 0
172 195 0
174 198 0
170 194 0
173 197 0
173 197 0
173 196 0
173 197 0
175 197 0
171 194 0
170 194 0
169 194 0
172 195 0
172 196 0
174 197 0
172 195 0
173 195 0
173 197 0
174 197 0
171 195 0
176 198 0
174 197 0
173 196 0
172 196 0
171 195 0
173 197 0
172 195 0
171 195 0
174 197 0
172 195 0
174 197 0
168 191 0
172 195 0
169 192 0
170 194 0
173 196 0
174 196 0
171 195 0
173 197 0
171 194 0
173 196 0
171 195 0
172 195 0
172 195 0
171 195 0
170 194 0
171 196 0
169 192 0
170 194 0
171 194 0
174 197 0
169 193 0
174 197 0
175 198 0
171 194 0
171 195 0
170 194 0
174 198 0
172 195 0
170 194 0
171 195 0
169 192 0
171 194 0
170 193 0
172 195 0
173 196 0
173 196 0
175 198 0
170 194 0
172 195 0
165 189 25
146 169 94
115 141 130
68 103 171
63 99 175
62 98 171
62 99 174
62 98 170
62 99 174
62 99 173
61 98 173
61 98 173
62 99 174
62 99 171
62 99 177
62 99 175
62 99 173
62 99 174
62 99 172
63 100 179
63 99 177
62 99 177
63 99 176
62 99 178
62 99 176
62 99 179
62 99 174
63 100 180
63 99 178
62 99 179
62 99 180
62 99 178
62 99 178
62 99 178
61 98 176
62 99 174
62 99 180
62 99 178
62 99 181
63 100 180
63 99 177
61 99 180
62 99 179
62 99 181
62 99 180
62 99 179
62 99 178
62 99 180
62 99 180
61 99 179
62 99 179
63 99 179
61 98 178
62 99 181
62 99 180
62 99 180
62 99 181
61 99 181
62 99 181
61 98 178
62 99 176
62 99 180
62 99 178
62 99 180
63 99 180
62 99 179
62 99 180
62 99 178
62 99 181
62 99 181
62 99 180
61 98 177
62 99 178
62 99 180
62 99 178
62 99 179
62 99 178
62 99 177
62 99 179
62 99 179
63 100 179
62 99 180
61 99 179
62 99 178
62 99 178
62 99 179
62 99 178
61 98 178
62 99 179
62 99 180
62 99 179
62 99 180
62 99 179
63 99 179
62 100 181
62 99 180
62 99 176
62 99 178
62 99 178
62 99 180
62 99 177
61 99 178
62 99 176
62 99 180
62 99 180
61 98 176
61 98 177
61 98 177
62 99 176
61 99 179
62 99 178
62 99 177
61 98 176
62 99 179
62 99 177
62 99 179
62 99 178
62 99 179
61 98 175
63 99 174
62 99 174
63 99 174
62 99 178
62 99 178
63 100 176
62 99 175
62 99 176
62 99 175
61 98 172
61 98 177
62 99 174
62 98 173
62 98 171
61 98 171
62 99 176
62 98 173
62 98 169
62 97 170
62 98 173
62 98 172
62 99 174
62 98 170
61 97 171
62 98 172
61 97 166
61 96 165
61 96 163
60 95 162
68 98 160
68 96 149
92 105 123
96 103 98
100 101 69
105 106 70
96 98 67
91 92 63
87 91 63
79 84 64
97 100 69
88 92 70
69 79 65
77 84 66
86 91 70
76 83 65
78 85 67
67 77 66
84 90 70
85 91 71
79 87 70
86 93 73
75 86 72
78 87 73
91 98 76
87 95 75
88 95 75
96 102 79
94 100 76
98 104 80
104 109 82
125 126 90
127 128 91
115 118 84
130 130 92
124 125 89
123 124 90
134 134 93
139 139 97
139 139 98
135 135 96
141 140 97
159 155 105
147 145 100
154 151 103
161 157 106
161 157 105
160 156 105
168 163 108
167 162 108
166 161 107
167 162 108
173 167 110
180 172 112
177 171 113
177 171 112
174 169 112
177 171 112
181 174 114
181 174 114
182 175 114
183 175 114
182 175 114
182 175 114
182 175 114
183 175 114
181 174 114
181 174 114
180 174 114
181 174 114
182 175 114
182 175 114
182 175 114
181 175 114
181 174 114
181 174 114
181 174 114
182 175 114
182 175 114
182 175 114
184 176 114
181 174 114
182 175 114
182 175 114
183 175 114
183 175 114
183 175 114
183 175 114
184 176 113
183 175 114
183 175 114
182 175 114
183 175 114
183 175 113
184 176 114
184 176 114
184 176 113
185 176 114
184 175 113
185 176 113
186 176 114
183 175 113
185 176 113
184 175 110
184 176 114
185 176 113
184 175 110
186 177 113
185 176 112
185 176 113
183 175 109
185 176 111
184 174 108
184 175 108
183 174 106
184 175 108
182 174 106
184 174 104
185 175 106
185 175 107
183 174 103
183 173 102
183 173 101
180 171 95
184 174 103
183 173 101
185 175 103
182 172 94
179 170 91
178 169 91
177 168 84
177 169 87
179 170 90
180 170 91
179 169 90
174 166 82
176 167 86
169 161 75
172 163 80
168 160 75
166 158 72
159 151 69
163 157 65
162 158 62
160 160 60
161 161 61
165 168 58
161 168 51
164 173 45
166 180 34
167 183 28
161 178 19
169 189 19
172 192 0
173 197 0
173 197 0
173 197 0
172 195 0
174 196 0
174 197 0
174 197 0
172 195 0
175 198 0
171 195 0
173 197 0
174 198 0
171 194 0
176 198 0
170 193 0
174 197 0
173 196 0
174 197 0
173 196 0
171 195 0
171 194 0
172 196 0
172 196 0
173 195 0
171 194 0
173 197 0
174 196 0
171 194 0
174 197 0
173 197 0
173 196 0
175 198 0
171 194 0
172 196 0
172 196 0
172 196 0
173 196 0
173 196 0
174 198 0
175 198 0
171 194 0
174 198 0
173 196 0
175 198 0
169 193 0
171 194 0
173 196 0
172 196 0
171 195 0
171 195 0
174 197 0
172 196 0
171 194 0
171 195 0
173 197 0
170 193 0
174 197 0
171 194 0
173 195 0
172 195 0
174 196 0
172 196 0
171 194 0
171 193 0
171 194 0
172 196 0
176 198 0
172 195 0
172 195 0
172 196 0
173 196 0
170 193 0
171 194 0
172 196 0
172 195 0
170 194 0
172 196 0
172 195 0
173 196 0
170 193 0
172 196 0
171 195 0
174 197 0
173 196 0
169 193 0
168 191 0
173 197 0
170 194 0
169 192 0
172 195 0
169 193 0
171 196 0
171 194 0
173 196 0
172 196 0
171 194 0
172 195 0
167 190 31
159 183 65
133 157 115
79 110 157
62 99 169
63 99 173
63 99 174
63 99 175
62 99 175
62 99 176
61 98 166
63 99 174
63 100 176
62 99 173
62 99 171
62 99 178
62 99 174
62 99 176
62 99 175
62 99 174
62 99 174
62 99 176
63 99 178
62 99 178
62 99 179
62 99 178
63 100 180
62 99 178
63 99 177
62 99 174
62 99 177
62 99 175
63 100 180
62 99 181
62 99 179
62 99 180
62 99 180
62 99 176
61 98 177
62 99 177
62 99 180
62 99 178
62 99 179
62 99 180
62 99 180
62 99 178
62 99 179
62 99 178
62 99 179
62 99 178
62 99 179
63 100 181
62 99 180
62 99 180
61 99 179
61 99 181
62 99 178
62 99 180
62 99 181
61 99 179
62 99 178
62 99 179
62 99 180
62 99 179
63 100 181
62 99 178
62 99 180
62 99 180
61 98 179
61 98 176
62 99 181
62 99 178
62 99 179
62 99 180
62 99 181
62 99 180
62 99 179
62 99 181
62 99 176
63 100 179
62 99 179
62 99 181
62 99 179
62 99 180
62 99 179
62 99 178
62 99 179
61 99 179
62 99 181
61 98 175
62 99 179
62 99 177
61 98 174
62 99 179
62 99 181
62 99 178
62 99 179
61 99 180
62 99 174
62 99 179
62 98 174
62 99 181
62 99 179
62 99 175
62 99 177
61 99 178
62 99 180
62 99 178
62 99 177
62 99 177
62 99 176
62 99 175
62 99 178
62 99 179
62 98 175
62 99 177
63 99 178
62 99 176
62 99 175
62 99 175
62 99 175
62 99 177
62 99 173
61 99 176
62 99 177
63 100 177
61 98 175
62 99 179
62 98 174
62 99 174
62 99 174
62 98 173
61 98 174
62 98 172
62 98 173
62 98 174
62 99 175
62 99 175
62 98 174
62 98 172
61 97 170
61 97 171
61 98 171
61 97 169
61 98 170
62 97 164
62 98 173
61 97 167
60 94 156
61 96 164
65 97 158
78 98 139
99 108 109
87 95 89
90 94 60
98 100 66
99 99 65
90 92 61
92 93 65
67 75 58
76 81 59
78 84 66
80 87 69
71 79 65
81 87 68
64 75 64
76 83 66
65 77 67
84 91 71
74 83 67
68 79 68
74 83 69
72 83 71
80 88 70
80 88 71
86 94 74
94 100 76
86 94 76
96 102 79
100 105 81
113 116 83
116 119 88
115 118 85
116 118 85
124 126 90
138 138 97
135 135 96
137 136 94
138 138 97
140 139 97
137 136 95
150 148 101
148 146 99
154 150 102
154 150 100
161 158 106
163 158 105
159 155 104
166 161 108
165 159 106
174 168 111
173 167 110
175 168 111
174 168 111
179 171 112
177 171 112
180 173 113
182 175 114
181 174 113
181 174 113
181 174 114
183 175 114
182 175 114
184 175 114
182 175 114
184 176 114
181 174 114
183 175 114
182 175 114
181 175 114
182 175 114
182 175 114
181 174 114
183 175 114
184 176 114
183 175 114
183 175 114
182 175 114
183 175 114
182 175 114
182 175 114
181 174 114
183 175 114
183 175 114
183 175 114
183 175 114
182 175 114
182 174 113
182 175 114
184 175 113
184 176 114
184 176 114
184 176 114
182 175 113
185 176 113
184 176 114
185 176 113
185 176 114
185 176 113
185 176 111
185 176 113
186 176 112
184 176 113
186 177 113
185 176 112
184 175 109
184 176 112
185 176 112
185 176 111
184 175 108
184 175 108
185 175 108
185 175 108
183 174 105
185 175 106
183 173 103
183 174 103
184 174 102
182 173 101
180 171 98
182 173 101
183 174 103
181 172 97
180 171 95
183 173 100
183 173 99
180 171 95
182 172 97
182 172 95
182 172 96
180 171 93
181 171 93
182 172 94
177 168 83
170 161 78
167 160 72
176 167 86
172 164 77
164 157 70
175 165 84
162 155 68
159 154 64
155 154 57
161 160 54
160 164 48
162 163 57
164 172 48
160 170 37
162 175 25
165 181 22
169 187 22
168 188 0
170 191 0
173 197 0
174 198 0
171 195 0
173 196 0
171 195 0
172 195 0
171 195 0
173 196 0
172 196 0
174 197 0
171 195 0
174 196 0
172 196 0
173 197 0
173 196 0
174 197 0
172 196 0
171 194 0
173 196 0
172 196 0
173 196 0
174 197 0
173 197 0
173 197 0
172 196 0
171 195 0
172 196 0
173 196 0
174 198 0
173 196 0
170 193 0
171 195 0
173 197 0
169 192 0
172 196 0
172 196 0
173 196 0
171 195 0
174 197 0
173 196 0
173 196 0
173 196 0
173 196 0
172 196 0
172 195 0
173 196 0
173 196 0
172 195 0
174 197 0
173 197 0
173 196 0
173 196 0
172 196 0
173 196 0
171 194 0
169 193 0
171 195 0
172 195 0
171 195 0
171 194 0
171 194 0
173 195 0
171 195 0
171 194 0
168 191 0
172 196 0
174 196 0
171 195 0
173 197 0
173 196 0
170 194 0
170 194 0
173 196 0
172 196 0
172 195 0
170 193 0
173 196 0
171 195 0
172 195 0
174 197 0
171 194 0
175 198 0
170 193 0
170 194 0
171 194 0
172 196 0
170 192 0
173 197 0
170 194 0
172 196 0
173 196 0
174 197 0
170 194 0
171 195 0
170 193 0
169 193 0
172 194 0
157 180 70
135 160 107
106 133 133
63 99 167
62 98 166
63 99 175
62 99 174
62 99 174
63 99 176
62 98 174
62 99 172
62 99 174
63 99 175
63 99 175
62 99 174
62 99 174
61 98 171
62 99 175
62 99 173
62 99 175
62 99 177
62 99 176
62 99 179
61 98 172
62 99 178
63 99 177
62 99 180
62 99 179
63 100 180
62 99 179
62 99 178
62 99 177
63 100 180
62 99 180
62 99 178
62 99 178
62 99 177
63 99 178
62 99 175
62 99 181
62 99 181
62 99 175
62 99 177
62 99 181
62 99 178
62 99 179
62 99 180
62 99 180
62 100 181
62 99 179
62 99 178
62 99 181
61 98 179
62 99 180
62 99 181
62 99 180
62 99 179
63 99 178
62 99 180
62 99 180
62 99 181
61 99 179
62 99 179
62 99 180
62 99 180
62 99 177
62 99 180
62 99 179
62 99 180
62 99 179
62 99 178
61 99 178
62 99 181
62 99 179
62 99 179
63 100 179
62 99 178
61 98 176
62 99 177
62 99 180
62 99 180
62 99 176
63 100 180
62 99 180
62 99 178
62 99 179
62 99 180
62 99 177
61 99 180
62 99 180
62 99 179
61 98 179
62 99 178
62 99 181
62 99 177
62 99 178
61 98 177
62 99 178
62 99 180
62 99 181
62 99 177
62 99 178
62 99 179
62 99 179
62 99 175
62 99 174
62 99 179
61 98 174
62 99 176
62 99 178
62 99 177
62 99 178
62 99 178
62 99 180
62 99 174
62 99 178
63 99 179
62 99 178
63 100 177
61 98 174
61 98 174
61 98 174
62 99 177
62 98 171
62 99 175
62 99 175
62 99 180
62 99 176
62 99 175
61 98 172
62 99 174
62 98 171
62 98 174
62 99 174
62 99 173
62 99 178
62 99 176
62 99 175
63 99 168
63 99 176
62 98 171
61 98 171
62 98 172
62 98 168
62 97 164
61 97 165
62 97 169
61 96 164
61 96 164
61 97 168
62 95 159
60 92 148
84 100 130
84 93 98
87 91 71
93 94 63
81 86 63
71 77 57
87 89 61
78 83 62
80 86 68
80 85 66
75 83 63
61 72 60
69 77 60
76 83 65
57 70 61
62 72 59
60 73 66
80 88 69
66 78 67
69 80 68
66 79 69
85 92 73
79 88 72
80 90 74
76 86 72
95 102 80
80 89 73
98 105 81
97 103 80
113 117 88
112 115 85
101 106 79
126 128 91
122 125 92
138 137 95
133 132 94
131 131 93
140 139 97
147 145 100
147 144 99
147 145 100
155 151 104
151 148 101
163 158 106
162 157 106
163 159 105
171 165 109
167 162 108
173 167 110
173 167 109
178 170 112
178 171 111
178 171 111
181 174 113
181 174 113
182 174 114
183 175 113
181 174 114
183 175 114
183 175 114
183 175 114
182 175 114
182 175 113
184 176 114
183 175 114
182 175 114
182 175 114
183 175 114
182 175 113
183 175 114
182 175 114
182 175 114
183 175 114
183 175 114
184 175 114
183 175 114
183 175 114
184 176 114
182 175 113
184 176 113
184 176 114
183 175 113
183 175 114
182 175 113
183 175 113
183 175 114
184 176 114
183 175 113
184 176 113
184 176 114
184 175 113
183 175 112
183 175 114
183 175 112
184 175 112
186 176 113
185 176 113
187 177 113
184 175 112
185 176 112
185 176 112
187 177 112
184 175 110
183 174 107
185 175 109
186 176 110
185 175 110
185 176 109
186 176 110
184 175 108
184 175 105
184 175 108
183 174 106
182 173 102
183 174 103
179 171 96
183 173 102
180 172 97
181 172 100
182 173 99
182 173 97
181 172 96
182 172 98
178 170 93
178 170 92
180 171 93
177 169 89
177 168 86
176 168 84
176 167 82
176 167 86
172 164 82
171 163 77
173 165 82
172 163 77
172 163 81
172 164 79
162 154 71
158 151 69
159 154 61
162 159 63
158 160 56
158 158 56
149 155 41
164 169 52
162 171 34
165 180 30
167 183 32
168 186 19
170 191 19
169 189 11
173 196 0
173 196 0
174 197 0
174 196 0
170 194 0
173 196 0
172 195 0
171 194 0
174 197 0
172 196 0
172 195 0
173 197 0
174 197 0
173 196 0
172 195 0
173 197 0
170 193 0
171 194 0
174 196 0
170 194 0
174 197 0
174 197 0
173 196 0
175 198 0
173 196 0
172 196 0
173 197 0
171 195 0
173 196 0
172 194 0
173 197 0
172 195 0
169 193 0
173 196 0
174 197 0
172 195 0
171 195 0
171 194 0
172 195 0
174 197 0
173 196 0
172 195 0
172 196 0
170 195 0
172 195 0
173 197 0
171 195 0
173 196 0
172 196 0
171 194 0
172 195 0
172 195 0
173 196 0
172 195 0
170 194 0
172 196 0
174 197 0
170 193 0
172 195 0
173 196 0
173 195 0
171 194 0
170 192 0
173 197 0
172 194 0
172 196 0
170 193 0
170 194 0
171 194 0
173 195 0
172 196 0
172 195 0
174 197 0
173 196 0
171 195 0
172 195 0
169 192 0
172 196 0
172 195 0
172 195 0
170 193 0
170 194 0
172 195 0
170 194 0
170 195 0
169 192 0
172 195 0
171 194 0
172 196 0
172 195 0
169 193 0
172 196 0
170 193 0
172 195 0
172 196 0
172 195 0
168 192 44
138 163 108
111 138 134
64 100 165
62 99 174
62 98 168
62 98 172
62 99 173
62 99 176
62 99 169
61 98 171
62 98 171
62 99 170
62 99 173
62 99 175
61 98 172
62 99 177
62 99 177
62 99 177
62 99 176
62 99 177
62 99 178
62 99 176
62 99 177
62 99 176
61 98 174
61 98 175
62 99 176
62 99 179
63 99 176
61 98 177
62 99 175
62 99 178
62 99 180
62 99 177
62 99 177
61 98 176
62 99 177
62 99 181
61 98 178
62 99 180
62 99 180
63 100 181
62 99 178
62 99 178
63 100 180
62 99 179
62 99 178
62 99 181
63 100 178
62 99 181
62 99 177
62 99 180
62 99 178
62 99 180
61 98 178
62 99 180
62 99 181
61 99 179
62 99 181
62 99 179
62 99 179
61 99 181
62 99 180
62 99 181
62 99 178
61 98 178
62 99 178
62 99 177
62 99 180
62 99 179
62 99 179
62 99 180
63 100 180
62 99 178
61 98 177
62 99 178
62 99 179
62 99 179
62 99 180
62 99 178
62 99 178
62 99 180
62 99 180
62 99 179
62 99 180
62 99 179
62 99 177
62 99 179
62 99 181
62 99 181
62 99 180
63 99 179
62 99 178
62 99 178
63 100 181
62 99 180
61 99 177
62 99 178
62 99 178
62 99 179
62 99 177
62 99 180
62 99 179
62 99 178
62 99 175
62 99 176
62 99 178
62 99 176
62 99 179
62 99 179
63 99 174
62 99 178
62 99 177
61 99 179
62 99 177
62 99 177
62 99 177
62 99 175
61 98 173
62 99 178
62 99 176
62 99 177
62 99 177
61 99 176
63 99 178
62 99 173
62 99 177
61 98 174
63 99 176
62 98 172
62 98 173
62 99 174
62 98 172
62 99 171
62 98 174
62 99 172
62 98 174
61 97 170
62 99 173
61 97 165
61 97 167
61 97 164
62 98 170
62 98 171
62 98 172
62 98 170
61 97 163
62 98 170
61 97 166
61 97 165
60 95 157
63 97 165
62 90 140
80 96 123
94 99 94
88 92 69
82 84 58
80 85 57
75 80 59
60 67 51
52 64 54
61 70 59
58 68 57
57 69 62
47 61 54
52 65 58
55 68 59
59 72 64
66 76 64
66 77 68
60 72 64
62 74 63
67 78 66
73 84 70
70 81 69
73 82 67
83 92 74
82 90 72
83 92 76
91 98 77
100 106 80
98 104 79
100 106 83
112 115 84
117 119 87
129 129 90
128 129 94
122 122 87
138 137 94
137 136 95
141 139 98
147 144 97
146 143 98
148 146 98
162 157 105
159 155 104
153 150 101
162 157 104
167 162 106
163 157 104
171 165 108
174 167 109
174 167 109
178 171 112
183 175 113
181 173 113
179 172 111
181 173 112
182 174 112
184 175 113
185 176 114
182 174 113
184 176 113
183 175 114
181 174 113
183 175 114
184 175 113
185 176 114
183 175 114
184 176 114
182 175 114
183 175 113
184 176 114
183 175 114
183 175 113
183 175 114
183 175 114
184 176 114
182 175 113
183 175 114
184 176 114
184 175 113
184 176 114
185 176 113
184 176 114
184 176 114
185 176 114
185 176 114
184 176 113
185 176 113
185 176 114
185 176 113
184 175 112
184 175 111
184 176 113
187 177 113
184 176 112
185 176 113
184 175 111
186 176 113
184 175 107
185 176 111
184 175 109
185 176 110
187 177 113
184 175 110
184 175 108
186 175 107
186 176 108
184 174 106
184 174 106
184 175 106
185 175 104
180 172 101
181 173 103
182 173 101
183 173 103
184 174 104
184 174 103
186 175 104
185 175 104
181 172 99
182 172 97
183 173 98
182 172 97
179 170 91
177 169 87
180 171 91
180 170 90
178 169 86
177 168 84
177 168 86
173 165 80
173 165 79
173 164 79
176 166 85
169 161 73
168 161 72
162 154 72
161 154 66
159 153 64
159 153 62
154 151 58
151 151 52
161 162 58
162 168 48
160 170 36
162 173 32
161 178 28
170 186 32
171 190 22
164 184 0
169 191 11
174 197 0
174 197 0
171 195 0
174 197 0
172 196 0
170 193 0
172 196 0
173 196 0
173 197 0
171 196 0
172 195 0
172 194 0
172 195 0
169 193 0
173 197 0
173 197 0
174 197 0
173 197 0
176 199 0
174 197 0
175 198 0
176 198 0
175 198 0
172 196 0
172 195 0
173 196 0
170 194 0
174 197 0
172 196 0
174 197 0
171 193 0
173 196 0
169 193 0
170 194 0
173 196 0
174 197 0
173 196 0
173 196 0
170 193 0
171 195 0
174 197 0
172 196 0
173 197 0
172 196 0
172 196 0
171 194 0
173 196 0
173 196 0
172 195 0
174 198 0
170 194 0
172 196 0
172 195 0
172 196 0
170 195 0
171 195 0
173 196 0
171 194 0
173 197 0
172 195 0
169 193 0
172 195 0
169 193 0
172 195 0
174 196 0
171 194 0
173 196 0
172 197 0
168 191 0
173 196 0
171 195 0
173 195 0
172 196 0
172 196 0
171 195 0
172 195 0
171 194 0
168 192 0
174 197 0
172 196 0
170 193 0
169 192 0
170 194 0
171 195 0
170 193 0
171 194 0
173 195 0
173 195 0
172 194 0
169 191 0
173 197 0
171 194 0
169 192 0
170 193 0
173 196 0
171 195 0
157 181 67
136 161 114
82 113 160
61 98 163
61 97 163
62 98 168
63 99 171
62 99 176
62 99 175
62 98 172
62 99 171
62 99 172
62 99 171
62 99 172
61 98 174
62 99 178
63 100 176
62 99 171
63 100 179
62 99 175
61 98 174
63 100 177
62 99 174
62 99 178
62 99 179
63 99 177
63 99 177
63 100 180
62 99 175
63 100 178
62 99 178
62 99 177
62 99 181
62 99 177
62 99 179
62 99 178
61 98 176
61 99 179
61 98 175
62 99 179
62 98 177
62 99 179
62 99 178
62 99 180
62 99 179
62 99 180
62 99 179
63 100 181
62 98 174
62 99 180
62 99 177
62 99 179
62 99 180
62 99 178
62 99 179
62 99 180
62 99 181
61 98 176
62 99 181
62 99 181
62 99 180
62 99 180
62 99 179
62 99 177
62 99 179
62 99 179
62 99 179
62 99 178
62 99 178
62 99 178
62 99 179
62 99 180
62 99 180
61 99 180
62 99 178
62 99 178
62 99 179
62 99 180
62 99 178
62 99 180
62 99 178
62 99 179
62 99 179
62 99 177
62 99 180
62 99 179
62 99 180
62 99 177
62 99 178
62 99 179
62 99 178
61 98 177
61 98 176
62 99 180
63 100 180
62 98 174
62 99 180
62 99 174
62 99 179
61 99 178
62 99 180
62 99 179
62 99 177
62 99 174
62 99 177
62 99 178
62 99 180
61 98 177
62 99 177
61 98 174
62 99 175
62 99 177
62 99 176
62 99 176
62 98 178
62 98 172
61 98 174
62 99 176
62 99 174
63 100 178
63 99 176
62 98 170
62 99 181
62 98 173
62 99 177
62 99 179
62 99 173
62 99 171
62 99 175
61 98 172
62 99 175
62 99 177
62 98 173
62 99 174
62 99 172
62 99 176
62 98 171
61 98 172
61 97 172
61 97 166
62 98 174
61 98 170
62 98 171
61 97 168
61 97 164
62 98 169
61 97 167
61 97 169
61 97 164
62 97 168
61 96 165
62 97 166
61 96 165
63 96 158
67 89 130
73 88 107
79 85 67
76 82 59
81 85 59
60 68 53
74 79 60
58 69 56
51 63 54
65 73 57
57 70 60
55 66 55
49 63 55
54 65 54
56 68 58
55 66 57
67 77 61
53 69 67
60 73 63
65 78 67
62 74 61
62 75 66
67 78 65
80 88 71
80 89 71
89 97 77
93 100 78
100 106 82
116 118 86
93 101 80
109 112 82
121 123 88
111 115 86
124 124 87
134 134 96
134 133 91
132 132 93
149 146 98
140 139 97
147 145 99
145 142 96
149 146 97
162 157 105
152 148 100
167 161 107
170 164 105
165 160 106
172 165 108
169 163 106
171 165 107
176 169 108
179 172 111
177 170 110
180 172 111
180 172 112
181 173 112
185 176 113
184 175 113
183 175 113
185 176 114
184 175 113
184 176 113
185 176 114
185 176 113
184 175 112
185 176 113
183 175 114
185 176 113
183 175 113
183 175 114
182 175 113
183 175 114
183 175 113
184 175 112
184 175 113
182 174 112
186 176 114
184 176 114
184 175 113
184 176 113
183 175 113
183 175 113
183 175 113
184 175 113
184 175 113
185 176 114
184 176 112
185 176 112
185 176 114
182 175 112
183 175 111
185 176 112
184 176 112
186 176 111
185 176 112
184 175 111
186 176 111
185 175 109
183 174 108
186 176 111
186 176 111
185 176 110
186 176 109
184 174 107
184 175 108
185 175 106
186 176 108
186 176 108
184 175 106
182 173 103
183 174 104
183 174 104
184 174 104
184 174 103
184 174 105
184 174 103
182 173 99
180 171 95
180 171 95
179 170 92
181 172 97
182 172 97
178 169 88
182 172 95
180 171 91
177 169 87
179 170 88
179 169 89
180 171 91
176 167 85
173 165 78
173 165 79
172 163 80
170 162 80
169 161 72
165 156 74
164 156 70
153 147 58
154 151 52
154 153 56
159 162 51
167 170 58
160 165 48
161 168 44
162 174 39
167 181 37
165 179 34
167 186 16
165 185 16
171 194 0
173 196 0
173 197 0
168 192 0
174 197 0
173 197 0
173 197 0
173 196 0
172 195 0
173 196 0
174 197 0
172 196 0
172 195 0
175 198 0
173 196 0
173 197 0
173 196 0
174 197 0
173 197 0
172 194 0
174 197 0
169 193 0
176 198 0
172 195 0
171 195 0
175 197 0
176 198 0
172 195 0
171 195 0
174 197 0
172 196 0
172 194 0
171 196 0
173 197 0
173 197 0
174 197 0
170 194 0
174 197 0
172 195 0
174 196 0
172 195 0
171 194 0
172 195 0
168 191 0
172 195 0
172 196 0
170 192 0
169 194 0
174 197 0
172 195 0
173 196 0
173 196 0
173 196 0
172 196 0
171 194 0
171 195 0
170 194 0
173 196 0
173 196 0
173 197 0
170 194 0
170 193 0
172 195 0
173 196 0
170 193 0
172 195 0
172 196 0
170 194 0
171 194 0
173 196 0
170 194 0
170 193 0
172 195 0
171 194 0
171 194 0
171 194 0
172 195 0
172 195 0
169 193 0
170 194 0
172 195 0
171 195 0
173 196 0
172 195 0
169 193 0
174 198 0
171 194 0
173 197 0
171 195 0
171 193 0
171 194 0
170 194 0
171 193 0
167 190 0
173 196 0
172 195 0
165 189 51
140 165 100
112 139 136
63 99 170
62 99 165
61 98 166
61 98 171
62 98 168
63 99 174
62 99 174
62 99 171
62 99 175
62 99 173
61 98 167
62 99 173
62 99 172
61 98 174
63 99 178
62 99 173
62 99 173
62 99 176
62 99 175
62 99 174
63 99 176
62 99 179
62 99 179
61 98 173
62 99 177
62 98 172
62 99 177
63 100 179
62 99 178
62 99 178
62 99 179
62 99 178
61 99 179
62 99 178
62 99 179
63 99 177
62 99 179
62 99 180
62 99 178
62 99 178
62 99 179
62 99 180
62 99 179
62 99 180
62 99 181
62 99 180
62 99 179
62 99 178
62 99 180
62 99 178
62 99 178
62 99 179
62 99 179
63 99 178
62 99 180
62 99 179
62 99 178
62 99 178
62 99 181
62 99 181
62 99 179
62 99 179
62 99 178
63 100 178
61 99 180
62 99 181
62 99 176
63 100 180
62 99 179
62 99 179
62 99 176
62 99 179
62 99 179
62 99 181
61 99 178
62 99 179
62 99 179
62 99 179
62 99 179
62 99 177
62 99 179
62 99 181
62 99 178
62 99 179
62 99 179
62 99 180
62 99 180
62 99 176
62 99 179
62 99 176
62 99 178
62 99 179
62 99 179
62 99 180
62 99 179
62 99 176
62 99 179
62 99 178
63 99 177
61 98 175
63 100 181
62 99 178
63 99 179
62 99 178
62 99 178
62 99 176
61 98 178
62 99 179
62 99 177
62 99 177
62 99 173
62 99 175
62 99 178
62 99 176
62 99 176
62 98 173
61 98 173
62 99 176
62 99 174
62 99 178
63 100 181
62 99 175
62 98 173
62 99 174
62 99 174
62 99 178
62 99 175
62 99 175
62 99 177
62 98 174
61 98 173
61 98 174
62 99 174
62 99 174
61 98 171
62 99 174
61 97 167
63 99 172
62 98 170
63 99 174
62 99 174
62 99 176
62 98 172
61 97 170
61 97 166
62 98 170
62 98 169
61 96 162
62 98 168
62 98 167
62 97 165
61 95 156
61 92 146
70 89 123
71 85 105
65 74 73
62 70 55
66 74 53
58 67 52
43 56 50
59 68 56
57 66 54
47 60 51
45 60 56
45 60 56
53 64 55
46 61 54
53 66 59
58 70 60
54 68 60
57 70 61
70 81 67
57 72 66
57 72 63
68 78 62
75 85 67
80 89 74
86 94 73
93 100 78
81 90 73
99 104 79
105 109 82
107 111 84
114 116 83
118 121 89
115 118 85
134 132 92
130 129 90
126 127 88
137 136 94
139 137 94
144 142 96
146 144 97
152 148 98
164 158 102
157 153 100
158 153 102
165 160 106
166 160 103
163 158 103
172 165 107
172 165 108
174 167 108
176 169 110
180 172 109
178 170 110
183 175 113
182 174 111
182 174 110
183 175 113
184 175 112
184 176 113
184 175 113
184 175 113
183 175 114
184 176 114
185 176 113
184 176 113
184 176 113
184 176 114
185 176 114
183 175 112
184 176 114
184 176 113
184 176 113
186 176 113
183 175 112
184 176 114
185 176 113
185 176 113
184 176 113
185 176 113
186 176 113
184 176 114
184 176 113
184 175 113
185 176 113
186 176 113
184 176 112
185 176 112
184 176 113
183 175 112
184 175 112
186 176 112
183 175 110
182 174 110
186 176 112
183 175 110
184 175 109
187 177 113
185 175 108
185 176 110
184 175 110
185 176 111
185 175 108
183 174 104
185 175 106
184 175 108
184 174 105
181 172 101
182 173 101
183 173 103
184 174 104
180 172 100
180 171 95
182 173 102
183 173 101
180 171 95
183 173 100
182 172 99
179 171 94
182 172 99
181 171 93
181 171 94
177 169 88
177 168 85
182 172 95
178 169 85
179 169 85
179 169 88
176 168 81
176 167 82
175 166 82
177 168 84
168 160 72
173 164 79
168 160 70
156 150 62
164 156 71
160 154 58
158 151 63
159 156 64
154 156 49
160 161 53
165 169 49
162 168 51
160 169 41
164 176 28
163 177 28
168 186 16
168 188 11
172 194 11
170 195 0
173 197 0
174 196 0
174 197 0
174 197 0
172 196 0
175 198 0
171 195 0
173 196 0
170 194 0
170 194 0
173 196 0
170 194 0
170 194 0
174 197 0
171 195 0
173 196 0
172 196 0
173 197 0
171 194 0
172 195 0
169 193 0
171 194 0
174 197 0
174 197 0
172 196 0
171 195 0
173 196 0
173 197 0
168 192 0
172 195 0
173 197 0
171 195 0
171 194 0
170 193 0
172 195 0
173 197 0
174 197 0
173 197 0
174 197 0
173 196 0
171 195 0
170 194 0
172 196 0
172 195 0
172 196 0
171 194 0
173 196 0
173 196 0
172 195 0
171 195 0
174 196 0
172 196 0
174 197 0
175 197 0
175 198 0
174 197 0
172 196 0
171 194 0
173 196 0
172 195 0
171 193 0
172 197 0
171 194 0
170 194 0
168 192 0
173 197 0
171 195 0
173 196 0
174 197 0
171 195 0
171 195 0
170 193 0
170 193 0
173 196 0
172 196 0
171 194 0
174 196 0
170 193 0
170 194 0
168 192 0
168 191 0
173 196 0
168 192 0
170 194 0
172 195 0
173 197 0
173 196 0
170 193 0
171 193 0
171 193 0
171 194 0
172 195 0
173 196 0
171 194 18
153 177 82
124 150 127
70 104 166
62 99 166
62 99 166
61 98 166
62 99 169
62 99 170
63 99 176
62 99 172
62 99 173
62 99 172
62 99 174
62 99 174
62 99 173
62 99 173
63 99 178
62 99 174
62 99 173
62 99 175
62 99 179
63 99 175
62 99 177
61 98 173
62 99 174
63 99 177
62 99 176
63 100 179
62 99 179
62 99 178
61 98 173
62 99 176
63 99 178
62 99 180
62 99 178
62 99 178
62 99 179
62 99 180
62 99 181
61 98 176
61 98 175
62 99 180
62 99 181
61 98 175
62 99 177
63 100 181
62 99 179
62 99 180
62 99 177
62 99 180
62 99 178
62 99 179
62 99 180
62 99 176
61 98 176
62 99 178
61 99 180
62 99 181
62 99 179
62 99 180
62 99 181
62 99 180
61 99 179
62 99 180
62 99 177
62 99 179
62 99 178
62 99 177
63 99 176
61 99 177
63 100 180
62 99 179
62 99 179
62 99 180
63 100 180
62 99 179
62 99 179
62 99 179
62 99 176
63 100 179
62 99 181
62 99 178
62 99 177
62 99 179
62 99 178
62 99 178
62 99 180
62 99 181
61 98 177
63 100 180
62 99 178
62 99 177
62 99 181
62 99 178
62 99 176
62 99 180
62 99 177
62 99 178
61 98 173
62 99 177
62 99 179
62 99 178
62 99 176
62 99 178
62 99 176
62 99 175
61 98 177
62 99 180
62 99 176
62 99 178
62 99 178
62 99 181
62 99 178
62 99 176
62 99 178
62 99 171
62 99 176
62 99 176
62 99 175
62 99 177
62 99 176
61 98 173
62 99 176
62 99 177
62 99 177
62 99 175
62 99 172
62 99 172
62 99 175
62 98 173
62 98 169
61 98 168
62 99 174
61 98 172
62 99 172
61 98 172
62 99 173
62 98 170
61 98 171
62 98 174
62 98 172
62 98 173
61 97 168
62 99 173
62 99 173
62 98 170
62 97 164
61 97 167
61 98 170
61 97 167
61 97 169
62 98 169
60 95 155
61 96 164
61 95 160
59 93 157
62 88 133
66 82 99
53 68 79
56 66 60
54 64 56
70 76 57
48 59 49
52 63 54
46 58 52
54 64 53
51 62 52
49 61 53
43 57 52
47 63 58
48 64 58
48 63 58
46 62 55
54 67 57
53 67 58
58 73 64
60 74 65
63 75 65
70 81 67
73 83 66
80 90 72
91 97 76
94 101 79
79 89 74
96 102 80
108 112 83
112 114 83
113 116 85
117 119 86
118 119 85
124 125 87
129 129 91
148 145 99
141 139 96
153 149 100
140 139 96
159 155 102
152 148 100
152 148 100
165 158 102
160 155 102
164 158 105
162 156 103
173 166 108
172 165 106
176 168 108
175 168 110
177 169 109
178 170 108
181 173 110
180 172 110
182 174 112
181 173 110
183 175 113
185 176 111
184 176 113
186 177 114
184 175 112
185 176 113
184 176 112
185 176 113
184 175 112
184 175 112
182 175 113
184 176 113
183 175 112
185 176 113
183 175 112
186 177 114
184 175 113
187 177 114
186 176 113
185 176 113
183 175 112
184 176 112
184 176 113
186 176 113
185 176 113
185 176 112
185 176 111
184 175 112
185 176 113
183 175 110
186 176 110
185 176 112
187 177 111
184 175 110
184 175 110
186 176 110
186 177 113
187 177 112
183 174 109
185 176 109
183 174 107
186 176 111
184 175 109
184 175 106
186 175 106
185 175 105
183 174 105
181 172 101
184 174 104
185 175 106
184 174 103
182 173 100
183 173 99
180 172 99
184 174 104
180 171 96
181 172 97
180 171 95
183 173 99
183 173 98
182 172 95
178 169 90
180 171 95
177 168 86
179 170 91
178 169 85
179 169 89
179 169 88
176 167 83
173 165 77
173 166 78
173 165 79
172 164 75
170 161 75
171 162 75
168 160 73
167 159 72
165 157 69
161 154 63
158 152 63
162 157 65
159 155 62
155 155 53
157 159 48
154 158 42
161 172 34
160 170 34
165 179 32
166 181 25
159 177 16
169 188 19
171 189 22
171 195 0
172 195 0
174 197 0
173 197 0
172 196 0
172 195 0
173 196 0
174 197 0
170 194 0
174 197 0
172 196 0
173 196 0
172 196 0
170 194 0
173 197 0
172 195 0
173 196 0
172 195 0
173 196 0
172 196 0
175 197 0
173 197 0
171 194 0
171 195 0
171 195 0
170 195 0
174 197 0
171 195 0
174 197 0
171 194 0
172 196 0
170 193 0
173 196 0
171 195 0
173 195 0
174 197 0
172 195 0
171 195 0
171 194 0
173 196 0
172 195 0
172 196 0
170 194 0
172 195 0
171 194 0
172 196 0
174 197 0
173 196 0
174 196 0
172 196 0
172 196 0
173 196 0
173 196 0
172 195 0
174 197 0
171 195 0
170 193 0
173 196 0
171 194 0
174 197 0
174 197 0
171 195 0
172 195 0
175 198 0
172 196 0
169 192 0
171 194 0
175 198 0
174 198 0
171 194 0
173 196 0
171 194 0
174 197 0
172 196 0
170 193 0
173 196 0
170 194 0
169 192 0
172 194 0
169 192 0
173 196 0
172 195 0
172 194 0
172 196 0
171 194 0
173 196 0
171 194 0
172 195 0
172 196 0
171 195 0
173 196 0
171 195 0
171 194 0
172 196 0
167 189 51
134 160 110
90 120 147
64 100 164
62 98 166
62 98 169
62 99 171
62 98 170
62 98 167
62 99 170
63 100 177
62 99 170
62 99 175
63 99 177
62 98 172
62 99 176
62 98 170
62 99 172
63 99 175
62 99 175
62 99 178
62 99 176
62 99 176
62 99 175
62 99 174
62 99 177
62 98 175
62 99 178
61 98 173
62 99 179
62 99 176
62 99 180
62 99 178
62 99 178
62 99 178
63 100 179
62 99 179
62 99 178
62 99 177
63 99 177
62 99 178
63 100 181
61 98 173
61 99 178
63 100 178
62 99 178
63 100 180
62 99 179
62 99 176
62 99 176
63 100 181
63 100 181
62 99 177
62 99 178
62 99 181
62 99 179
62 99 177
62 99 178
62 99 178
62 99 178
62 99 179
62 99 176
62 99 179
62 99 180
62 99 178
62 99 179
62 99 177
62 99 180
62 99 179
62 99 177
62 99 180
62 99 180
62 99 178
62 99 181
62 99 178
62 99 177
63 100 177
61 99 180
62 99 178
62 99 173
61 98 178
62 99 178
62 99 178
62 99 180
62 99 179
63 100 178
62 99 177
62 99 179
62 99 177
63 100 179
62 99 177
61 98 174
62 99 178
62 99 178
63 99 178
62 99 180
62 99 177
61 98 173
62 99 180
62 99 177
61 98 177
62 99 176
61 98 171
61 99 178
62 99 178
62 99 176
62 98 175
62 99 179
62 99 177
62 99 179
62 99 175
62 99 180
62 99 178
62 99 177
61 98 174
62 98 171
61 99 178
62 99 178
62 99 177
63 99 177
62 99 178
62 99 175
63 99 179
62 99 178
63 99 175
62 99 174
62 99 176
61 98 169
61 98 175
63 99 176
62 99 176
62 99 178
63 99 174
62 99 172
62 99 172
61 98 174
62 98 173
62 99 176
62 98 173
62 99 172
62 99 175
61 98 173
61 98 171
62 98 174
62 98 167
62 98 175
62 99 175
61 97 170
61 97 165
62 98 170
61 97 167
61 96 166
61 96 164
62 98 166
62 97 165
61 96 165
62 96 165
59 90 144
65 87 126
62 76 93
58 68 59
50 59 47
49 60 49
44 59 54
57 65 52
50 61 50
46 58 52
41 54 46
47 59 51
48 62 53
45 60 53
48 61 53
47 62 57
47 63 56
51 63 53
48 64 56
62 74 65
58 70 59
62 73 63
56 72 64
72 82 67
73 83 68
70 82 70
85 92 72
90 96 74
87 94 75
97 102 77
111 114 85
109 112 82
118 119 87
120 122 88
126 127 90
133 131 91
132 131 90
135 135 92
145 142 96
143 141 95
150 146 99
149 146 98
156 151 100
158 153 99
160 155 99
161 156 102
164 159 104
167 160 103
173 165 108
172 165 106
176 168 108
177 169 108
176 169 109
180 171 109
182 174 111
184 175 111
184 175 113
185 176 112
185 176 112
184 175 110
182 174 110
183 175 110
184 175 112
183 175 112
185 176 113
183 175 109
183 175 113
185 176 112
184 175 110
185 176 112
185 176 112
184 175 112
184 175 113
185 176 112
185 176 112
185 176 111
187 177 112
183 175 110
187 177 113
185 176 112
185 176 110
185 175 109
185 176 111
186 176 113
187 177 112
184 175 109
185 176 110
186 176 111
186 176 110
183 174 106
187 177 111
184 175 109
184 176 112
184 175 106
183 174 106
183 174 109
183 174 108
183 174 106
185 175 109
185 175 108
181 172 101
183 173 103
181 172 101
183 174 105
184 174 103
185 175 108
182 173 101
182 173 101
184 174 104
183 173 102
182 173 99
181 172 97
180 171 97
185 175 104
184 174 101
179 170 91
180 171 93
179 170 90
179 170 92
180 170 90
179 170 91
180 170 90
179 169 90
178 169 87
178 169 86
173 165 75
176 167 81
173 165 78
172 164 76
174 165 79
173 164 80
170 162 76
168 159 73
164 156 74
162 153 65
171 162 76
158 151 62
150 146 54
156 155 54
164 166 53
161 162 52
160 166 44
161 169 39
158 170 25
164 179 34
163 180 22
167 185 19
167 186 19
169 192 0
175 198 0
172 195 0
171 195 0
172 195 0
173 197 0
175 198 0
173 197 0
172 196 0
169 194 0
173 197 0
173 197 0
174 197 0
173 196 0
174 197 0
174 197 0
172 196 0
171 194 0
171 196 0
172 196 0
169 192 0
174 197 0
174 196 0
174 197 0
169 193 0
172 195 0
172 195 0
174 198 0
173 197 0
171 195 0
174 197 0
172 195 0
172 195 0
175 198 0
172 196 0
171 195 0
172 195 0
174 197 0
167 192 0
172 195 0
171 195 0
173 196 0
172 196 0
171 195 0
174 198 0
172 196 0
173 196 0
173 196 0
173 196 0
169 194 0
170 193 0
172 195 0
174 197 0
172 196 0
174 197 0
170 194 0
173 195 0
172 195 0
169 193 0
172 195 0
168 192 0
172 195 0
172 195 0
170 192 0
172 196 0
170 194 0
171 194 0
171 195 0
171 194 0
172 194 0
174 197 0
171 194 0
172 196 0
173 196 0
174 197 0
172 194 0
163 187 0
172 194 0
172 196 0
169 192 0
171 194 0
170 195 0
171 194 0
168 192 0
170 193 0
169 192 0
173 197 0
168 191 0
174 196 0
173 196 0
173 196 0
167 191 0
172 196 0
168 192 0
169 193 25
149 172 86
110 138 135
68 102 165
61 98 165
62 99 171
62 98 163
62 99 174
62 98 164
62 99 168
61 98 172
62 98 167
62 99 176
62 99 176
64 100 174
63 99 174
62 99 172
63 99 177
62 98 169
62 99 178
62 99 176
61 98 175
62 99 173
62 99 178
62 99 175
62 99 174
62 99 173
62 99 178
62 99 175
63 100 181
62 99 175
61 98 174
63 100 179
62 99 177
62 99 174
62 99 178
62 99 174
62 99 176
62 99 176
63 99 176
62 99 178
62 99 179
62 99 175
62 99 177
63 100 180
62 99 177
62 99 178
62 99 177
62 99 176
62 99 179
61 98 178
62 99 177
62 99 179
62 99 179
61 99 177
62 99 180
62 99 178
62 99 177
62 99 177
62 99 178
62 99 177
63 100 179
63 100 180
62 99 177
62 99 179
62 99 176
62 99 177
62 99 178
62 99 181
62 99 178
62 99 175
62 99 174
62 99 181
62 99 180
62 99 178
61 98 173
61 98 176
62 99 178
62 99 179
62 99 181
62 99 178
62 99 176
62 99 181
62 99 175
63 99 178
62 99 173
62 99 177
62 99 181
61 98 177
61 98 173
62 99 179
62 99 177
62 99 177
62 99 174
62 99 175
62 99 175
62 99 177
63 99 177
62 99 177
62 98 172
62 99 177
62 99 179
63 99 179
62 99 176
62 99 176
62 99 178
62 99 178
62 99 178
62 99 177
62 99 173
62 99 178
62 99 178
62 99 178
61 98 173
63 99 176
62 99 176
62 98 173
61 98 175
62 99 174
61 98 174
62 98 171
62 99 174
61 98 174
62 99 176
62 99 176
62 99 178
62 98 170
62 99 177
62 99 175
62 98 171
62 99 177
62 98 172
61 98 172
62 99 172
62 99 173
62 99 177
62 98 171
61 98 168
62 98 172
63 99 175
61 98 171
62 99 172
62 98 170
61 97 169
62 98 172
62 99 175
63 99 171
63 99 174
62 99 172
62 98 173
61 96 160
63 99 174
62 98 172
61 97 164
62 98 170
61 96 163
61 97 167
62 97 166
60 94 157
56 86 139
57 77 104
63 76 86
42 53 45
40 50 43
39 50 41
40 52 44
41 54 46
41 53 45
45 57 48
43 57 50
44 58 50
45 60 54
46 60 53
46 61 57
47 63 57
49 66 63
47 63 57
52 67 60
57 71 62
55 70 62
63 76 67
73 84 70
68 79 68
82 90 73
82 91 72
85 93 75
88 95 72
102 107 82
109 112 82
117 118 86
111 114 85
117 118 83
129 129 89
125 126 89
136 134 92
137 136 94
137 134 92
142 140 94
150 147 98
140 138 91
153 149 97
157 152 101
172 165 107
165 158 102
167 161 104
170 163 107
170 163 103
173 166 105
172 165 106
175 168 108
180 171 108
177 168 107
182 173 110
184 175 111
182 174 109
183 174 107
184 175 109
182 174 109
183 175 112
186 176 111
184 176 113
184 175 110
184 175 110
184 175 112
183 175 109
182 174 110
184 175 110
183 175 110
185 176 110
187 177 114
186 176 109
185 176 111
183 175 111
183 175 110
185 176 111
185 176 110
187 177 112
184 175 112
186 176 113
185 176 112
186 176 110
184 175 110
184 175 107
185 175 108
184 175 108
184 174 109
184 175 109
184 175 107
186 176 110
183 174 106
183 175 108
182 173 102
185 175 107
183 173 103
185 175 107
184 175 107
184 175 106
184 174 106
185 175 106
182 173 103
183 174 104
186 175 104
182 173 102
182 173 103
179 171 97
183 174 103
183 173 99
181 172 101
182 173 97
182 172 96
182 172 97
180 171 94
179 170 95
181 172 95
180 171 93
181 172 96
181 172 95
179 170 91
178 169 87
181 172 95
182 172 95
180 170 90
175 167 80
179 169 86
178 168 83
175 166 78
174 166 78
175 165 83
174 165 80
169 161 73
167 159 68
168 160 74
166 158 68
156 148 67
153 147 53
153 149 59
157 157 49
161 160 63
161 167 47
155 164 36
163 172 47
164 178 25
164 179 28
165 181 25
171 191 19
168 189 22
173 194 0
173 196 0
169 193 0
175 197 0
174 197 0
172 196 0
173 196 0
171 195 0
172 196 0
175 197 0
173 196 0
169 193 0
170 194 0
174 197 0
172 196 0
172 196 0
173 196 0
171 195 0
172 196 0
172 196 0
173 197 0
175 197 0
173 197 0
173 196 0
170 193 0
171 194 0
171 193 0
174 197 0
172 195 0
172 196 0
171 195 0
173 197 0
174 197 0
172 196 0
174 197 0
172 195 0
170 194 0
173 197 0
171 194 0
170 194 0
170 194 0
171 195 0
172 195 0
171 195 0
172 196 0
168 192 0
170 193 0
172 195 0
173 196 0
174 197 0
170 194 0
170 194 0
171 194 0
173 197 0
173 197 0
170 192 0
173 195 0
172 196 0
172 196 0
169 193 0
172 195 0
173 196 0
172 195 0
172 195 0
170 194 0
172 195 0
172 195 0
169 193 0
172 195 0
170 193 0
171 195 0
173 196 0
174 197 0
173 196 0
173 196 0
168 192 0
170 194 0
171 195 0
173 196 0
170 193 0
171 194 0
170 193 0
172 195 0
173 195 0
172 195 0
168 191 0
172 195 0
171 195 0
172 195 0
170 193 0
176 198 0
169 193 0
171 194 0
168 190 0
161 184 60
134 159 107
74 107 157
63 99 172
63 99 169
62 99 168
62 98 167
62 98 167
62 99 172
61 98 167
62 99 171
63 99 174
63 99 175
63 99 178
62 99 173
62 98 169
62 99 174
62 99 175
62 98 170
62 99 176
62 99 175
62 99 174
62 99 175
62 99 175
62 99 176
63 99 176
62 99 179
62 99 175
62 99 177
62 98 174
62 99 172
62 99 177
62 99 178
62 99 179
62 99 178
62 99 178
62 99 180
62 99 178
62 99 179
62 99 177
62 99 179
62 99 178
62 99 179
62 99 177
62 99 178
62 99 178
62 99 179
62 99 175
63 100 180
62 99 177
62 99 179
62 99 178
62 99 178
62 99 175
63 99 179
62 99 175
62 99 177
62 99 181
62 99 176
62 99 179
62 99 179
62 99 179
62 99 176
62 99 179
62 99 178
62 99 180
63 100 179
62 99 179
62 99 180
62 99 176
62 99 176
62 99 178
61 98 176
62 99 178
62 99 176
62 99 176
62 99 177
63 100 179
62 99 179
62 99 179
61 98 176
62 99 175
62 99 180
62 99 179
62 99 177
62 99 176
62 99 177
62 99 179
62 99 179
62 99 177
62 99 179
62 99 181
62 99 176
62 99 177
61 98 178
62 99 176
62 99 176
62 99 176
62 99 176
62 99 177
63 99 177
63 99 176
62 99 177
63 99 179
62 99 177
62 99 178
62 99 179
62 99 175
62 99 175
63 99 178
62 99 177
61 98 171
62 99 176
62 99 174
62 99 175
62 99 177
62 99 175
62 99 178
62 99 174
63 100 178
62 98 174
61 98 176
62 99 178
61 98 175
62 99 174
62 98 173
62 99 175
63 99 170
62 99 171
61 98 175
62 98 173
62 98 172
63 99 174
62 98 174
62 99 173
63 99 172
62 98 173
62 99 173
63 99 176
62 98 172
62 99 174
62 99 177
62 98 170
63 99 175
62 99 171
62 98 170
61 97 166
62 99 174
61 98 169
61 97 170
61 97 163
62 98 167
62 99 177
62 98 170
61 97 165
61 95 162
61 96 164
62 97 162
62 96 164
57 88 146
60 84 124
63 77 88
54 66 68
44 55 45
42 52 43
41 54 47
41 54 46
43 56 46
44 57 48
44 58 51
41 54 47
44 57 50
45 60 55
45 59 52
48 63 57
43 57 49
46 61 57
51 66 57
52 67 59
50 67 62
57 71 63
51 67 61
48 64 55
77 86 68
81 89 70
79 88 70
74 84 67
95 102 77
104 108 82
105 107 77
117 118 85
124 124 87
117 119 87
125 126 89
133 132 88
146 142 93
140 138 91
140 138 94
152 148 97
144 141 91
155 150 96
156 152 100
159 154 100
166 160 100
162 157 104
156 152 99
171 164 104
173 166 104
171 164 104
180 171 108
183 174 111
180 171 109
182 173 108
182 173 107
183 174 110
182 174 106
184 175 110
183 174 108
184 175 109
184 175 110
183 175 110
185 176 110
184 175 110
184 175 108
185 176 112
182 174 109
185 176 111
185 176 110
183 174 110
185 175 110
186 176 112
183 175 109
185 176 110
182 174 108
184 175 111
182 174 109
187 176 109
185 175 109
186 176 109
185 176 112
185 175 110
186 176 112
184 175 107
183 174 107
185 175 107
184 175 108
186 176 109
186 176 108
183 173 103
185 175 109
184 174 104
186 175 106
182 173 103
184 174 104
183 174 103
182 173 104
184 174 103
184 175 108
183 174 106
183 173 102
185 175 103
182 173 101
183 174 103
183 173 102
182 172 99
182 173 99
181 172 97
182 172 98
180 171 95
180 171 95
181 171 95
181 171 93
182 172 97
181 171 94
181 171 94
180 170 89
176 168 86
179 170 89
178 169 87
176 168 84
180 170 90
176 168 84
176 168 80
177 167 83
175 167 81
174 166 79
176 166 83
172 163 77
171 163 72
170 161 72
169 160 73
166 158 71
169 160 75
164 157 67
162 156 64
157 154 59
153 151 53
159 161 48
158 163 48
158 165 45
157 166 34
160 176 28
163 179 28
168 184 22
166 183 16
164 184 16
168 190 11
174 197 0
169 192 0
171 194 0
172 195 0
174 196 0
174 196 0
172 196 0
173 196 0
174 197 0
173 197 0
172 196 0
175 198 0
172 196 0
170 193 0
169 192 0
174 197 0
171 195 0
172 196 0
174 197 0
170 194 0
173 196 0
170 194 0
174 198 0
170 195 0
172 196 0
171 195 0
172 195 0
170 194 0
173 197 0
174 197 0
172 196 0
172 195 0
174 198 0
173 197 0
173 196 0
172 196 0
174 197 0
170 194 0
171 194 0
169 193 0
173 196 0
172 195 0
171 195 0
170 194 0
173 196 0
172 195 0
174 196 0
170 193 0
170 195 0
174 196 0
170 193 0
171 195 0
174 197 0
173 197 0
172 195 0
170 193 0
171 196 0
171 196 0
173 196 0
173 196 0
172 195 0
173 196 0
175 198 0
172 195 0
172 195 0
175 198 0
173 195 0
172 195 0
173 196 0
171 195 0
171 194 0
173 196 0
170 194 0
173 197 0
173 195 0
173 196 0
173 196 0
171 194 0
168 192 0
170 195 0
173 196 0
172 195 0
171 194 0
172 195 0
169 193 0
171 195 0
169 193 0
172 196 0
171 195 0
170 193 0
173 196 0
171 193 0
168 191 36
151 174 88
112 139 136
67 102 166
63 99 170
61 98 162
62 99 172
62 98 166
62 98 170
62 98 166
62 99 171
62 99 169
61 98 171
62 99 177
63 99 172
61 98 169
63 99 175
63 99 177
62 99 174
62 99 175
63 99 176
63 100 180
63 99 178
62 98 174
62 99 170
62 99 177
62 98 176
62 98 174
62 99 178
63 99 176
62 99 173
62 99 178
62 99 176
62 99 178
62 99 176
62 98 174
62 99 178
62 99 176
63 99 176
62 99 174
62 99 172
62 99 176
62 99 180
63 99 178
62 99 178
62 99 181
62 99 178
62 99 177
62 99 179
62 99 179
63 99 178
62 99 176
62 99 180
62 99 176
62 99 180
61 98 175
62 99 175
62 99 178
62 99 179
61 98 179
62 99 179
63 99 178
62 99 176
62 99 179
61 98 174
62 99 179
62 99 176
62 99 179
63 99 176
62 99 178
62 99 177
62 99 172
62 99 177
62 99 179
62 99 178
62 99 178
62 99 178
61 99 177
62 99 179
62 99 179
62 99 177
63 99 178
62 99 181
63 100 180
62 99 179
63 99 179
62 99 176
62 98 176
62 99 177
62 98 175
62 99 176
62 99 180
62 99 175
62 99 177
62 99 177
62 99 177
62 99 177
62 99 180
62 99 175
62 99 180
62 99 175
62 99 178
62 99 178
63 99 179
62 99 175
62 99 175
62 99 178
62 98 175
62 99 176
62 99 178
62 99 180
62 99 180
62 99 173
62 99 176
61 98 178
62 99 175
62 99 176
62 99 177
62 99 174
62 99 179
62 99 176
62 99 176
62 99 173
62 99 174
62 99 178
62 99 173
63 99 177
61 98 173
62 99 173
62 98 169
61 98 169
62 99 174
61 98 169
62 99 174
62 99 177
62 99 174
62 98 170
62 98 167
63 99 174
63 99 175
61 98 169
63 99 171
62 98 170
62 99 176
62 98 173
62 99 176
62 98 173
61 97 166
62 98 168
61 97 164
62 98 168
61 98 172
61 97 167
62 98 167
62 98 167
62 97 165
60 96 165
61 97 164
61 96 164
61 96 166
61 95 156
55 84 136
57 79 111
45 63 77
45 58 57
40 51 43
39 51 41
41 54 47
42 54 43
44 58 51
42 55 47
44 58 51
44 58 51
43 56 49
46 61 55
46 61 54
44 58 48
47 62 56
48 63 56
50 65 58
52 67 59
55 69 62
56 71 63
59 72 63
75 84 67
84 91 71
81 90 72
84 92 72
93 99 77
104 109 82
100 106 79
105 108 80
116 118 84
117 119 84
114 116 80
135 133 91
141 139 93
140 137 93
138 136 93
147 144 95
157 152 100
155 151 97
148 144 96
159 153 98
168 162 100
155 151 95
163 157 100
163 157 99
171 164 103
171 164 99
171 164 101
175 168 103
175 168 104
179 171 108
181 172 104
182 174 107
184 175 111
184 175 110
186 176 110
185 175 109
186 176 112
184 175 110
184 175 108
184 175 108
184 175 109
183 175 109
183 174 105
181 173 104
185 175 110
184 175 108
183 174 110
184 175 108
184 175 110
185 176 110
185 175 109
184 175 111
185 176 109
184 175 106
186 176 111
186 176 110
184 175 108
186 176 110
182 174 109
184 175 109
183 174 107
184 174 106
183 174 103
183 174 105
184 174 104
183 173 100
183 174 104
183 174 105
184 175 108
181 173 102
183 174 104
184 175 106
183 174 104
182 172 100
182 173 101
182 173 97
180 172 99
183 174 104
183 174 102
184 174 102
185 174 103
185 174 102
183 173 98
182 172 97
181 172 100
180 170 93
180 171 94
183 173 99
180 171 94
179 170 92
179 170 90
182 172 97
181 171 93
178 169 87
179 170 90
177 168 85
179 170 90
177 168 84
177 168 86
179 170 89
175 167 83
174 165 77
179 169 88
173 165 79
171 163 73
167 160 65
168 161 67
170 162 73
167 158 73
159 152 63
155 150 57
157 152 59
160 157 62
156 156 49
153 154 39
162 169 42
160 169 30
165 175 37
160 174 30
166 180 32
166 183 16
165 182 25
170 188 16
173 195 0
174 197 0
173 196 0
173 197 0
170 194 0
174 197 0
173 196 0
173 197 0
172 195 0
170 193 0
171 194 0
173 197 0
173 197 0
174 197 0
171 195 0
171 195 0
175 198 0
173 196 0
174 197 0
173 196 0
173 197 0
174 197 0
173 197 0
170 194 0
173 196 0
174 197 0
173 197 0
172 195 0
171 194 0
170 194 0
174 198 0
174 197 0
173 196 0
172 195 0
170 194 0
170 193 0
173 196 0
173 196 0
172 196 0
173 196 0
176 198 0
170 195 0
171 194 0
171 194 0
173 197 0
172 196 0
171 196 0
173 196 0
169 192 0
171 195 0
167 191 0
171 194 0
172 196 0
168 193 0
173 196 0
173 196 0
171 195 0
172 195 0
169 193 0
170 194 0
170 194 0
174 196 0
172 196 0
173 197 0
169 193 0
170 194 0
171 194 0
172 195 0
172 195 0
170 193 0
173 197 0
171 194 0
170 193 0
174 196 0
171 194 0
171 194 0
171 194 0
171 195 0
170 193 0
170 193 0
172 195 0
168 191 0
171 194 0
172 195 0
169 192 0
171 194 0
170 193 0
168 190 0
170 194 0
168 191 0
172 196 0
171 195 0
172 195 0
163 186 51
134 160 113
80 112 148
63 99 169
62 98 163
62 99 172
62 98 170
62 99 168
61 98 166
63 99 169
62 98 169
61 98 169
62 99 168
63 99 172
63 99 175
62 99 174
62 99 175
62 99 172
62 99 173
62 99 176
62 99 174
61 98 175
62 99 175
62 99 173
62 99 172
62 99 175
62 99 174
63 99 177
63 100 176
62 99 175
62 99 172
62 99 177
62 99 178
62 99 174
62 99 178
62 99 174
63 99 179
62 99 176
62 99 176
62 99 176
62 99 178
62 99 177
62 99 177
62 99 178
62 99 178
62 99 177
62 99 177
62 98 175
63 99 177
62 99 180
62 99 177
62 99 177
62 99 177
62 99 178
62 99 178
62 99 177
62 99 179
63 99 178
62 99 177
62 99 177
62 99 180
62 99 179
62 99 179
62 99 178
62 99 179
62 99 179
62 99 180
61 98 173
62 99 179
61 98 175
62 99 177
62 99 178
62 99 180
62 99 177
63 100 178
63 99 180
62 99 178
62 99 176
62 99 179
62 99 177
62 99 177
63 99 178
62 99 179
62 99 181
61 99 177
62 99 175
62 99 178
62 99 175
62 98 173
62 99 180
63 100 179
61 98 176
62 99 179
62 99 178
61 98 172
61 99 179
62 99 178
62 99 176
62 99 177
62 99 173
62 99 178
62 99 176
62 99 177
62 99 177
62 99 179
63 99 175
62 99 175
63 99 178
63 99 176
62 99 177
62 99 175
62 99 179
62 99 175
62 99 176
63 99 178
62 99 175
62 99 174
62 99 177
62 99 175
62 99 174
62 99 173
62 98 173
62 99 176
62 99 174
62 99 175
62 99 172
62 99 174
63 99 178
62 99 175
61 98 173
62 99 175
62 99 177
63 100 176
62 98 170
63 99 174
63 99 173
62 99 173
62 98 172
62 98 173
62 99 174
62 99 173
62 98 168
62 98 168
62 99 171
61 98 169
62 99 171
62 98 168
62 98 169
62 98 172
61 97 166
61 97 166
61 97 166
61 97 164
62 97 168
61 96 168
62 97 160
60 95 162
61 96 161
61 95 162
61 95 162
62 97 163
57 88 142
53 80 118
50 70 95
39 55 67
40 51 41
36 47 41
39 51 44
38 50 43
41 54 46
44 59 53
38 51 45
45 59 53
44 59 51
46 62 54
45 60 55
47 62 54
46 61 56
47 62 55
48 63 55
47 63 59
53 68 59
57 73 67
65 77 66
56 71 62
83 91 74
81 88 70
94 99 75
93 100 77
99 104 78
110 113 81
109 111 77
120 121 86
119 120 84
123 123 84
129 129 88
133 132 89
142 139 92
138 135 88
149 144 94
149 145 96
149 146 92
157 151 97
160 155 98
165 159 101
164 159 97
166 160 100
164 158 97
167 160 105
174 167 107
181 172 105
179 171 105
177 169 104
178 169 104
182 173 108
183 174 108
183 174 106
185 175 109
183 174 107
185 176 111
181 173 103
184 175 109
184 174 106
184 175 109
184 175 106
183 175 108
184 174 106
183 174 104
184 175 109
185 175 108
186 176 111
185 176 109
185 175 108
186 176 109
184 175 108
184 175 108
181 173 105
184 175 108
184 175 107
182 173 102
185 175 108
185 175 108
184 175 106
185 175 106
184 175 107
186 176 109
184 175 108
185 175 106
183 173 103
183 174 104
184 174 105
181 173 103
183 173 103
183 173 102
183 173 103
182 173 102
181 172 98
182 173 100
182 173 103
180 171 97
180 172 101
183 173 99
182 173 102
180 171 97
185 175 103
181 172 96
181 172 98
180 171 94
180 171 95
182 173 99
178 169 90
181 171 96
178 169 90
178 169 91
180 170 93
179 170 91
180 170 90
180 170 92
179 170 90
175 167 80
175 167 77
181 171 90
174 166 75
174 167 80
178 169 85
174 166 77
175 166 82
175 166 80
169 162 75
167 160 64
170 162 74
167 160 62
162 154 64
155 148 60
161 154 61
155 153 54
155 152 54
155 155 52
156 159 48
160 165 45
160 169 37
158 167 30
163 174 34
162 176 30
161 178 22
169 186 19
170 189 16
170 192 0
173 196 0
171 196 0
174 197 0
171 194 0
174 197 0
172 196 0
170 194 0
173 197 0
171 195 0
172 196 0
173 196 0
173 197 0
174 196 0
172 195 0
173 197 0
172 196 0
173 196 0
171 195 0
171 194 0
172 195 0
172 195 0
171 194 0
175 198 0
171 194 0
172 196 0
171 193 0
171 194 0
174 197 0
171 194 0
171 194 0
173 196 0
174 197 0
171 194 0
173 196 0
173 196 0
173 197 0
172 194 0
171 194 0
174 197 0
174 197 0
171 195 0
176 198 0
172 196 0
172 196 0
172 196 0
172 196 0
172 196 0
172 195 0
172 195 0
171 194 0
169 193 0
174 196 0
173 196 0
174 198 0
173 196 0
170 193 0
169 193 0
170 194 0
173 195 0
174 197 0
171 195 0
170 194 0
168 191 0
171 195 0
174 197 0
173 197 0
172 195 0
171 194 0
172 195 0
171 195 0
168 192 0
170 193 0
173 196 0
173 196 0
174 197 0
173 195 0
172 196 0
169 192 0
168 191 0
172 195 0
171 193 0
169 192 0
173 196 0
168 192 0
169 193 0
173 197 0
173 197 0
169 192 0
168 190 0
170 194 0
172 195 0
165 188 40
146 170 88
115 142 140
68 102 158
62 98 163
63 99 170
62 98 165
63 99 173
61 98 166
61 98 165
63 99 171
62 99 171
62 98 165
62 99 173
62 98 166
62 99 179
62 99 172
62 99 173
62 99 177
62 99 174
62 99 174
62 99 175
63 99 176
62 99 177
62 99 174
62 99 173
62 99 175
62 99 176
62 98 175
62 99 175
62 99 176
62 99 175
62 99 174
62 99 173
62 99 174
62 99 176
62 99 178
62 99 174
61 98 179
62 99 178
62 99 173
62 99 177
63 100 181
62 99 180
63 100 180
62 99 178
62 99 180
62 99 177
62 99 177
62 99 176
62 99 177
62 99 178
62 99 178
62 99 175
62 99 178
62 99 179
62 99 180
62 99 176
62 99 179
62 99 178
63 100 179
62 99 174
62 99 178
62 99 177
62 99 177
62 99 179
62 99 179
63 99 179
62 99 177
63 99 178
62 99 181
62 99 181
62 99 174
62 99 179
62 99 180
62 99 178
62 98 174
61 98 173
62 99 177
62 99 177
62 99 178
62 99 178
62 99 175
62 99 175
63 99 178
62 98 173
62 99 177
62 99 180
63 99 177
62 99 178
62 99 174
62 99 177
62 99 176
62 99 179
63 99 175
62 99 176
62 99 180
62 99 178
62 99 180
62 99 180
62 99 179
61 98 176
63 100 175
62 99 173
62 98 172
62 99 174
63 100 178
62 99 178
62 99 176
62 99 175
63 99 176
63 100 178
62 99 176
62 99 175
61 98 169
62 99 176
62 99 177
62 99 177
62 99 173
62 99 180
62 99 174
62 99 178
62 99 175
62 99 173
61 98 176
62 98 170
62 99 173
62 98 169
62 99 174
62 98 170
62 99 172
62 98 170
62 98 176
62 99 171
62 99 173
62 98 169
62 98 170
62 99 174
62 98 171
62 99 170
62 98 169
62 98 170
61 98 165
61 97 168
62 98 171
62 99 172
61 97 166
63 99 176
62 98 169
61 97 160
63 99 177
62 98 172
62 98 166
62 98 167
62 97 167
62 97 166
61 97 165
62 97 163
61 96 166
61 97 164
62 97 166
61 96 157
61 95 161
56 86 138
45 67 98
43 60 78
40 53 52
38 50 40
39 50 38
39 51 42
42 55 45
43 56 50
43 57 49
45 60 54
41 55 49
45 59 52
45 59 52
46 61 52
44 58 51
46 61 55
46 60 52
47 63 56
49 63 51
56 70 60
52 67 59
72 82 67
65 76 62
75 85 71
82 89 69
94 99 74
85 92 71
101 105 79
112 114 84
111 114 79
125 124 86
121 122 86
127 126 84
133 132 91
138 136 87
131 130 88
148 144 90
145 141 94
154 150 95
152 147 93
158 152 95
156 151 98
161 155 95
167 161 95
168 161 100
167 160 95
175 168 102
175 167 101
175 167 103
181 172 103
179 171 103
178 170 103
179 171 104
180 172 104
185 175 110
185 176 109
184 175 106
183 173 103
184 174 108
185 175 108
184 174 105
182 173 103
186 176 109
183 174 108
185 175 107
183 173 103
186 176 108
183 173 103
186 176 109
183 174 107
185 176 109
184 175 108
183 174 106
186 176 108
186 176 108
187 176 110
186 176 108
183 174 106
184 174 106
182 173 106
181 172 101
184 174 105
184 174 104
183 174 104
182 173 101
182 173 104
185 175 105
185 174 103
183 174 105
180 171 96
184 174 101
181 172 100
184 174 104
185 175 108
183 173 104
183 173 101
183 174 104
178 170 92
182 172 98
179 171 95
184 174 102
183 173 101
182 172 97
180 171 95
180 171 93
181 171 95
180 171 95
182 172 97
180 171 93
180 170 93
179 170 93
180 170 90
178 169 87
179 170 90
178 169 86
177 168 83
177 168 87
176 167 82
173 165 76
174 166 79
169 162 70
178 168 81
171 163 72
175 167 78
173 164 74
168 161 66
172 164 78
170 162 70
166 158 67
160 152 65
162 154 66
163 157 63
154 149 60
148 145 44
155 156 48
162 165 48
160 162 44
149 158 30
158 171 30
156 168 25
162 176 22
164 183 0
170 191 16
171 192 11
170 191 11
173 196 0
171 195 0
173 197 0
173 196 0
173 196 0
171 195 0
175 198 0
173 197 0
173 196 0
174 196 0
172 195 0
171 194 0
173 196 0
170 193 0
174 197 0
171 195 0
172 196 0
173 196 0
172 195 0
170 194 0
171 196 0
171 195 0
171 194 0
175 198 0
171 194 0
173 196 0
173 196 0
172 196 0
166 189 0
172 196 0
172 196 0
172 196 0
173 196 0
172 196 0
173 197 0
172 196 0
172 196 0
171 194 0
170 194 0
173 196 0
171 194 0
172 196 0
172 196 0
169 192 0
172 196 0
173 197 0
168 191 0
172 196 0
172 196 0
170 194 0
173 196 0
171 194 0
170 193 0
172 195 0
172 195 0
173 196 0
169 193 0
166 188 0
172 195 0
171 194 0
171 194 0
175 197 0
173 197 0
169 193 0
170 194 0
173 196 0
173 196 0
170 194 0
170 194 0
171 194 0
169 192 0
170 193 0
171 194 0
170 193 0
172 195 0
171 195 0
173 197 0
168 191 0
170 193 0
172 195 0
173 196 0
169 193 0
170 194 0
170 194 0
171 193 0
169 192 0
168 192 0
172 195 0
170 193 0
170 193 0
171 194 0
160 183 60
143 168 95
78 110 162
62 99 171
62 98 162
62 98 167
63 99 167
62 99 171
63 99 166
62 98 165
62 98 170
63 99 172
62 99 171
62 98 168
62 99 169
62 98 170
63 99 171
62 99 176
63 99 175
62 99 175
61 98 174
62 99 176
62 99 174
61 98 171
62 99 174
62 98 171
62 99 176
63 99 179
62 99 179
62 98 173
62 99 178
62 99 176
62 98 173
62 99 174
62 99 175
62 99 178
63 99 178
63 99 176
62 99 180
62 99 174
61 98 176
62 99 174
62 99 177
61 98 174
62 99 176
62 99 178
62 99 178
63 99 176
62 99 175
62 99 178
62 99 179
62 99 179
63 100 179
62 99 177
62 99 178
62 98 175
62 99 179
62 99 179
62 99 176
62 99 177
62 99 179
62 99 173
62 99 179
62 99 179
63 99 175
62 99 178
62 99 177
62 99 177
62 99 180
62 99 176
62 99 177
62 99 178
62 99 177
62 99 179
62 99 179
62 99 175
62 99 177
62 99 178
61 98 174
62 99 176
63 100 179
62 99 178
62 99 175
61 98 176
62 99 177
62 99 179
62 99 180
62 99 177
62 99 176
62 98 174
62 99 179
62 99 176
61 98 173
62 99 179
61 98 175
61 98 174
61 99 176
62 99 178
62 99 174
62 98 175
62 99 178
62 99 177
62 99 176
62 99 177
62 99 175
62 99 178
61 98 176
62 99 174
61 98 171
62 99 177
62 99 175
62 99 176
62 99 175
62 99 173
62 99 179
61 98 176
62 99 175
62 99 176
62 99 175
62 99 172
62 99 171
61 98 173
62 98 170
62 99 178
61 98 173
62 99 172
62 99 176
63 99 175
62 99 176
61 98 174
62 99 174
61 98 172
62 98 169
62 98 172
62 98 172
62 99 176
62 99 177
62 99 177
61 98 172
62 98 169
62 98 170
61 98 170
62 99 175
62 98 167
62 98 167
61 98 169
62 99 174
62 98 174
62 98 168
61 97 162
63 99 172
61 95 161
61 97 164
62 98 166
62 99 169
62 98 169
61 97 165
62 97 161
62 97 163
63 98 168
61 96 158
60 94 156
60 95 158
59 92 153
54 82 123
47 69 99
44 61 72
39 51 45
40 52 42
41 53 45
37 47 39
40 52 43
42 54 46
43 57 48
45 59 53
43 57 49
45 59 51
43 57 47
46 60 51
44 58 52
48 65 59
47 63 56
51 65 58
49 66 60
52 67 60
58 71 61
67 78 61
71 81 66
69 81 67
89 96 74
88 94 71
96 101 77
99 103 77
109 110 75
111 113 80
126 125 85
126 125 83
120 121 83
128 128 85
137 135 89
138 136 89
138 136 88
149 145 92
153 148 92
156 151 98
157 152 93
161 155 95
167 160 97
167 161 95
172 165 100
173 165 101
171 163 96
172 164 100
180 171 105
179 170 103
182 173 104
182 173 108
184 174 104
184 175 108
185 175 107
182 173 105
182 173 102
184 174 104
186 176 108
184 175 106
184 174 104
186 176 108
185 175 104
183 174 106
185 175 108
187 177 110
185 175 106
181 173 103
182 173 104
184 174 107
181 172 100
184 174 104
184 175 108
183 174 107
183 174 103
182 173 104
183 174 105
183 174 103
181 172 103
184 175 106
184 174 104
185 175 105
184 175 107
185 175 108
183 173 102
184 174 103
185 175 104
182 173 100
182 172 99
181 173 102
185 175 104
180 171 98
179 170 93
181 172 96
180 172 99
180 171 95
180 172 97
181 172 97
180 171 93
182 173 98
177 169 90
179 170 91
179 170 94
181 171 94
179 170 91
180 170 92
180 170 90
179 170 91
180 170 91
179 170 89
180 170 91
178 169 87
180 171 90
177 168 85
172 165 75
174 166 80
179 170 88
175 167 80
168 162 65
173 165 75
174 166 77
178 168 83
169 163 68
171 163 70
171 164 69
168 160 67
164 156 63
170 161 71
163 155 63
158 150 63
155 149 57
155 151 53
161 161 49
146 150 39
152 158 36
159 166 32
157 162 44
160 172 36
161 174 28
170 186 25
169 186 22
168 188 11
173 191 11
172 193 0
174 197 0
169 193 0
172 195 0
174 198 0
172 195 0
173 196 0
174 197 0
173 197 0
171 195 0
172 195 0
171 195 0
173 196 0
171 195 0
172 195 0
172 196 0
170 194 0
172 195 0
173 196 0
172 195 0
172 195 0
171 196 0
171 194 0
169 193 0
171 195 0
171 195 0
174 197 0
172 196 0
171 195 0
171 195 0
172 195 0
172 195 0
171 194 0
171 195 0
171 195 0
170 194 0
172 196 0
173 196 0
172 195 0
171 194 0
169 193 0
173 196 0
174 196 0
170 195 0
171 195 0
171 195 0
172 196 0
172 195 0
173 196 0
171 195 0
172 195 0
173 197 0
170 193 0
169 192 0
173 196 0
172 195 0
171 194 0
170 194 0
169 194 0
168 191 0
173 196 0
168 192 0
172 195 0
171 193 0
172 195 0
172 196 0
173 195 0
170 193 0
173 196 0
171 195 0
172 196 0
172 195 0
168 192 0
171 194 0
171 194 0
171 195 0
173 195 0
172 194 0
171 194 0
168 192 0
169 191 0
169 191 0
172 195 0
172 195 0
170 194 0
170 193 0
173 196 0
172 195 0
169 192 0
172 195 0
170 192 0
169 192 25
156 178 60
113 139 131
63 99 162
62 98 165
62 98 159
63 99 171
62 98 170
62 98 169
62 99 172
63 99 173
62 99 172
62 99 169
62 99 176
63 99 175
62 99 170
62 99 173
62 98 170
62 98 171
62 99 175
62 99 171
62 99 171
61 98 170
62 99 171
62 99 173
62 99 175
62 99 174
62 99 173
62 99 174
62 99 175
62 99 174
62 99 175
62 99 176
62 99 179
62 99 173
62 99 176
63 100 177
62 99 177
62 99 174
62 99 177
62 99 177
62 99 173
62 98 175
62 99 178
62 99 177
62 99 180
62 98 172
62 99 175
62 99 176
62 99 177
62 99 178
62 99 179
62 99 176
62 99 178
63 100 175
62 99 175
62 99 175
62 99 177
62 99 178
63 100 179
62 99 177
62 99 178
62 99 174
61 98 175
62 99 178
62 99 175
62 99 178
62 99 176
62 99 177
62 99 176
62 99 177
62 99 173
62 99 179
62 99 177
62 99 176
62 99 176
62 99 177
62 99 177
62 99 176
63 99 177
62 99 179
62 99 178
62 99 173
62 99 176
62 99 176
62 98 174
62 99 178
62 99 176
62 99 177
62 99 180
62 99 177
63 100 180
62 99 177
62 98 171
63 99 174
62 99 178
63 99 175
62 99 174
61 98 171
62 99 177
62 99 180
62 99 176
62 99 178
62 99 177
62 99 177
62 99 176
62 99 176
62 99 176
61 98 174
62 99 174
62 99 173
63 100 178
62 99 176
62 98 174
63 100 180
62 99 178
62 98 173
62 99 179
61 98 173
62 99 177
62 99 176
62 99 175
62 99 174
63 100 179
62 99 175
62 98 174
62 99 178
62 99 174
62 99 172
63 99 173
62 98 169
62 99 173
62 99 175
62 99 172
61 98 173
63 99 170
63 99 175
62 98 173
62 99 172
61 98 166
62 99 173
62 98 171
62 98 172
62 98 171
62 98 169
62 99 173
62 98 173
62 99 170
62 99 173
62 98 167
62 98 165
62 98 165
62 98 167
62 97 160
62 98 169
62 97 163
61 97 165
61 96 165
61 96 163
61 97 164
61 96 161
62 96 159
60 94 154
60 95 157
60 94 155
55 83 131
51 77 114
46 63 81
37 49 44
38 51 45
41 54 45
41 54 43
42 55 48
38 50 41
41 54 50
45 59 53
43 57 50
44 57 50
42 56 49
47 63 58
49 65 60
48 62 53
47 62 56
51 65 55
56 71 60
52 67 60
64 76 64
76 85 68
60 72 59
74 83 66
79 88 71
93 98 67
89 95 66
103 106 77
100 103 74
109 111 77
124 124 86
119 120 80
133 132 85
133 131 83
142 139 91
135 133 87
146 143 93
155 150 91
154 148 95
159 153 96
160 154 98
166 160 94
160 155 95
163 157 94
172 164 99
170 163 100
172 165 95
172 165 101
177 168 99
180 171 104
183 174 107
180 171 103
183 173 102
183 173 105
182 173 102
184 175 107
185 175 106
184 174 104
183 173 104
185 175 104
180 172 102
181 173 104
184 174 105
182 173 101
183 173 103
180 172 99
183 174 104
186 176 108
182 173 102
183 174 102
186 176 108
183 174 106
181 172 99
182 174 104
182 173 104
184 174 103
182 173 101
185 175 108
183 173 101
182 173 102
182 172 99
179 170 97
185 175 106
183 173 100
183 173 101
181 172 99
185 175 106
182 173 99
182 173 99
184 174 101
182 173 101
182 173 102
182 173 98
180 170 95
181 172 97
181 172 98
181 171 97
179 170 92
180 171 94
181 172 96
178 170 93
184 173 99
179 170 94
182 172 95
180 170 92
179 170 91
178 169 84
177 168 87
177 169 87
176 167 81
180 170 89
177 168 84
179 169 87
178 169 84
173 166 76
176 167 81
177 168 82
174 166 75
172 163 73
168 162 66
169 162 67
171 163 71
174 166 77
170 163 70
170 162 71
165 158 65
165 158 67
165 157 62
161 154 62
163 156 62
164 158 61
155 150 58
160 161 45
153 154 45
162 169 45
159 163 45
160 172 34
163 176 30
165 180 30
161 177 22
164 183 0
168 187 19
171 191 0
173 194 11
171 195 0
172 196 0
172 196 0
171 195 0
175 197 0
173 197 0
171 195 0
170 193 0
171 195 0
172 195 0
173 196 0
174 197 0
174 197 0
172 195 0
170 194 0
171 194 0
174 197 0
171 195 0
173 197 0
171 194 0
170 193 0
171 194 0
171 195 0
171 196 0
168 191 0
171 195 0
174 197 0
173 196 0
173 197 0
172 195 0
170 194 0
172 195 0
171 193 0
172 195 0
173 197 0
172 196 0
171 194 0
174 198 0
172 195 0
173 196 0
168 191 0
172 194 0
173 195 0
171 195 0
171 195 0
169 192 0
172 196 0
173 197 0
170 192 0
171 194 0
173 196 0
169 192 0
170 194 0
172 196 0
170 194 0
174 197 0
172 195 0
174 197 0
173 196 0
172 195 0
172 194 0
173 196 0
171 196 0
172 195 0
171 195 0
171 193 0
174 197 0
169 193 0
170 193 0
173 196 0
171 195 0
170 193 0
170 194 0
172 195 0
172 195 0
169 192 0
167 191 0
174 197 0
172 195 0
173 195 0
169 193 0
169 192 0
169 193 0
170 194 0
173 196 0
171 195 0
173 196 0
169 191 0
171 195 0
171 193 0
170 192 18
132 157 99
105 132 139
62 98 164
61 97 161
63 99 172
63 99 167
62 99 167
62 99 167
61 97 160
62 99 165
62 98 169
62 99 172
63 99 175
62 98 168
62 99 173
63 100 177
61 98 162
62 99 171
62 98 165
62 98 165
62 99 175
62 99 175
62 99 173
62 99 175
63 100 180
62 99 174
63 99 175
61 98 171
62 98 169
62 99 177
62 99 178
62 99 176
62 99 175
62 99 173
62 99 175
62 99 174
63 100 179
62 99 177
61 98 174
63 99 178
63 99 177
61 98 172
62 99 175
62 99 177
62 99 176
61 98 175
62 99 180
63 100 179
62 99 176
62 99 177
62 99 179
62 99 176
62 99 177
62 99 178
62 99 179
62 98 175
61 98 177
62 99 174
62 99 175
62 99 178
61 99 178
62 99 177
63 100 179
62 99 179
61 98 174
62 99 180
62 99 181
62 98 177
62 99 178
63 100 178
62 99 176
61 99 177
62 99 177
62 99 180
62 99 179
62 99 178
62 99 178
61 98 176
62 99 176
62 99 177
62 99 176
62 99 177
62 99 176
61 98 173
61 98 175
62 99 176
62 99 177
62 99 174
62 99 175
62 99 178
62 99 176
63 99 177
62 99 178
62 99 180
62 99 180
63 100 179
62 99 173
62 99 178
62 99 178
62 99 175
61 98 176
62 99 178
62 99 174
62 99 175
62 99 178
62 99 172
62 98 174
62 99 172
62 98 173
62 99 175
62 99 172
63 99 178
62 99 177
62 98 172
63 100 179
61 98 171
62 98 169
62 99 174
62 99 173
62 99 180
62 99 176
62 99 172
62 99 173
63 100 175
62 99 178
62 99 176
62 99 174
62 99 172
62 99 171
62 99 174
63 99 176
62 98 173
62 99 178
62 99 177
62 98 170
62 99 172
62 99 172
62 98 170
62 98 171
62 99 170
62 99 170
62 99 170
62 98 167
62 99 173
61 97 167
63 100 174
62 98 170
62 98 167
62 98 169
62 98 169
61 97 167
61 97 161
61 96 159
62 97 168
61 98 168
61 97 165
62 97 162
62 96 159
62 98 161
62 97 164
61 96 164
60 95 157
60 95 154
60 94 154
57 88 137
47 71 109
44 63 87
38 51 51
37 48 40
38 50 41
37 48 39
38 50 40
41 54 47
43 56 48
44 57 48
43 56 47
44 58 50
43 57 51
45 59 47
45 61 54
46 61 55
47 62 52
49 65 58
48 64 56
56 70 59
66 76 61
55 69 58
63 74 57
69 80 66
80 88 70
91 97 71
82 89 66
107 110 78
108 111 78
118 119 84
109 111 78
120 121 82
141 138 89
121 122 83
134 132 84
128 128 81
139 137 82
146 142 91
144 140 88
142 140 90
157 152 95
163 157 95
165 158 96
158 152 95
168 161 98
179 170 98
172 165 96
176 167 98
174 166 100
180 171 105
177 168 102
180 172 103
183 174 107
178 169 97
181 172 102
183 173 100
182 173 101
184 174 102
181 172 100
181 172 101
183 174 104
183 174 104
183 173 103
183 173 103
183 174 104
183 174 103
182 173 104
184 174 105
183 173 101
182 172 99
182 173 102
182 173 101
182 173 103
183 174 103
181 172 100
181 172 101
183 174 103
184 174 103
182 173 100
184 174 104
185 175 106
182 173 99
183 174 104
181 172 101
182 172 97
183 173 100
184 174 104
185 175 104
182 172 99
181 172 99
177 169 93
181 172 98
180 171 95
184 174 103
182 172 97
178 169 90
180 171 95
180 170 94
182 172 96
178 169 89
179 170 92
181 171 93
178 169 90
179 170 92
178 169 86
178 169 87
176 167 83
180 171 94
178 169 86
179 170 89
177 169 85
179 169 88
178 169 87
175 167 80
173 165 76
177 168 83
176 168 83
175 167 79
177 168 82
169 162 67
175 166 78
170 162 72
171 163 72
169 161 70
165 159 64
164 157 68
162 155 58
163 155 61
160 153 60
160 153 67
158 151 58
160 159 52
155 156 48
163 161 56
149 152 39
157 165 28
156 167 25
160 168 36
160 175 19
165 183 16
166 184 16
164 183 0
169 190 0
172 194 11
175 198 0
173 196 0
172 196 0
172 195 0
170 194 0
172 195 0
175 198 0
173 196 0
173 197 0
172 195 0
172 195 0
174 197 0
173 196 0
171 194 0
172 195 0
172 195 0
172 195 0
171 194 0
175 197 0
172 196 0
172 196 0
171 195 0
173 196 0
172 195 0
169 192 0
171 194 0
171 195 0
170 193 0
170 194 0
172 195 0
171 195 0
172 196 0
171 195 0
172 195 0
173 196 0
171 194 0
171 196 0
170 194 0
174 197 0
173 196 0
172 196 0
171 194 0
175 198 0
171 194 0
170 192 0
172 195 0
176 199 0
171 195 0
171 195 0
171 193 0
173 196 0
170 193 0
171 195 0
172 194 0
169 193 0
167 191 0
168 192 0
170 194 0
171 194 0
170 192 0
170 193 0
172 195 0
172 196 0
172 195 0
174 197 0
170 194 0
169 192 0
174 198 0
169 193 0
167 191 0
171 194 0
174 197 0
174 197 0
172 195 0
173 195 0
174 197 0
168 192 0
171 195 0
169 193 0
169 191 0
169 193 0
169 192 0
168 192 0
172 195 0
170 192 0
170 194 0
170 193 0
173 197 0
169 193 0
170 194 18
154 178 70
118 144 130
69 103 164
61 98 164
63 99 167
62 98 160
62 98 163
62 99 170
62 99 171
63 99 169
62 99 168
62 98 169
61 98 169
62 99 169
62 99 171
62 99 171
62 99 173
63 99 176
62 99 173
62 98 171
62 99 169
62 98 170
63 99 173
62 98 168
62 99 174
62 99 170
62 98 169
62 98 171
62 99 178
62 99 177
62 99 174
62 99 175
62 99 173
62 99 174
62 99 173
62 99 178
62 99 174
61 98 173
62 99 178
62 99 178
62 98 178
61 98 174
62 99 175
62 99 178
62 99 175
62 99 177
62 99 176
62 99 176
63 99 179
62 99 178
62 99 173
62 99 178
63 100 179
62 99 176
63 99 180
63 100 179
63 99 178
62 99 173
62 99 175
61 98 178
62 99 176
62 99 179
62 99 178
63 100 179
62 99 178
62 99 178
62 99 176
62 99 177
62 99 177
62 99 177
62 99 177
62 99 178
62 99 178
62 99 179
62 99 175
62 99 176
62 99 177
62 99 177
61 98 177
62 99 176
62 99 178
61 98 173
62 99 173
62 99 175
62 99 175
61 99 177
61 98 175
62 99 177
62 99 176
62 99 178
62 99 175
62 99 175
62 99 175
63 100 179
62 99 176
62 99 179
62 99 177
63 99 175
62 99 176
62 99 176
63 99 178
63 99 174
62 99 176
62 98 173
63 99 173
61 98 171
62 99 178
62 99 179
62 99 178
63 100 179
63 99 175
62 99 175
63 99 174
62 99 179
62 99 175
62 99 173
62 99 174
62 99 173
62 99 174
62 99 173
61 98 172
62 98 171
62 98 171
62 98 173
63 99 174
61 98 171
61 98 174
63 99 172
62 99 174
61 98 173
61 98 171
61 98 169
62 99 170
62 99 171
62 98 168
63 99 173
62 99 176
61 98 164
63 99 171
62 98 167
63 99 173
62 98 170
62 99 175
62 99 170
62 98 170
61 97 168
62 99 170
61 97 165
62 98 170
62 98 169
61 97 165
62 98 170
62 99 173
62 97 161
62 98 168
62 97 162
62 98 163
61 97 166
60 95 159
61 96 163
62 97 165
59 94 152
61 97 164
61 96 165
62 97 168
59 91 149
57 87 142
45 68 97
39 54 59
38 50 43
35 45 36
41 53 46
40 52 43
37 48 39
41 55 46
39 51 42
40 52 41
44 57 45
40 52 41
43 57 49
47 61 53
47 61 52
45 60 51
48 65 55
48 64 54
49 64 54
55 68 58
56 69 57
69 79 61
66 77 63
72 81 62
78 85 65
81 88 64
100 103 73
106 109 77
113 114 74
118 119 82
120 120 83
124 123 80
119 120 80
134 132 80
137 135 88
147 142 89
149 144 89
150 146 85
160 155 94
150 146 91
159 153 91
153 149 87
162 156 93
162 156 95
168 161 97
168 161 93
175 167 99
173 165 93
178 169 98
178 169 95
181 171 98
180 171 102
179 170 94
182 172 101
181 172 99
183 173 101
184 174 103
182 173 103
182 173 106
184 174 103
183 173 104
180 171 97
182 173 101
185 175 105
181 172 99
183 173 101
184 174 104
183 173 101
186 175 104
182 173 101
182 172 99
181 172 100
183 174 103
183 173 102
183 173 101
182 173 100
182 173 101
183 174 102
180 171 95
182 173 100
182 172 99
181 171 97
180 171 97
182 172 97
183 173 101
181 171 97
182 172 97
182 172 97
182 172 99
177 169 90
179 170 94
183 173 99
182 172 97
181 172 95
181 172 95
181 171 94
183 173 99
179 170 91
180 171 93
181 171 93
180 170 91
180 171 94
181 171 92
176 167 86
178 169 87
179 170 90
177 169 86
180 170 91
179 169 87
179 169 89
175 166 77
175 167 80
175 166 79
175 166 80
171 163 74
175 167 79
177 168 83
173 164 76
168 161 68
171 163 68
174 165 75
167 160 61
168 160 66
168 160 63
168 160 69
162 155 63
165 157 65
163 155 67
160 154 59
160 156 56
152 150 49
158 161 44
153 156 32
155 161 37
161 172 32
160 171 28
162 176 28
165 180 28
162 180 11
163 179 16
170 189 11
169 189 0
170 191 0
171 194 0
169 193 0
172 195 0
171 195 0
172 196 0
172 195 0
172 196 0
174 197 0
174 197 0
171 195 0
172 195 0
174 197 0
173 196 0
174 197 0
171 195 0
171 195 0
172 196 0
172 196 0
172 195 0
171 195 0
173 196 0
173 196 0
172 195 0
171 194 0
173 195 0
172 196 0
173 195 0
171 195 0
172 195 0
174 197 0
173 196 0
170 194 0
173 196 0
174 197 0
173 197 0
175 198 0
173 196 0
174 197 0
171 195 0
175 198 0
173 196 0
172 196 0
173 196 0
173 197 0
170 194 0
170 194 0
172 196 0
174 197 0
170 194 0
169 193 0
173 197 0
172 194 0
173 197 0
173 195 0
168 191 0
173 196 0
170 193 0
168 192 0
173 196 0
173 195 0
173 196 0
168 193 0
171 194 0
170 194 0
171 194 0
171 195 0
172 196 0
174 197 0
173 196 0
171 193 0
172 194 0
174 197 0
173 196 0
170 194 0
170 192 0
173 197 0
167 191 0
170 193 0
174 197 0
170 194 0
172 194 0
173 197 0
170 193 0
169 193 0
168 191 0
171 194 0
172 196 0
170 194 0
172 195 0
166 189 36
141 165 99
106 134 136
62 98 164
63 99 173
62 99 167
62 98 165
62 98 165
62 98 163
62 98 171
62 99 166
62 98 168
62 99 170
62 99 170
62 98 171
63 99 169
62 98 165
63 99 173
62 99 175
62 99 173
62 98 170
63 99 176
62 99 172
63 99 178
62 99 173
61 98 170
62 99 177
62 99 176
62 99 173
62 99 173
61 98 173
61 98 172
63 99 174
62 98 169
62 99 177
62 99 176
62 98 174
62 99 175
62 99 170
63 99 179
62 99 175
62 99 176
63 99 177
62 99 175
62 99 178
62 99 178
62 99 176
62 99 177
62 99 178
63 99 175
62 99 173
61 98 176
62 99 175
62 99 174
62 99 171
62 99 176
63 99 178
63 99 178
62 99 177
62 99 177
63 99 176
62 99 178
62 99 177
62 99 178
62 99 174
62 99 176
62 99 179
62 98 170
62 99 177
62 99 177
61 98 175
62 99 177
62 99 176
62 99 179
62 98 174
62 99 174
62 99 177
62 99 174
62 99 177
62 99 175
61 98 175
62 99 180
62 99 177
62 99 176
62 99 173
62 99 178
62 99 178
63 99 177
62 99 178
62 99 179
62 99 176
62 99 177
62 98 172
62 99 178
62 99 174
62 99 177
62 99 178
62 99 176
62 99 175
62 99 173
62 99 177
62 99 177
62 99 175
61 98 171
62 99 177
62 99 177
62 99 177
63 100 178
62 98 172
63 99 179
62 98 172
61 98 170
62 99 173
61 98 174
63 99 174
62 98 175
62 99 174
63 99 177
61 98 173
63 99 174
64 100 179
63 99 171
62 98 173
62 99 173
62 99 175
62 98 167
62 99 174
63 99 173
62 99 173
62 99 173
63 99 175
62 98 171
62 98 170
62 99 173
62 99 172
62 99 171
62 98 173
62 99 175
62 98 172
62 98 170
62 99 169
62 98 169
62 98 169
62 99 172
62 99 169
62 99 173
61 98 172
63 99 170
61 98 170
62 98 170
62 98 166
62 98 169
62 99 175
62 98 164
62 98 168
61 97 168
61 97 167
61 97 160
62 98 162
61 97 162
62 97 166
61 97 162
62 96 160
61 97 163
61 95 152
61 96 157
59 93 153
56 86 130
50 74 109
44 61 74
39 53 59
37 48 41
37 49 38
39 52 46
41 54 47
37 49 41
43 56 48
42 55 47
44 57 47
45 59 50
46 60 50
43 56 47
44 59 49
48 64 56
48 63 52
52 67 58
49 65 56
54 67 56
58 70 57
71 81 64
64 75 58
64 75 56
80 88 64
92 97 67
95 100 67
110 111 77
107 109 71
118 118 77
119 120 80
129 127 85
137 135 87
130 128 81
136 133 80
143 140 84
149 145 86
156 151 91
146 142 86
156 150 90
147 143 90
169 162 96
160 155 92
168 160 96
171 163 98
168 161 95
169 161 95
173 165 97
176 168 96
182 172 101
177 169 94
178 169 97
178 170 97
182 172 99
183 173 103
181 172 98
181 172 97
180 171 99
182 173 100
184 175 105
177 169 94
181 172 98
182 173 100
184 174 104
186 176 109
183 173 101
182 172 99
182 173 101
182 172 98
182 172 99
183 173 101
182 172 100
182 173 100
180 171 95
181 172 97
182 172 99
181 172 98
179 170 93
183 173 100
181 172 97
182 172 100
179 170 95
182 173 99
180 171 95
179 171 96
175 167 80
178 169 91
180 171 97
179 170 93
179 170 91
181 171 94
183 173 98
179 170 92
178 169 90
180 170 93
182 172 96
182 172 97
181 171 94
177 169 89
181 172 95
181 171 93
179 170 90
177 168 87
172 165 75
180 170 91
176 167 83
173 165 77
175 167 80
175 166 78
176 167 83
175 167 78
171 163 71
175 167 81
173 165 78
173 165 77
175 166 78
173 165 75
175 166 74
174 166 75
167 159 63
170 162 64
167 160 65
169 161 70
169 162 72
166 158 62
166 157 66
158 151 58
154 149 51
151 147 39
141 137 39
151 150 41
159 161 42
157 160 45
157 167 32
164 173 41
154 164 25
163 178 22
164 177 22
167 184 22
167 186 0
169 189 0
170 190 0
174 195 0
172 196 0
173 197 0
174 197 0
171 195 0
170 194 0
172 195 0
173 197 0
173 197 0
174 197 0
173 197 0
172 195 0
172 195 0
172 195 0
172 195 0
167 191 0
171 194 0
173 195 0
171 195 0
170 194 0
171 194 0
173 196 0
173 197 0
172 195 0
173 196 0
172 196 0
172 196 0
172 195 0
170 194 0
171 194 0
172 195 0
171 194 0
172 196 0
173 197 0
172 194 0
173 196 0
172 196 0
173 197 0
170 193 0
171 195 0
170 194 0
172 196 0
174 196 0
169 193 0
173 196 0
169 193 0
171 194 0
170 194 0
173 197 0
169 192 0
169 192 0
172 196 0
172 195 0
172 196 0
167 190 0
170 194 0
174 196 0
173 195 0
173 196 0
170 193 0
170 194 0
170 193 0
171 195 0
168 191 0
175 197 0
163 187 0
174 197 0
170 193 0
168 191 0
172 195 0
171 194 0
170 193 0
168 192 0
169 192 0
171 195 0
172 195 0
173 197 0
172 195 0
167 189 0
170 193 0
170 193 0
172 195 0
170 193 0
172 195 0
170 194 0
172 195 0
169 193 0
171 194 0
171 195 0
171 195 0
161 185 54
128 154 114
78 111 154
63 99 165
62 98 163
62 98 161
62 98 163
62 99 168
62 98 169
62 99 171
62 99 170
62 99 169
62 99 168
62 98 167
62 98 167
63 99 174
61 98 164
62 98 171
61 98 167
61 97 162
62 98 167
62 99 176
62 98 171
63 99 175
62 99 171
63 100 178
62 99 174
61 98 173
63 99 176
62 99 172
62 98 171
62 99 176
62 99 173
62 99 171
62 99 175
62 99 175
62 99 175
63 100 177
62 99 172
62 99 179
63 99 175
62 99 175
62 99 177
62 99 176
62 98 173
62 99 178
62 98 174
62 99 175
62 99 176
63 100 176
63 99 177
61 98 176
63 100 180
62 99 179
62 99 176
63 99 179
62 99 177
62 99 177
62 99 178
62 99 175
62 99 177
61 98 172
63 99 176
62 98 174
62 99 176
63 100 175
62 99 175
62 99 177
62 99 177
62 99 178
62 98 172
62 99 176
62 99 179
62 99 174
61 99 177
63 99 176
62 99 179
62 99 178
63 100 179
62 98 175
63 100 180
62 98 172
62 99 175
62 99 177
62 98 172
63 99 175
62 99 177
62 99 178
63 99 178
62 99 178
62 99 176
62 99 176
62 99 174
63 100 178
62 99 176
61 98 175
63 99 175
62 99 169
62 99 179
63 99 175
62 99 174
62 99 174
63 100 180
62 99 173
62 99 174
62 99 175
63 99 173
62 99 175
62 99 173
62 99 173
63 100 179
62 99 176
62 99 178
62 99 173
62 99 172
63 100 178
61 98 173
62 99 173
62 99 175
62 99 172
63 100 178
62 99 173
62 98 172
62 99 176
62 98 173
62 98 172
62 98 168
62 99 175
62 99 174
62 99 175
62 99 176
61 98 169
62 98 172
62 99 172
62 99 174
62 99 174
62 99 173
62 98 170
63 99 174
62 99 176
62 98 171
62 99 176
62 99 169
62 99 172
61 98 165
63 99 171
62 98 171
61 97 166
62 98 169
62 98 170
61 97 164
62 98 168
62 98 167
61 97 167
62 97 168
63 99 168
61 97 160
61 98 171
62 98 169
62 97 160
61 96 160
61 95 156
61 97 162
60 95 161
61 96 166
61 96 160
61 96 162
59 93 153
54 83 129
44 64 86
40 54 55
36 47 35
36 48 40
39 51 43
36 46 36
40 53 45
42 56 47
40 53 43
43 57 49
44 58 50
44 57 47
42 54 40
45 59 47
46 60 49
47 62 54
45 59 47
46 62 54
51 64 53
58 69 52
67 78 63
75 84 62
83 90 64
83 90 66
84 91 64
100 104 72
95 99 67
114 115 78
119 120 76
107 109 70
118 118 77
131 129 79
128 127 78
134 132 83
143 140 86
144 140 83
152 147 88
148 145 88
155 149 90
149 145 90
155 150 86
162 156 94
167 160 93
168 161 92
169 162 91
169 161 89
175 167 94
179 169 100
177 168 95
180 171 97
175 167 92
180 171 97
177 168 93
177 169 89
178 169 89
181 171 98
180 171 96
181 172 99
181 172 99
182 172 97
183 173 102
181 172 97
181 172 97
178 169 90
182 172 97
183 173 101
184 174 103
181 172 101
183 173 100
181 172 96
183 173 100
182 173 101
182 172 99
181 171 95
180 171 95
181 171 97
181 171 95
180 171 93
181 171 95
182 173 99
179 170 93
180 171 93
179 170 93
178 169 92
179 170 93
178 169 89
181 172 97
178 169 89
180 170 91
179 170 93
182 172 98
180 171 93
179 170 91
179 170 91
179 170 89
179 170 92
178 169 87
179 170 91
178 169 87
176 168 85
174 166 80
178 169 87
178 169 84
174 166 80
180 170 89
178 169 84
176 167 84
176 167 80
177 168 82
173 165 76
172 165 75
174 166 78
170 163 67
169 161 64
169 162 71
172 164 73
171 163 70
172 164 71
171 162 77
169 161 68
167 160 61
163 157 56
165 158 64
168 160 66
163 156 63
161 154 60
160 153 60
153 147 48
151 148 44
154 152 47
155 157 39
154 158 36
155 160 41
163 173 30
161 173 16
165 180 19
166 182 22
165 183 19
166 185 16
169 190 0
169 190 0
174 195 11
173 196 0
174 197 0
173 197 0
170 194 0
172 196 0
171 194 0
171 195 0
172 196 0
171 194 0
171 194 0
169 193 0
171 195 0
174 198 0
174 197 0
169 193 0
169 193 0
171 194 0
170 193 0
175 198 0
173 195 0
172 196 0
172 196 0
168 191 0
170 192 0
175 197 0
173 197 0
171 195 0
171 195 0
173 197 0
169 193 0
172 195 0
171 194 0
174 197 0
172 196 0
171 194 0
172 195 0
170 192 0
171 195 0
173 196 0
170 194 0
175 198 0
171 195 0
174 197 0
169 192 0
170 194 0
170 193 0
172 195 0
170 193 0
173 196 0
169 192 0
172 195 0
172 195 0
171 194 0
169 193 0
171 195 0
171 194 0
169 192 0
174 198 0
172 195 0
171 195 0
171 195 0
168 192 0
171 194 0
172 195 0
170 193 0
173 195 0
171 194 0
168 191 0
170 192 0
171 194 0
169 192 0
173 196 0
172 195 0
170 195 0
173 197 0
169 193 0
173 194 0
170 193 0
168 192 0
171 194 0
171 194 0
171 195 0
170 193 0
169 192 0
170 192 0
171 192 0
170 193 0
167 190 0
166 190 25
156 180 74
116 142 122
69 103 159
62 98 157
62 98 164
61 97 158
62 98 168
62 98 170
62 99 170
62 98 167
62 99 171
62 98 165
62 98 165
62 99 168
62 99 174
62 99 175
63 99 171
62 99 171
62 99 169
62 98 170
62 99 174
62 98 169
62 99 175
62 99 179
62 99 176
63 100 176
62 98 173
62 99 172
61 98 169
63 100 176
62 98 173
63 99 176
62 99 174
62 99 172
62 99 174
61 98 168
62 98 174
63 100 178
62 98 171
62 98 172
62 99 174
62 99 173
61 98 174
62 99 178
61 98 176
62 99 178
62 99 176
62 99 179
61 98 170
62 99 176
63 99 179
63 100 180
62 99 176
62 99 177
62 99 175
62 98 172
62 99 175
62 99 174
62 99 172
62 99 179
61 99 178
62 99 176
62 99 176
62 99 174
63 100 178
62 99 176
62 99 172
62 99 175
61 98 174
62 99 177
62 99 176
62 99 177
63 100 175
62 99 176
62 99 178
62 99 176
61 98 170
62 99 177
62 99 181
62 99 179
62 99 174
62 99 174
62 99 171
63 99 179
62 99 177
62 99 174
62 99 177
62 99 176
62 99 173
63 100 178
62 99 175
62 99 178
62 99 177
62 99 176
62 99 174
62 99 175
62 99 177
62 98 170
62 99 173
63 100 178
63 99 176
62 99 173
62 99 176
62 99 176
62 99 177
62 99 178
62 99 174
62 99 175
62 99 173
62 99 173
62 99 175
61 98 171
62 99 176
62 99 173
62 99 175
62 99 175
63 99 176
63 99 177
63 99 173
62 99 177
62 99 172
63 99 172
62 98 171
62 99 175
63 99 179
62 98 171
62 99 175
62 99 175
62 99 175
62 99 175
62 99 179
62 99 172
63 99 176
62 99 173
62 98 171
62 99 171
62 98 171
63 100 173
61 98 171
62 99 174
62 98 170
61 98 169
62 98 167
62 98 167
62 98 170
63 99 175
63 99 173
62 99 173
62 98 170
62 99 171
63 99 173
62 99 173
62 98 162
62 98 166
61 97 165
62 98 163
61 97 161
61 97 163
62 97 165
61 96 159
61 97 166
62 97 164
60 95 152
61 95 150
60 94 157
60 95 154
60 95 156
60 94 156
56 87 139
49 73 103
35 47 43
38 51 51
34 45 37
37 49 36
36 48 42
39 52 44
41 54 45
41 54 44
43 57 48
42 55 46
45 60 52
45 59 53
46 59 49
45 59 47
46 61 51
52 67 56
45 59 48
51 68 58
50 64 53
55 69 59
73 82 65
85 91 63
85 91 64
85 91 60
93 98 63
114 114 77
113 114 72
109 112 73
115 116 75
125 124 75
128 127 77
133 131 80
131 129 79
142 139 88
150 145 83
153 148 88
150 145 87
162 155 89
151 146 86
164 157 91
160 155 93
168 161 91
168 160 91
167 160 94
169 162 95
170 163 92
171 163 92
171 164 89
180 170 92
179 170 96
179 170 92
177 168 91
181 171 100
177 169 94
181 171 96
180 171 97
180 172 97
181 172 96
176 168 88
182 173 99
182 173 98
184 174 103
181 172 99
180 170 94
180 171 94
182 173 99
182 173 100
177 169 93
182 173 97
180 171 93
178 169 90
181 172 97
178 170 91
180 170 93
182 172 97
182 172 97
182 173 99
180 171 93
181 172 96
179 171 94
180 170 92
182 172 98
179 170 92
180 171 95
179 170 91
181 172 96
180 171 95
175 167 84
179 170 93
182 172 97
177 169 90
179 170 88
180 170 92
180 171 93
175 167 82
178 169 89
175 166 83
176 167 84
176 168 83
177 169 87
176 168 84
179 169 86
175 167 82
174 166 76
176 167 80
177 168 84
172 165 75
173 165 77
171 164 72
179 169 86
173 165 72
169 162 65
173 165 75
172 164 71
175 166 77
169 162 66
168 161 61
170 163 67
168 161 62
163 158 59
168 161 63
162 155 59
166 159 65
162 155 61
155 149 53
154 149 48
157 152 54
149 147 44
156 157 41
153 158 32
159 166 42
158 162 47
164 175 28
153 163 25
160 175 16
162 179 22
163 183 16
166 183 11
173 194 0
171 192 11
171 192 0
172 195 0
174 197 0
173 197 0
172 196 0
173 196 0
173 196 0
169 193 0
169 193 0
174 197 0
172 196 0
170 194 0
170 193 0
171 194 0
171 194 0
172 196 0
171 194 0
170 194 0
172 196 0
172 195 0
172 195 0
172 196 0
173 196 0
173 196 0
172 195 0
170 192 0
173 195 0
168 193 0
172 196 0
170 194 0
173 196 0
170 193 0
172 195 0
172 196 0
169 192 0
172 196 0
169 193 0
172 195 0
171 193 0
172 196 0
171 194 0
173 197 0
173 196 0
170 193 0
170 194 0
173 196 0
169 193 0
172 196 0
173 196 0
169 192 0
171 194 0
171 194 0
173 196 0
169 193 0
173 197 0
172 195 0
172 194 0
170 193 0
168 192 0
173 196 0
174 197 0
168 192 0
169 193 0
172 195 0
169 192 0
170 194 0
171 195 0
170 194 0
174 198 0
170 193 0
173 195 0
169 193 0
169 193 0
170 194 0
170 194 0
170 193 0
169 192 0
167 192 0
171 195 0
174 197 0
171 194 0
169 193 0
173 195 0
170 193 0
169 193 0
173 195 0
167 191 0
165 189 0
170 193 0
168 192 31
145 170 99
92 121 140
62 97 155
62 98 157
62 98 165
62 99 168
62 98 167
63 99 171
62 99 169
62 98 168
61 98 168
61 98 166
61 97 160
62 99 171
62 98 171
63 99 175
61 98 168
62 98 169
62 99 171
62 98 171
62 98 169
62 99 172
61 98 171
63 99 173
62 99 172
63 99 170
61 98 171
62 99 178
63 100 177
62 98 170
62 99 171
62 99 173
62 99 177
62 99 175
62 98 171
63 100 175
62 99 177
62 99 175
62 99 175
63 100 179
62 99 173
63 99 174
62 98 169
62 99 175
62 99 177
62 99 177
62 99 179
62 99 175
62 99 176
63 99 178
62 99 177
62 99 172
63 99 175
62 99 176
62 99 178
62 99 180
62 99 174
62 99 177
62 98 177
62 99 176
62 99 176
62 99 175
63 100 178
62 99 178
62 98 175
63 99 171
62 99 177
62 99 177
62 99 175
62 99 176
62 99 176
62 99 175
62 99 178
62 99 173
63 99 176
63 99 175
62 99 176
62 99 174
62 99 175
62 98 170
62 99 176
62 99 178
62 99 171
63 99 176
62 99 180
63 99 177
61 98 171
62 99 175
62 99 175
62 99 177
62 99 177
62 99 173
63 99 175
62 99 177
62 99 176
62 99 176
62 99 177
62 99 176
62 99 176
62 99 180
62 99 175
62 99 171
62 99 176
61 98 171
62 99 177
62 99 171
62 99 175
62 99 177
63 100 176
62 99 174
62 99 175
62 99 172
62 99 173
62 99 174
62 99 174
62 98 170
62 99 176
61 98 174
62 99 171
62 99 171
62 99 176
62 98 171
62 99 176
62 99 175
62 99 173
62 99 176
62 98 169
62 98 173
62 99 174
62 99 177
62 99 173
62 98 167
62 99 176
63 99 173
62 98 174
62 99 174
62 98 169
63 99 174
62 99 170
62 99 171
62 99 170
63 99 172
62 99 172
62 99 171
61 98 169
62 99 170
62 98 167
61 98 166
62 98 170
62 98 167
61 98 168
62 98 170
62 98 163
61 98 167
62 98 168
62 98 170
62 98 168
61 97 166
62 98 163
62 98 167
62 97 165
61 97 165
62 97 159
61 96 163
60 94 151
62 98 168
60 93 147
61 96 156
59 91 149
51 77 118
42 62 87
39 54 62
35 46 39
38 50 39
37 49 40
37 49 38
37 48 36
42 54 45
43 57 46
43 57 48
45 59 48
44 56 45
45 60 49
44 58 44
46 60 51
47 62 51
46 62 55
49 65 57
55 68 54
73 81 59
65 75 58
77 86 64
75 84 59
87 93 67
85 91 63
88 94 69
112 113 70
108 110 69
115 116 73
115 117 73
126 126 74
132 130 80
140 137 83
132 130 78
139 136 81
152 147 85
154 148 89
154 149 85
160 154 89
150 146 79
163 156 88
164 158 89
154 149 84
170 162 93
169 161 88
174 166 93
176 167 96
176 167 92
175 166 90
175 167 92
179 170 98
176 168 90
180 171 95
181 172 98
177 168 90
182 172 96
181 172 97
179 171 95
178 169 94
180 171 94
182 173 100
179 171 95
180 171 94
179 170 91
179 170 92
183 173 100
182 172 97
179 170 92
179 170 91
181 172 95
182 172 97
182 173 97
178 170 92
178 170 90
184 173 99
180 170 93
179 170 91
180 171 93
179 170 92
180 171 95
177 169 89
179 170 90
177 169 88
179 170 92
179 170 91
172 165 79
178 170 90
177 168 87
180 171 93
180 171 90
182 172 95
183 173 99
179 170 93
180 171 91
178 168 84
177 168 84
179 170 89
177 168 84
175 167 80
177 168 86
180 171 93
177 168 86
174 166 79
177 168 86
176 167 79
177 167 83
177 168 81
174 166 77
176 167 79
173 165 78
177 167 81
171 163 69
176 167 80
173 165 75
170 163 66
168 161 64
169 162 63
166 159 60
170 162 70
168 160 64
165 159 61
167 159 66
158 152 51
162 155 63
159 152 52
157 151 52
153 149 45
156 156 42
157 157 44
152 155 36
150 155 34
153 159 45
162 170 34
162 172 36
160 175 16
166 183 16
168 188 22
169 187 22
172 192 0
171 192 0
171 193 0
170 194 0
173 196 0
172 196 0
170 194 0
172 195 0
172 196 0
174 197 0
173 197 0
172 195 0
172 195 0
170 193 0
173 196 0
172 195 0
174 197 0
168 192 0
172 195 0
172 195 0
168 191 0
174 197 0
174 197 0
171 194 0
172 195 0
174 197 0
172 196 0
172 196 0
169 193 0
169 192 0
172 195 0
172 196 0
173 197 0
171 194 0
172 195 0
174 197 0
170 194 0
173 196 0
168 191 0
171 195 0
169 193 0
173 196 0
168 192 0
172 195 0
170 193 0
175 197 0
172 195 0
171 195 0
172 194 0
173 197 0
171 194 0
171 193 0
174 197 0
170 193 0
171 195 0
171 195 0
175 198 0
170 194 0
172 196 0
173 196 0
169 193 0
173 196 0
172 196 0
169 193 0
167 191 0
170 193 0
172 196 0
170 193 0
171 194 0
171 194 0
171 195 0
173 197 0
170 194 0
172 194 0
172 196 0
169 194 0
169 193 0
171 194 0
172 195 0
172 196 0
169 193 0
169 192 0
169 193 0
173 196 0
168 190 0
167 191 0
172 194 0
171 194 0
170 193 0
169 193 0
169 192 18
156 179 67
122 148 127
83 114 159
61 97 160
62 98 168
62 98 162
62 98 168
62 99 169
61 97 163
62 99 172
62 98 164
62 99 169
62 99 170
62 99 164
62 98 172
61 98 168
62 99 170
62 99 171
62 99 172
62 99 170
62 98 169
61 98 170
62 98 168
62 99 175
63 100 175
62 98 169
62 99 174
62 99 177
62 99 173
61 98 177
62 98 170
62 98 172
62 99 175
62 98 165
63 99 175
63 99 175
62 99 180
62 99 173
62 99 173
62 99 175
62 99 176
62 98 173
63 99 175
62 99 179
61 98 173
63 99 177
62 99 179
62 99 176
63 100 179
63 100 179
62 99 173
63 100 174
62 99 176
62 99 178
62 99 174
62 99 175
62 99 181
62 99 173
62 99 175
62 99 179
62 99 177
61 99 178
62 99 173
62 99 171
63 100 177
62 99 178
63 99 176
62 99 178
62 99 173
62 99 177
62 99 178
62 99 179
62 99 176
62 99 176
62 99 177
62 99 176
61 98 175
62 99 175
62 99 176
62 99 175
62 99 181
63 100 180
62 99 178
62 99 176
62 99 178
62 99 177
62 99 177
62 99 175
62 98 169
62 99 174
61 98 173
61 98 171
63 99 175
63 99 178
63 100 179
62 98 169
62 99 176
62 99 176
63 100 177
63 99 175
62 99 174
62 99 176
62 99 176
62 99 177
62 99 170
62 98 169
61 98 173
62 99 177
61 98 174
62 99 169
62 99 179
62 99 174
62 98 171
62 99 174
62 99 174
62 99 176
62 98 169
62 99 174
62 99 174
62 99 172
62 99 173
63 100 175
63 99 174
63 99 174
62 99 174
63 100 175
63 99 174
62 99 173
63 99 175
61 98 166
62 99 170
62 99 175
62 99 172
63 99 171
62 98 171
62 98 170
61 98 167
63 100 174
62 99 173
63 99 170
62 98 167
62 98 169
62 98 165
62 99 176
61 98 167
62 98 165
62 98 166
63 99 167
63 99 170
62 99 169
62 98 166
62 98 165
62 98 166
61 98 167
62 98 170
62 98 165
62 98 170
62 97 160
62 98 167
62 97 163
61 96 163
62 98 170
62 97 161
60 96 162
62 97 162
63 98 165
61 95 157
60 94 149
61 95 153
58 92 148
53 80 124
48 70 96
42 58 69
35 47 42
36 47 39
38 51 42
39 51 41
40 53 45
40 53 43
41 54 43
41 53 39
45 60 51
43 57 49
46 61 53
45 59 49
47 62 51
47 61 52
47 62 51
52 65 53
63 73 56
61 72 57
62 74 54
59 71 54
72 82 59
75 84 63
90 94 65
99 103 67
117 118 73
101 104 71
117 117 70
127 126 80
123 123 75
126 126 74
121 121 73
143 140 85
136 134 78
143 140 78
155 149 88
156 151 83
151 146 83
154 150 79
164 157 86
162 155 85
162 156 84
162 156 82
170 162 82
169 162 86
172 165 85
175 167 86
179 170 94
177 168 91
175 167 89
179 170 95
178 169 92
180 171 93
177 169 88
177 169 92
180 171 93
181 171 99
177 169 87
183 173 99
182 172 96
177 169 88
180 171 94
177 169 87
180 170 90
182 172 97
181 171 93
181 172 97
179 170 95
178 170 93
178 169 89
178 170 90
181 171 95
179 170 91
181 171 93
180 170 93
180 170 90
179 170 90
178 169 90
178 169 90
175 167 82
181 171 93
176 167 84
179 170 90
176 168 87
176 168 85
178 169 86
181 171 94
178 169 87
178 169 86
176 167 86
178 169 86
174 165 81
171 163 76
179 170 89
176 167 84
178 169 85
176 167 84
180 170 90
172 165 77
176 167 82
175 167 80
174 166 77
176 167 82
173 165 75
174 166 78
171 164 74
173 165 75
172 164 72
173 165 75
173 165 75
173 165 75
170 163 67
176 167 80
172 164 69
168 161 64
170 162 63
169 161 61
166 158 62
169 162 66
168 160 64
156 150 53
164 157 61
158 152 53
156 150 49
151 145 47
149 146 45
152 151 41
151 153 39
155 159 41
155 164 22
154 164 25
160 172 32
163 179 19
167 183 19
160 175 16
165 183 0
170 190 19
169 191 0
172 193 0
173 194 0
169 193 0
174 197 0
171 195 0
172 196 0
173 196 0
176 198 0
169 192 0
173 196 0
173 196 0
174 197 0
171 195 0
174 197 0
173 196 0
172 195 0
174 197 0
172 195 0
172 195 0
172 195 0
172 195 0
170 194 0
173 197 0
171 195 0
173 195 0
174 196 0
171 194 0
169 193 0
173 196 0
171 194 0
170 194 0
172 196 0
167 191 0
171 195 0
173 197 0
171 195 0
169 193 0
174 197 0
174 198 0
174 196 0
171 193 0
171 194 0
173 197 0
170 193 0
170 194 0
170 193 0
170 192 0
174 197 0
169 192 0
172 195 0
170 194 0
170 193 0
172 194 0
169 193 0
171 194 0
168 192 0
172 195 0
172 196 0
170 194 0
170 194 0
169 192 0
170 194 0
172 195 0
173 197 0
172 194 0
171 194 0
172 195 0
172 195 0
170 193 0
167 190 0
170 193 0
170 193 0
168 191 0
169 193 0
171 194 0
167 191 0
170 192 0
170 194 0
169 192 0
169 193 0
170 194 0
170 194 0
170 193 0
171 193 0
168 191 0
171 194 0
171 194 0
173 196 0
169 192 0
166 189 25
147 171 78
99 127 140
61 97 163
62 99 167
61 97 155
62 98 165
61 97 159
62 98 167
63 99 165
62 98 162
62 99 172
63 99 171
62 98 166
62 98 168
62 98 172
62 98 170
62 99 169
62 98 167
62 99 167
62 98 169
62 99 173
62 98 172
62 98 168
63 99 170
62 99 174
62 99 174
62 99 174
62 98 173
62 98 170
62 99 175
62 99 176
63 99 171
63 99 176
62 99 170
63 100 180
62 99 175
62 99 173
63 99 174
62 99 176
62 98 172
62 99 177
62 99 175
62 99 175
62 99 173
62 99 176
63 99 177
62 99 173
63 100 179
62 99 179
62 99 173
62 99 172
61 98 170
61 99 178
62 99 176
61 98 176
62 98 173
62 99 173
62 99 175
62 99 175
62 99 176
62 99 176
62 99 175
62 99 178
62 99 177
62 99 176
63 99 177
62 99 174
62 99 171
62 99 177
62 99 174
62 99 177
62 99 175
62 99 177
62 99 175
62 99 175
62 99 178
62 99 173
62 99 176
62 99 179
63 99 173
63 100 179
62 99 176
62 99 169
62 99 175
62 99 177
62 98 171
62 99 178
63 99 177
62 99 178
62 98 173
62 99 175
62 99 173
63 99 174
62 99 174
62 99 177
62 99 176
61 98 165
62 99 172
63 99 178
63 99 179
62 99 177
63 100 175
61 98 171
62 99 173
62 99 173
62 98 171
62 98 174
62 99 176
62 99 175
62 98 171
61 98 175
62 98 170
62 99 178
63 99 175
62 98 172
62 99 171
62 99 177
62 99 175
63 99 174
62 98 171
62 99 171
62 99 169
62 99 172
61 98 167
62 99 174
61 98 173
62 98 174
62 99 173
62 99 175
62 99 173
63 100 176
62 98 165
63 100 176
62 99 176
62 99 170
62 98 170
63 99 172
62 98 169
61 98 167
62 99 172
62 99 172
62 98 169
62 98 169
62 98 168
62 98 166
62 99 171
62 98 169
62 98 168
61 97 165
62 99 170
62 98 166
62 98 164
61 97 163
62 98 169
62 98 170
62 97 165
62 98 167
61 97 160
60 97 161
62 98 164
62 97 165
61 97 162
61 96 158
62 97 164
62 97 157
61 96 161
61 96 163
62 98 165
61 95 159
60 94 156
57 89 147
48 71 104
40 55 64
37 50 49
37 49 38
38 50 40
37 48 40
39 51 41
38 50 41
41 54 45
44 58 49
43 57 43
43 56 44
42 55 44
44 58 45
45 59 48
53 66 53
49 64 53
51 64 53
64 75 55
56 69 55
70 79 51
71 81 60
77 84 58
91 96 66
94 99 64
91 96 67
102 105 71
97 100 61
113 114 70
118 118 67
124 124 70
135 132 81
129 127 72
131 129 71
142 139 80
138 136 76
141 138 79
141 138 75
144 141 78
156 151 81
159 153 82
159 153 86
172 163 90
162 156 85
167 160 90
165 158 89
174 166 87
173 165 87
179 170 93
176 167 94
176 168 87
176 168 89
178 169 92
178 169 87
177 169 90
177 169 87
181 172 96
177 168 88
178 169 92
180 170 92
178 169 88
175 167 84
175 167 84
178 170 91
178 169 90
181 171 91
180 171 94
181 171 95
181 171 91
182 172 97
179 169 90
179 170 90
178 169 89
179 170 93
180 170 92
177 168 89
180 171 93
177 169 87
176 168 84
177 168 86
177 169 88
180 171 93
171 163 75
179 169 87
177 169 87
178 169 86
177 168 87
177 169 87
174 166 81
176 168 84
178 169 86
175 167 80
180 170 91
177 168 88
178 169 87
177 168 84
176 168 83
176 167 80
176 167 80
172 164 74
175 167 80
178 168 85
172 165 76
175 166 78
172 164 72
173 165 75
173 165 75
172 164 72
173 165 73
173 165 75
170 163 73
173 165 75
173 165 75
169 162 64
171 163 72
167 161 63
168 161 65
163 157 58
163 156 57
160 154 54
160 154 51
160 154 57
157 151 47
153 148 47
154 149 47
157 151 45
157 154 51
162 161 49
156 154 47
157 164 34
153 162 32
158 167 34
155 165 19
162 176 25
158 174 19
162 178 16
167 186 11
171 192 0
173 192 0
172 194 0
173 194 0
172 195 0
173 196 0
174 197 0
171 195 0
171 195 0
173 196 0
172 196 0
169 193 0
171 194 0
171 195 0
169 192 0
174 197 0
171 194 0
172 196 0
172 196 0
171 195 0
174 196 0
173 197 0
171 194 0
171 196 0
172 196 0
171 194 0
170 194 0
168 191 0
169 192 0
172 196 0
171 195 0
171 193 0
172 195 0
169 192 0
173 196 0
170 194 0
172 195 0
171 193 0
170 192 0
171 193 0
171 195 0
171 194 0
172 194 0
171 194 0
167 190 0
168 191 0
172 195 0
169 193 0
170 193 0
172 196 0
168 191 0
171 195 0
173 197 0
170 193 0
173 195 0
172 196 0
169 193 0
169 193 0
171 194 0
172 196 0
171 195 0
171 193 0
173 196 0
171 193 0
166 189 0
169 192 0
170 193 0
169 193 0
172 196 0
170 193 0
167 191 0
172 195 0
169 191 0
172 196 0
171 193 0
170 193 0
172 195 0
172 195 0
172 194 0
169 193 0
169 192 0
172 196 0
172 195 0
170 193 0
174 197 0
166 188 0
170 193 0
168 191 0
167 191 0
168 191 0
171 195 0
162 185 57
137 161 97
92 121 141
62 98 160
62 98 166
61 97 159
61 97 163
61 97 164
61 97 159
62 98 165
62 98 166
62 99 174
61 98 168
62 98 165
62 99 173
62 98 167
62 98 167
62 99 167
62 99 173
62 98 167
62 98 171
62 99 173
62 99 169
62 99 168
62 98 168
62 99 176
62 99 174
62 99 171
62 98 171
62 98 171
63 99 176
62 99 170
62 99 172
62 99 177
61 98 168
62 99 177
62 99 175
62 99 174
62 99 175
63 100 175
62 99 175
63 99 178
61 98 176
62 99 175
62 99 177
62 99 175
63 100 176
62 99 175
62 99 176
62 99 173
62 99 178
62 99 177
62 99 177
62 99 174
62 99 178
62 99 176
62 99 175
62 99 175
62 98 175
63 100 179
61 98 174
62 99 178
62 99 177
62 99 176
61 98 176
62 98 174
62 99 174
62 99 177
62 99 178
62 99 176
62 99 178
62 99 172
62 99 176
62 99 175
62 99 177
63 99 174
62 98 170
62 99 175
62 99 173
62 99 173
62 98 173
63 100 179
62 98 170
62 99 174
61 98 173
62 99 171
61 99 177
62 99 174
62 98 174
62 99 176
62 99 171
62 99 169
62 99 175
62 99 175
61 98 176
62 99 177
62 99 177
62 98 171
63 99 175
62 99 174
63 99 173
62 99 170
62 99 176
63 99 176
62 99 177
62 99 176
62 99 170
62 99 178
62 99 174
62 99 172
62 99 171
62 99 175
62 99 174
62 99 171
62 99 175
62 99 172
62 99 171
63 99 177
62 99 171
62 98 172
62 98 169
61 98 170
62 99 173
62 99 173
61 98 172
63 99 175
62 99 171
62 98 170
62 99 171
62 98 167
62 99 173
62 98 172
62 98 169
62 99 171
63 99 170
62 99 174
63 99 172
61 98 168
62 99 170
62 99 174
62 99 169
62 98 170
62 98 166
62 98 166
62 99 171
62 99 173
61 98 169
62 98 170
62 98 170
61 97 161
62 99 172
62 98 168
62 99 171
62 99 172
62 99 169
61 96 161
62 98 160
62 98 168
62 97 163
62 98 167
61 97 166
61 97 163
62 98 168
61 97 169
61 97 163
61 96 155
61 96 160
62 96 158
61 96 158
61 95 157
60 94 156
59 92 153
52 78 113
40 57 72
38 50 56
36 47 37
38 48 37
40 52 40
38 49 38
41 53 43
40 53 40
42 54 39
41 54 43
42 56 43
45 58 44
42 54 40
46 60 47
47 62 50
51 64 50
49 61 45
55 67 52
63 73 54
72 82 59
82 89 56
79 87 62
87 92 61
96 100 63
95 99 61
102 105 67
110 111 69
107 109 68
116 116 70
119 119 70
121 121 66
134 132 74
133 131 75
145 141 79
145 141 75
142 139 77
159 152 83
155 149 89
150 145 82
150 145 81
154 149 77
167 159 82
169 162 85
165 158 78
167 160 85
171 163 88
175 167 93
177 169 93
176 168 89
178 169 89
177 168 85
181 171 93
176 168 87
178 169 90
178 169 88
178 169 87
177 168 87
177 168 87
177 169 93
178 169 87
178 169 89
182 172 95
177 168 87
178 169 87
177 168 85
176 168 84
181 171 93
179 170 90
175 167 87
177 169 87
177 169 85
177 168 84
177 169 88
180 170 90
179 170 92
175 167 86
182 171 95
180 171 95
177 168 88
179 170 91
175 167 84
179 170 90
178 169 89
181 172 95
174 166 82
178 169 90
176 168 84
177 168 86
181 171 93
176 166 84
171 164 74
180 170 89
173 165 77
175 167 84
174 165 76
176 167 82
172 164 75
172 165 75
175 166 79
171 164 73
174 166 76
172 164 74
169 161 66
171 164 69
175 166 80
173 165 74
170 163 69
176 167 78
171 163 71
172 164 69
168 160 65
170 163 69
165 159 57
169 162 66
172 163 70
167 159 59
162 156 51
164 155 59
167 160 60
162 155 53
156 151 44
159 152 58
162 155 57
154 148 47
156 151 42
159 155 49
149 153 36
156 159 34
157 165 34
158 166 34
160 168 36
166 180 25
164 176 28
164 179 25
164 182 16
169 189 16
167 187 11
171 192 0
174 196 0
172 192 0
171 194 0
173 196 0
171 194 0
172 196 0
173 196 0
172 195 0
173 197 0
171 195 0
172 195 0
171 195 0
169 193 0
173 196 0
172 195 0
173 196 0
170 194 0
169 192 0
172 195 0
172 195 0
171 194 0
175 197 0
173 196 0
172 195 0
171 195 0
168 192 0
173 196 0
171 194 0
168 191 0
171 195 0
171 195 0
173 196 0
172 196 0
172 196 0
172 194 0
174 197 0
168 192 0
170 194 0
173 196 0
172 196 0
173 196 0
171 195 0
168 192 0
170 194 0
168 190 0
172 195 0
173 197 0
169 193 0
172 196 0
174 197 0
172 195 0
167 190 0
170 193 0
171 194 0
173 196 0
171 194 0
173 197 0
170 193 0
171 194 0
170 193 0
172 195 0
174 197 0
168 193 0
173 195 0
167 190 0
171 195 0
169 192 0
172 194 0
168 192 0
169 193 0
169 191 0
172 195 0
171 195 0
168 191 0
171 195 0
170 193 0
167 190 0
171 194 0
169 192 0
170 193 0
170 192 0
170 193 0
171 195 0
171 194 0
167 190 0
172 195 0
169 192 0
169 192 0
170 193 18
158 181 51
113 139 127
72 105 153
62 98 160
62 98 162
61 97 159
62 98 165
62 98 164
62 98 160
62 98 163
62 98 168
61 98 164
62 99 167
62 98 162
62 98 162
62 98 168
62 99 169
61 98 170
62 99 173
62 99 175
62 98 166
62 99 172
62 99 174
62 98 164
62 99 174
62 99 172
61 98 171
62 99 177
62 99 173
62 99 177
61 97 169
62 99 176
62 99 172
62 99 175
62 99 175
62 99 173
63 100 178
62 99 173
62 99 173
62 99 175
61 98 167
62 99 177
63 99 178
62 98 168
62 99 174
62 98 172
62 99 174
62 99 177
62 98 172
62 99 177
62 99 177
62 98 169
63 99 173
62 99 178
62 99 176
62 99 174
62 99 179
63 100 180
62 99 176
62 99 174
62 99 175
63 100 179
62 99 177
62 99 177
62 99 176
62 99 177
62 98 169
63 100 179
62 99 175
63 100 178
62 99 177
62 99 176
62 99 175
61 98 172
62 99 175
62 99 175
63 99 178
62 98 174
62 99 174
62 99 180
62 99 174
62 99 175
64 100 180
62 99 173
62 99 173
63 100 177
62 98 172
62 98 172
61 98 173
62 99 175
62 99 172
63 100 177
62 99 175
62 99 174
62 99 174
62 99 172
62 99 173
63 99 175
62 99 174
62 99 174
62 99 170
62 99 174
63 100 177
62 99 173
61 98 171
62 99 175
63 99 176
62 99 179
62 99 172
62 99 180
62 99 174
62 99 170
63 99 175
63 99 175
62 98 170
63 99 175
61 98 167
62 98 167
62 99 172
62 99 174
61 98 166
62 99 172
62 98 165
61 98 169
62 99 172
62 99 176
63 100 174
63 99 172
62 99 170
62 99 175
62 99 175
62 98 166
62 99 173
63 99 174
62 99 172
62 98 170
62 99 169
62 99 171
62 99 173
63 99 173
62 99 165
62 99 170
62 99 167
61 98 164
62 98 169
62 98 169
62 98 165
62 99 174
63 99 171
61 97 166
62 99 169
63 99 173
63 99 169
62 99 171
61 97 160
62 98 162
61 98 165
62 98 166
61 97 162
61 97 163
62 97 159
61 96 156
62 97 165
62 98 165
61 96 162
62 98 166
61 96 158
61 95 154
60 95 153
60 94 155
60 94 152
60 93 154
55 85 130
47 69 101
42 58 62
37 49 37
35 45 34
37 48 37
39 51 40
39 50 39
41 54 43
41 53 42
41 53 41
44 57 47
47 62 51
42 55 39
44 58 46
44 59 46
51 66 54
52 67 52
43 57 44
54 68 48
53 68 55
66 77 51
80 87 65
87 93 55
97 102 65
101 104 58
102 105 63
120 119 70
107 108 65
122 122 69
127 126 68
140 135 77
136 133 79
127 127 75
141 137 79
138 135 73
143 139 75
148 143 74
147 143 79
150 145 72
158 152 85
163 156 85
161 155 80
159 154 83
168 161 82
165 159 82
173 165 86
170 163 80
169 162 71
175 167 89
174 165 89
169 163 75
175 167 85
178 169 87
179 170 90
177 168 85
178 169 88
181 171 93
171 164 81
176 168 87
179 170 90
177 168 84
180 170 90
180 170 90
178 169 86
177 168 86
174 166 80
179 169 90
178 169 89
178 169 85
178 169 90
176 167 84
177 169 87
179 170 90
175 167 83
177 168 87
174 166 81
177 168 86
177 169 85
176 168 84
181 171 93
176 168 82
179 170 90
177 168 86
173 165 76
178 169 87
179 169 88
175 167 82
176 167 85
175 166 80
175 167 79
175 167 79
173 165 76
177 168 84
178 168 84
176 167 80
171 164 74
175 166 75
176 167 82
174 166 78
169 162 68
176 167 80
177 168 83
170 163 73
169 162 66
170 162 71
172 164 74
173 165 74
169 162 67
169 162 67
172 163 68
169 161 62
169 162 63
167 160 64
165 159 57
165 158 56
168 161 60
168 161 62
162 156 51
159 153 49
155 149 47
155 149 48
157 151 47
153 146 51
148 144 37
152 149 41
156 154 48
153 154 39
146 148 34
152 160 28
154 158 32
158 167 19
157 168 16
163 178 22
159 174 11
166 185 11
166 186 11
168 188 0
171 192 0
172 195 0
172 193 0
176 198 0
173 196 0
171 194 0
170 195 0
172 195 0
169 194 0
170 194 0
171 193 0
172 195 0
174 197 0
171 195 0
171 195 0
173 196 0
173 196 0
171 195 0
171 194 0
172 196 0
172 195 0
172 195 0
174 196 0
172 194 0
173 197 0
171 195 0
169 192 0
171 194 0
172 196 0
171 194 0
167 191 0
171 194 0
169 192 0
170 193 0
170 193 0
172 195 0
172 195 0
171 195 0
171 193 0
174 196 0
173 196 0
171 194 0
172 196 0
172 195 0
174 196 0
171 195 0
171 195 0
169 193 0
171 195 0
170 194 0
173 195 0
171 195 0
170 194 0
172 195 0
171 195 0
171 194 0
172 196 0
172 195 0
173 196 0
171 195 0
172 194 0
171 195 0
172 196 0
170 193 0
171 194 0
169 193 0
172 196 0
167 190 0
172 195 0
170 194 0
169 192 0
171 194 0
171 194 0
171 194 0
174 197 0
169 193 0
165 189 0
172 195 0
170 194 0
169 192 0
167 190 0
168 192 0
166 190 0
171 194 0
170 194 0
168 191 0
168 192 0
169 192 0
171 194 0
172 196 0
151 174 76
115 141 127
65 100 162
61 97 162
62 99 170
61 97 165
62 98 163
63 99 166
61 98 163
62 99 163
63 99 168
61 98 163
62 98 169
63 99 170
62 98 164
61 97 168
62 98 170
62 99 166
62 99 172
62 99 176
62 99 172
62 99 173
61 98 168
62 98 167
62 99 166
62 99 171
62 99 172
62 99 170
62 99 172
62 98 172
62 98 171
62 99 173
62 99 176
62 99 171
62 99 173
62 99 171
62 99 171
62 98 171
62 99 177
62 99 174
62 99 172
61 98 169
62 99 175
62 99 177
62 99 174
62 99 174
62 99 178
63 99 176
62 99 178
62 99 177
63 99 176
63 99 173
62 99 172
62 99 177
63 100 180
63 100 177
62 99 174
62 99 174
62 98 172
62 99 174
63 99 179
62 99 175
62 99 178
62 99 172
62 99 177
63 99 172
63 99 176
62 99 175
62 99 175
62 99 176
63 99 179
61 98 174
62 99 174
61 98 173
62 99 177
62 99 176
62 99 179
62 99 174
63 99 176
63 99 172
62 99 177
62 99 176
62 99 172
62 99 173
62 99 177
62 99 172
62 99 179
62 99 175
62 99 177
63 99 173
62 99 171
61 98 172
62 99 177
61 98 166
62 99 177
62 99 175
62 99 176
63 100 175
62 99 176
63 99 175
62 99 174
62 99 176
62 99 171
62 99 174
62 99 173
63 99 175
63 99 174
63 99 173
62 98 170
62 99 172
62 99 171
62 99 175
62 99 176
62 98 167
63 99 173
62 99 172
62 99 171
63 100 179
62 99 173
62 98 167
62 99 177
62 99 172
62 99 170
62 99 174
62 99 172
62 99 168
62 99 173
63 100 177
61 98 170
62 99 175
62 99 170
62 98 166
62 98 168
63 99 173
62 99 173
62 99 170
62 98 164
62 99 173
62 99 174
62 99 171
62 99 172
62 99 173
63 100 177
63 99 169
62 99 168
62 99 174
62 98 167
62 98 166
62 98 168
62 98 168
62 98 167
62 98 169
62 98 169
63 99 172
61 96 160
61 97 164
61 97 166
62 98 167
62 98 170
62 98 166
61 96 164
62 98 166
61 96 158
61 97 160
61 96 154
61 96 160
62 97 161
61 97 162
59 94 153
62 96 161
61 96 153
60 94 154
57 87 137
50 74 111
38 54 62
37 49 37
36 46 31
35 46 33
39 51 40
39 51 37
41 53 39
42 54 41
43 55 39
45 59 50
45 57 43
43 57 46
47 60 46
46 60 47
53 68 56
53 66 51
58 70 48
56 69 54
58 69 50
72 81 49
77 84 55
92 97 54
83 89 59
104 107 62
95 100 59
97 101 65
111 113 65
117 117 71
112 113 61
122 121 71
135 132 73
130 130 69
145 141 78
151 146 82
146 142 75
149 145 74
157 151 84
156 151 77
149 145 76
161 155 71
161 154 80
162 156 78
164 157 76
172 164 84
171 164 82
169 162 76
176 167 88
171 164 82
175 167 85
176 168 88
173 165 79
176 167 84
173 165 81
175 167 84
177 168 90
177 168 84
173 166 80
174 166 80
175 166 84
174 165 80
176 167 88
175 167 83
175 166 84
175 167 82
173 165 77
176 168 85
180 170 90
178 169 84
173 165 76
179 170 89
178 169 87
179 169 87
177 168 87
177 168 84
179 170 90
179 169 89
174 166 83
178 169 88
178 169 87
177 167 84
178 169 86
178 169 86
178 169 85
175 167 82
176 168 84
173 165 76
170 163 71
175 166 81
179 169 87
174 165 77
172 164 74
174 165 77
174 166 75
172 164 73
173 165 75
176 167 81
176 167 82
171 164 70
172 164 72
171 163 70
169 161 67
170 163 66
174 165 78
167 161 61
169 161 64
170 162 68
164 158 54
170 163 64
168 161 62
167 160 62
169 161 61
169 162 63
165 159 57
164 158 57
163 156 52
165 157 57
166 159 62
162 156 48
162 156 51
155 149 49
159 153 53
156 149 53
152 148 39
147 144 41
145 145 32
155 156 42
153 158 34
159 165 32
156 161 37
158 172 16
166 182 25
160 173 16
165 183 11
167 185 16
171 191 11
169 190 0
171 193 0
172 194 0
174 195 0
171 194 0
172 195 0
170 194 0
172 196 0
172 195 0
169 192 0
172 196 0
172 194 0
172 196 0
168 192 0
174 197 0
169 192 0
172 195 0
171 194 0
171 194 0
171 193 0
173 195 0
170 194 0
174 197 0
172 196 0
170 194 0
171 195 0
172 195 0
172 196 0
172 196 0
171 195 0
171 194 0
173 196 0
172 195 0
171 194 0
171 195 0
170 193 0
173 197 0
173 196 0
169 193 0
170 193 0
169 193 0
173 196 0
169 192 0
169 193 0
172 196 0
172 196 0
172 195 0
170 194 0
171 195 0
169 192 0
173 196 0
173 196 0
171 195 0
173 195 0
168 191 0
171 195 0
171 195 0
171 194 0
173 196 0
172 195 0
169 193 0
172 195 0
170 193 0
172 195 0
173 195 0
172 195 0
170 193 0
170 194 0
171 194 0
171 194 0
172 195 0
166 190 0
167 191 0
173 196 0
168 191 0
172 195 0
172 195 0
169 191 0
171 194 0
165 188 0
167 190 0
170 194 0
167 189 0
171 195 0
170 194 0
167 189 0
167 190 0
170 193 0
171 193 0
169 192 0
165 188 44
142 166 95
96 123 136
62 99 163
62 98 158
62 98 162
62 98 162
61 98 167
62 99 167
61 97 162
61 98 163
62 98 165
62 98 169
63 99 172
62 98 167
62 98 167
62 99 169
61 98 163
62 99 173
62 98 168
62 98 164
62 99 170
63 99 170
63 99 175
63 99 176
62 98 168
62 98 166
63 100 172
63 99 173
62 99 176
62 98 169
61 98 166
63 99 175
62 99 172
62 98 170
62 99 175
62 99 177
63 99 176
62 99 176
62 99 172
61 98 171
62 99 174
62 99 175
62 99 175
62 99 173
62 99 175
62 99 175
62 99 174
62 99 176
62 99 172
62 98 172
61 98 171
62 98 173
62 99 177
63 99 176
62 99 175
62 99 179
62 99 170
62 98 172
62 99 174
62 98 171
62 99 176
62 99 175
62 99 173
62 99 177
62 99 177
62 99 179
62 99 172
62 99 175
63 99 175
62 99 177
62 99 171
62 99 171
62 99 173
62 99 175
63 100 179
62 99 177
62 99 173
62 99 176
62 98 174
63 99 173
63 99 173
62 99 174
62 99 174
62 99 176
63 99 175
62 99 169
62 99 178
63 99 174
62 99 173
62 99 175
62 98 174
62 99 170
63 99 175
62 99 172
63 99 174
62 99 176
61 98 166
63 99 174
62 99 175
63 100 176
62 99 172
61 98 173
62 99 171
62 98 170
62 99 173
62 99 176
63 99 176
62 99 173
62 99 174
63 99 177
62 98 173
63 99 174
61 98 170
62 98 169
62 99 174
62 99 174
62 99 174
61 98 163
62 98 169
62 99 174
62 98 172
62 99 176
62 99 174
63 100 177
62 99 174
62 99 168
63 99 171
62 98 168
61 98 165
62 99 175
62 99 174
63 100 178
62 99 174
62 99 171
62 98 165
62 99 172
62 98 167
62 98 170
63 99 177
62 98 170
62 98 164
62 99 173
63 99 168
62 99 169
62 99 171
61 98 165
62 98 169
62 99 169
62 99 172
62 99 168
63 99 171
61 97 164
62 98 167
62 98 170
62 98 169
62 98 164
62 98 164
62 98 160
62 98 169
61 97 162
61 97 165
61 96 156
60 95 158
62 98 163
61 97 160
62 97 159
62 97 162
62 96 157
62 97 162
61 95 157
60 94 149
60 93 150
57 88 138
51 77 117
42 62 91
39 52 52
35 45 34
38 49 37
41 52 40
38 49 35
44 57 42
42 55 40
42 55 42
43 56 42
40 52 35
44 58 45
45 58 47
46 62 52
49 61 45
53 64 44
70 79 54
58 70 46
71 79 48
69 77 49
78 85 50
83 90 59
90 95 56
98 101 60
109 110 65
114 115 65
112 113 65
119 119 68
124 123 66
116 117 62
128 127 64
135 133 73
143 139 74
139 135 77
132 131 66
144 140 73
144 140 72
159 154 74
154 149 76
158 152 79
162 155 80
160 154 76
163 156 81
167 159 85
161 155 77
169 162 85
175 167 87
170 163 80
178 169 90
171 163 79
170 163 79
179 169 88
174 166 80
174 166 83
171 164 79
174 166 83
175 166 82
177 168 87
173 164 80
179 169 89
173 165 80
176 167 85
175 166 83
175 167 81
174 166 80
177 169 87
179 170 90
176 167 81
177 168 85
175 166 80
179 169 87
173 165 79
175 167 82
176 167 84
180 170 89
176 168 84
172 164 74
173 165 77
176 167 83
174 166 78
173 165 77
172 164 75
177 168 84
177 168 84
170 163 74
175 166 81
175 166 80
173 165 73
177 168 82
174 165 78
172 164 72
176 167 79
173 165 78
170 163 70
174 165 74
171 163 69
177 167 80
173 165 79
170 162 67
172 164 70
172 163 75
172 164 73
170 163 69
168 161 59
164 158 60
170 163 67
168 161 62
167 160 61
168 161 60
167 160 60
168 161 64
165 158 58
166 160 57
171 163 68
163 156 56
164 157 62
162 155 51
160 155 45
156 151 45
159 152 52
157 151 41
148 143 32
157 153 47
150 150 42
154 156 36
152 155 42
148 155 32
153 161 25
157 167 25
162 176 22
165 181 16
160 173 19
165 183 19
168 189 0
167 185 0
172 191 16
172 193 0
171 192 0
173 194 0
176 198 0
174 197 0
173 196 0
174 196 0
171 195 0
172 195 0
173 196 0
171 195 0
171 193 0
171 195 0
172 196 0
173 195 0
171 195 0
174 196 0
171 195 0
173 196 0
172 194 0
172 196 0
173 196 0
171 194 0
170 194 0
169 192 0
174 197 0
172 196 0
171 194 0
170 193 0
170 193 0
171 195 0
170 193 0
173 197 0
170 193 0
172 195 0
171 195 0
172 195 0
174 197 0
173 196 0
169 193 0
172 196 0
170 193 0
167 191 0
170 193 0
171 195 0
170 193 0
175 198 0
170 192 0
169 192 0
168 191 0
173 197 0
171 193 0
171 194 0
170 193 0
170 194 0
173 196 0
172 196 0
173 196 0
169 192 0
171 194 0
173 196 0
170 193 0
172 196 0
170 194 0
173 196 0
169 192 0
171 194 0
172 194 0
170 193 0
172 196 0
170 193 0
172 196 0
172 195 0
173 195 0
172 195 0
171 195 0
163 187 0
167 190 0
169 192 0
168 191 0
173 196 0
168 192 0
168 192 0
170 193 0
169 192 0
170 193 0
172 195 0
165 188 0
167 190 0
161 184 51
114 141 122
71 105 154
62 98 162
62 98 163
62 98 166
61 97 155
62 98 170
62 99 167
62 98 167
63 99 170
61 98 159
62 98 167
61 98 164
62 98 166
62 98 170
62 98 170
61 97 165
62 99 170
62 98 166
62 98 170
62 98 171
61 98 173
62 98 168
61 98 164
62 99 171
62 99 171
62 99 169
63 99 173
62 99 171
62 98 171
62 99 171
62 99 171
63 100 179
62 98 172
62 98 168
61 98 172
62 99 174
63 99 175
62 99 177
63 99 172
61 98 167
62 99 175
63 99 178
62 99 173
61 98 172
62 99 175
62 99 170
63 99 172
63 100 175
62 98 174
62 99 175
62 99 174
62 99 172
62 99 176
62 99 176
62 99 175
62 99 174
63 99 178
62 99 177
62 99 175
63 100 179
62 99 177
62 99 178
62 99 175
61 98 172
63 99 176
62 99 177
62 99 171
62 99 179
62 99 173
62 99 175
62 99 175
62 99 177
62 99 173
62 99 175
62 99 177
63 99 178
62 99 176
62 99 173
62 99 174
61 98 175
62 99 174
63 99 177
62 99 174
62 99 175
62 99 175
62 99 176
62 99 176
63 99 173
62 99 176
62 99 171
62 99 174
62 98 172
62 99 172
62 99 177
62 99 173
62 99 173
63 99 171
62 99 174
62 99 176
63 100 179
62 99 172
62 99 173
62 99 174
62 99 166
62 99 172
63 99 175
62 98 168
61 98 171
62 99 176
62 99 175
62 99 172
62 99 170
62 99 173
62 98 169
62 99 175
62 98 169
62 99 171
62 98 170
62 99 177
62 98 168
63 100 175
62 99 172
62 99 172
62 99 172
63 99 174
63 99 170
62 99 170
61 98 169
62 98 172
63 99 173
62 98 170
62 98 168
63 99 173
62 99 168
62 99 171
62 98 171
62 99 171
62 98 170
62 99 169
62 98 164
62 98 167
63 99 169
62 98 170
62 99 173
62 97 167
62 98 168
62 98 171
61 97 159
62 98 170
63 99 171
62 98 164
62 99 170
62 97 164
62 98 167
61 97 160
62 98 164
61 97 156
61 97 167
62 98 170
62 98 164
61 97 166
61 97 160
63 98 168
61 96 155
61 96 153
61 96 154
62 97 156
61 96 158
62 97 157
60 95 157
62 96 158
59 91 142
53 80 120
45 66 90
39 55 65
33 43 36
40 52 39
37 48 34
38 49 38
37 48 33
39 51 39
43 56 42
44 58 48
44 58 43
43 57 43
47 62 49
43 57 41
51 64 50
57 68 41
52 66 46
52 66 48
69 79 52
72 82 57
83 89 54
80 86 59
89 92 53
94 99 57
92 95 56
105 108 59
106 108 57
121 121 61
118 118 65
120 120 62
127 126 68
128 127 68
129 129 68
143 139 75
147 142 78
137 135 64
151 146 68
152 147 73
159 153 78
152 147 70
161 155 80
161 154 82
157 152 70
165 158 76
164 157 80
171 163 79
167 161 74
172 164 78
177 168 86
172 164 74
176 167 82
175 167 82
171 164 74
178 169 88
175 166 81
176 167 86
174 165 81
172 165 76
179 170 89
174 166 80
175 167 86
175 166 80
174 166 79
172 164 76
175 167 83
175 166 81
177 168 88
177 169 86
177 168 82
173 165 80
175 167 83
176 168 83
174 166 80
175 166 84
173 165 82
175 167 83
176 167 82
177 168 84
175 166 83
173 165 78
170 163 71
174 166 76
173 166 77
177 168 83
171 163 75
172 164 75
170 163 71
175 166 80
173 164 77
173 165 76
174 166 79
169 162 65
172 164 75
172 164 73
170 162 69
172 164 71
168 161 62
169 162 66
174 166 77
166 160 58
170 163 71
168 161 64
168 162 67
170 162 61
169 162 63
166 159 57
167 160 60
173 164 70
169 161 67
166 160 59
166 159 53
163 156 47
163 157 56
163 157 54
168 160 65
163 158 48
157 151 49
161 154 52
162 156 49
156 151 41
154 149 39
152 148 49
146 143 34
153 151 32
148 148 30
152 154 37
155 162 16
153 163 19
161 174 28
155 167 19
157 172 11
161 177 11
163 181 0
164 181 0
169 191 0
171 193 0
171 191 0
174 195 0
169 192 0
173 197 0
172 196 0
173 196 0
170 194 0
174 197 0
172 196 0
171 194 0
173 196 0
171 194 0
169 193 0
173 195 0
174 197 0
174 196 0
171 196 0
170 194 0
172 195 0
170 195 0
172 196 0
168 192 0
172 196 0
170 192 0
170 194 0
172 195 0
172 195 0
169 193 0
173 196 0
172 196 0
173 195 0
170 194 0
168 192 0
170 193 0
170 193 0
173 196 0
171 195 0
171 195 0
172 195 0
172 195 0
173 196 0
173 196 0
171 195 0
172 196 0
170 194 0
172 195 0
172 193 0
172 194 0
171 194 0
168 192 0
170 194 0
174 196 0
173 195 0
169 193 0
172 194 0
169 192 0
171 194 0
174 197 0
169 192 0
168 192 0
172 195 0
171 194 0
171 194 0
165 188 0
171 193 0
170 193 0
171 194 0
173 195 0
171 195 0
171 194 0
171 195 0
170 193 0
171 194 0
168 191 0
172 195 0
171 194 0
167 191 0
172 196 0
172 195 0
167 190 0
168 192 0
170 193 0
168 191 0
168 192 0
171 195 0
173 196 0
171 195 0
167 190 0
169 192 31
155 178 62
108 135 129
67 101 145
62 98 162
62 97 159
62 98 164
62 98 163
63 99 173
62 98 166
62 98 161
62 99 168
62 98 165
62 99 168
62 98 171
62 98 168
63 99 174
62 98 169
61 98 168
62 99 176
62 98 164
62 98 167
62 99 168
61 98 166
62 99 174
63 99 169
62 98 170
62 98 168
62 98 169
62 98 170
62 98 169
62 98 167
62 98 169
62 99 172
62 98 174
62 98 170
62 98 174
62 99 176
62 99 175
62 98 175
62 99 168
62 99 173
62 99 174
62 99 177
63 99 178
63 99 175
63 99 173
61 98 174
63 99 174
61 97 166
62 99 173
63 99 177
62 99 175
61 98 169
62 99 179
62 99 176
62 99 174
62 99 177
62 99 173
62 98 170
63 100 175
62 99 174
63 100 175
62 99 171
63 99 175
62 98 175
62 99 178
62 99 174
62 99 176
62 99 177
62 99 174
63 99 175
62 99 172
62 99 176
63 99 174
62 99 177
62 99 173
62 99 176
62 99 172
63 99 174
62 98 175
62 99 175
63 99 176
62 99 175
62 99 175
62 99 176
62 99 173
62 99 172
62 99 173
63 99 175
62 99 173
63 99 171
62 99 175
62 98 169
62 99 178
62 99 176
63 99 174
62 99 174
62 98 174
62 98 172
63 99 176
62 99 174
62 99 172
63 99 173
61 98 167
62 99 174
62 99 171
62 99 173
61 98 170
62 99 173
61 98 169
62 99 176
63 99 174
63 99 169
63 99 176
62 99 171
62 99 174
63 99 175
62 99 170
62 99 175
62 99 170
61 98 169
62 99 171
62 99 172
62 99 168
63 100 177
62 99 169
62 99 170
62 98 173
62 99 174
62 99 169
62 99 174
62 98 169
62 98 170
63 99 170
62 98 170
62 99 170
63 99 170
62 98 169
62 99 168
62 99 170
62 98 166
62 98 168
62 99 167
62 98 166
62 99 171
63 99 168
62 98 169
62 98 168
62 98 167
62 98 168
62 98 164
63 99 166
62 98 167
61 97 161
62 98 164
62 98 170
62 98 164
62 98 165
63 99 166
62 98 167
62 97 163
61 97 160
62 97 163
63 98 161
61 96 156
60 95 154
60 95 150
62 97 160
62 97 161
60 95 150
62 97 164
60 95 153
60 94 148
60 93 148
55 84 126
47 70 106
40 56 63
33 42 34
35 45 32
36 47 36
42 55 43
39 50 40
39 51 35
40 53 39
45 58 43
43 55 39
43 55 42
45 58 45
47 60 46
51 65 49
57 68 47
62 72 47
53 66 48
70 79 53
66 76 51
73 83 56
75 83 51
90 94 54
87 93 54
99 103 51
105 107 53
110 112 67
112 113 58
126 124 69
125 123 67
133 131 67
132 131 61
143 139 74
137 135 74
138 135 71
147 142 69
149 145 76
143 139 67
152 147 73
153 148 78
156 151 73
164 157 77
165 158 74
164 157 77
167 160 78
168 161 75
175 167 84
174 166 82
174 166 83
167 160 72
171 163 80
172 164 80
174 166 79
174 166 82
172 164 76
174 166 80
172 164 78
174 166 79
181 171 92
174 166 79
172 165 74
173 165 79
172 165 75
177 169 85
177 168 82
174 165 78
174 166 81
170 163 73
173 165 77
171 163 73
171 164 77
177 168 85
172 165 74
169 161 69
174 165 75
174 166 76
173 165 76
178 168 84
174 165 80
171 164 75
173 165 73
176 167 80
174 165 75
172 164 74
170 163 72
171 163 69
173 165 75
174 166 80
168 161 71
175 166 78
172 164 75
169 162 63
172 164 72
172 164 73
171 164 68
173 165 75
174 164 75
171 164 69
167 160 60
168 161 63
172 164 69
171 163 66
167 161 59
168 161 62
168 160 62
165 158 49
164 158 58
167 160 56
165 159 53
167 161 60
166 160 57
166 159 58
164 157 56
165 159 54
163 157 47
164 157 57
162 156 52
159 152 49
150 146 34
152 147 37
153 147 47
145 140 37
152 149 37
153 151 41
154 158 28
150 155 22
159 165 32
158 169 28
162 175 22
160 173 19
168 184 19
160 178 0
168 188 16
168 188 0
171 189 0
169 190 0
173 195 0
171 192 0
168 189 0
172 196 0
169 193 0
171 195 0
172 196 0
170 194 0
169 192 0
171 194 0
172 196 0
173 197 0
174 197 0
170 194 0
169 192 0
173 196 0
170 194 0
170 193 0
172 195 0
171 194 0
170 194 0
170 193 0
173 197 0
171 195 0
171 194 0
171 194 0
170 194 0
172 196 0
170 194 0
171 194 0
173 197 0
170 193 0
172 195 0
170 194 0
169 194 0
171 194 0
170 193 0
174 197 0
172 195 0
171 195 0
172 196 0
168 191 0
170 193 0
171 195 0
173 196 0
169 193 0
171 194 0
172 196 0
171 195 0
173 197 0
167 191 0
168 191 0
171 195 0
167 190 0
170 193 0
170 194 0
169 193 0
172 195 0
170 194 0
170 193 0
172 196 0
171 193 0
168 192 0
170 193 0
173 196 0
170 194 0
167 189 0
169 192 0
173 197 0
173 197 0
169 193 0
170 195 0
171 194 0
169 191 0
169 193 0
170 192 0
170 194 0
169 193 0
173 196 0
169 193 0
170 192 0
171 194 0
166 189 0
168 192 0
169 192 0
165 189 0
169 192 0
169 192 0
167 191 31
147 171 72
102 130 137
63 98 160
62 98 160
63 99 164
62 98 161
62 97 155
61 97 164
62 98 161
61 97 161
63 99 167
62 99 169
61 97 161
61 98 168
62 98 166
62 99 167
62 99 176
62 98 164
62 99 171
62 98 169
61 97 164
62 98 172
62 99 171
62 99 169
62 98 171
62 98 165
62 99 174
62 99 173
62 98 167
62 98 173
62 99 172
63 99 171
63 99 170
62 99 176
62 98 174
63 100 176
61 98 177
61 98 167
62 99 174
62 99 173
62 99 178
62 98 173
62 98 169
62 99 170
62 99 178
62 99 179
62 99 171
62 99 178
61 98 170
62 99 172
63 99 173
62 99 175
62 99 173
62 99 173
61 98 173
62 99 179
62 99 177
61 98 174
62 99 173
63 99 176
62 99 173
62 98 174
62 99 178
63 100 175
62 99 170
63 99 176
62 98 173
62 99 176
62 99 173
62 99 173
62 99 173
62 99 173
62 99 174
62 98 173
62 98 172
62 99 171
62 99 175
63 99 177
62 99 172
61 98 173
62 99 171
62 99 172
62 98 173
62 99 172
62 98 168
62 98 172
62 99 173
62 99 176
62 98 171
61 98 173
62 99 174
62 99 172
63 100 176
62 98 171
62 99 170
62 99 174
62 99 174
61 98 170
62 99 174
62 99 174
62 99 176
63 99 175
62 99 170
62 99 173
61 98 170
62 99 174
61 98 173
62 99 172
62 99 174
62 98 166
62 99 170
62 98 171
62 98 165
62 99 173
61 98 163
62 98 169
62 99 171
62 98 167
62 99 174
62 98 166
62 99 172
62 98 173
62 98 169
63 99 173
62 99 174
62 99 171
62 99 171
62 98 176
62 99 170
62 98 170
62 98 170
62 98 172
61 97 164
62 99 171
61 97 166
62 98 170
62 99 170
62 98 168
62 98 169
62 99 171
62 98 165
63 100 173
62 98 166
62 99 169
61 98 164
62 98 167
62 99 169
62 98 164
62 98 165
62 99 169
62 99 172
61 97 166
62 98 164
62 98 166
62 98 169
62 98 164
62 98 163
62 98 159
62 98 165
62 97 158
61 97 162
62 97 163
62 98 166
62 98 163
62 98 159
61 96 154
61 96 153
60 95 156
61 95 151
62 97 154
60 95 152
61 95 154
60 94 150
61 95 152
56 87 133
51 76 119
41 58 81
38 51 48
37 48 38
39 50 38
39 52 36
41 54 40
38 50 37
41 54 34
40 54 40
43 55 36
44 56 41
45 54 35
46 59 45
59 70 49
53 64 42
68 77 45
55 66 44
66 76 49
76 84 47
74 82 47
69 79 51
86 93 52
95 100 58
89 94 51
104 106 59
112 113 59
112 113 62
127 126 59
120 120 55
125 124 61
117 118 59
133 131 69
138 135 68
139 136 66
148 143 73
137 135 70
151 147 78
154 149 76
157 152 73
164 157 78
159 154 71
156 151 67
161 155 75
167 160 74
167 160 77
165 159 68
171 163 76
173 165 78
174 166 80
172 164 79
174 165 79
169 162 73
172 164 74
177 167 84
173 165 77
172 164 79
169 162 71
172 164 74
170 162 72
177 168 86
178 168 85
175 167 80
174 165 80
172 163 79
173 165 77
177 168 83
175 166 80
170 163 69
174 165 78
174 165 76
173 165 78
175 167 80
174 165 76
177 168 83
174 165 77
173 164 75
171 163 71
171 163 73
173 165 75
174 166 78
176 167 80
172 164 74
169 162 65
169 162 70
172 164 73
168 161 63
170 163 71
173 165 75
170 162 69
171 164 71
168 161 64
169 162 64
168 161 63
171 163 68
173 165 75
169 162 65
169 161 63
170 162 65
171 163 69
170 163 64
169 162 72
168 161 61
168 161 65
164 158 51
169 162 64
170 162 65
167 160 54
166 159 59
162 156 49
164 157 52
161 155 44
166 159 60
162 156 53
162 155 53
160 154 47
160 154 45
152 147 37
155 150 41
150 145 44
147 143 37
142 141 25
150 150 25
143 142 37
154 159 28
151 158 25
158 169 30
155 164 19
165 180 16
155 170 11
161 175 16
164 181 16
167 185 11
167 186 0
169 190 16
171 191 0
173 196 0
171 192 0
170 192 0
169 193 0
167 191 0
170 194 0
173 196 0
173 197 0
172 196 0
171 194 0
173 196 0
171 194 0
169 192 0
172 195 0
168 192 0
168 192 0
171 195 0
170 194 0
172 196 0
171 194 0
171 195 0
172 195 0
169 193 0
171 194 0
170 193 0
172 196 0
172 195 0
169 193 0
171 195 0
171 193 0
174 197 0
172 195 0
174 197 0
172 196 0
170 194 0
168 192 0
169 193 0
170 194 0
173 196 0
171 194 0
171 195 0
173 197 0
168 191 0
172 196 0
171 195 0
169 193 0
173 196 0
171 195 0
171 195 0
172 195 0
170 192 0
172 195 0
169 193 0
172 195 0
172 195 0
166 190 0
170 193 0
174 197 0
174 197 0
172 196 0
172 195 0
169 192 0
169 193 0
170 194 0
168 191 0
171 194 0
170 193 0
169 192 0
167 191 0
171 194 0
169 192 0
169 192 0
170 192 0
169 192 0
166 190 0
171 195 0
171 195 0
171 193 0
171 195 0
167 190 0
172 195 0
167 191 0
172 196 0
165 189 0
168 191 0
170 193 0
169 192 0
168 190 0
159 183 47
130 155 107
88 118 148
61 97 158
62 98 161
61 97 159
62 98 161
61 97 157
61 97 158
62 98 170
62 99 170
62 98 165
62 98 163
61 98 161
62 98 167
63 99 168
62 98 167
62 98 166
62 99 170
61 98 168
62 98 167
62 98 164
62 99 171
62 98 169
62 98 169
62 98 164
62 99 171
62 99 170
63 99 173
62 98 169
62 98 167
62 98 170
62 99 173
62 99 172
62 99 170
62 99 172
62 98 169
63 99 176
62 99 174
61 97 165
62 99 175
62 99 174
61 98 169
63 99 168
62 98 171
62 99 171
61 98 172
62 99 178
63 100 176
62 98 173
62 99 172
62 99 171
62 99 175
62 99 174
61 98 168
62 99 173
62 99 175
62 99 174
62 99 175
62 98 172
61 98 177
62 98 171
63 99 174
62 99 173
62 99 177
63 99 175
63 99 174
63 99 177
62 99 174
62 99 177
62 99 175
62 98 173
62 99 179
62 99 175
63 99 175
62 99 172
62 98 172
62 99 174
62 99 173
62 99 173
62 99 175
63 99 175
61 97 165
62 99 175
62 99 173
61 98 175
62 99 173
62 99 172
62 99 172
62 98 171
63 99 177
62 99 178
62 99 175
62 99 176
61 98 173
62 99 173
63 100 178
62 99 175
61 98 170
63 100 179
62 99 174
63 99 174
62 99 173
62 99 174
62 99 178
63 99 173
63 99 175
62 99 167
62 99 169
63 99 173
62 98 168
62 99 173
62 99 172
63 99 172
62 99 176
62 98 166
62 99 173
62 98 165
63 99 174
62 98 169
62 99 177
62 99 168
62 99 173
61 98 169
62 99 170
62 99 174
63 99 171
62 99 176
62 99 169
62 99 174
62 99 171
63 99 171
62 99 170
61 97 161
62 99 170
62 99 170
62 98 165
62 98 171
62 99 170
61 98 168
62 99 169
62 98 171
62 98 165
62 98 164
62 99 171
62 99 169
61 98 166
61 97 160
62 98 163
62 98 165
63 99 169
61 98 168
62 98 166
62 99 168
61 97 156
62 99 167
63 99 172
62 98 162
62 98 162
61 97 159
62 98 160
62 98 165
62 98 164
61 97 158
61 97 157
63 98 166
63 99 163
63 98 166
60 96 155
62 98 161
61 96 155
61 95 157
62 97 156
61 96 157
59 93 147
57 89 135
52 78 113
43 60 69
38 51 48
39 49 29
35 45 30
39 51 36
40 50 33
42 52 35
43 56 43
44 58 47
46 58 48
46 57 40
46 59 41
51 62 42
52 63 43
56 67 40
56 67 39
68 78 48
74 82 48
81 86 49
80 86 43
82 89 46
87 93 54
92 96 49
104 107 48
106 108 58
102 106 50
123 122 60
118 119 63
119 119 67
134 132 61
144 141 68
143 138 74
132 129 66
141 137 60
156 150 77
153 148 69
147 143 64
155 149 72
150 146 58
159 153 74
163 156 71
159 153 73
160 154 72
160 154 70
164 158 70
167 160 70
170 163 75
169 162 77
165 159 67
172 164 76
174 165 80
170 163 79
174 165 80
169 162 72
173 165 78
172 164 75
170 162 75
168 161 67
169 162 73
176 167 81
171 163 71
172 164 78
171 164 74
169 161 71
172 164 75
171 164 75
170 162 73
172 164 75
174 165 74
174 166 78
169 162 67
178 168 85
174 166 75
175 167 78
169 162 65
170 162 67
173 166 75
172 164 75
175 166 78
175 166 78
171 163 67
171 163 69
170 163 68
173 165 75
174 165 75
170 163 67
173 164 75
171 163 72
171 164 71
168 161 68
169 161 66
169 162 67
170 163 69
169 162 66
173 165 73
165 158 57
171 163 70
168 161 62
168 161 62
170 162 64
169 162 67
167 160 58
168 162 63
167 160 58
164 157 53
169 161 61
164 158 53
164 158 52
167 161 57
163 157 49
163 156 51
159 153 44
155 151 36
161 155 51
158 151 45
156 149 42
151 147 32
148 144 30
150 146 34
149 144 34
150 148 41
152 152 37
157 160 34
155 160 30
152 155 28
158 168 22
157 165 28
162 174 16
163 178 16
164 180 16
164 181 0
167 185 0
167 186 0
169 191 0
169 188 0
172 191 0
171 191 0
174 195 0
172 196 0
173 197 0
166 190 0
172 195 0
169 193 0
174 197 0
172 195 0
172 196 0
171 194 0
174 197 0
173 196 0
170 193 0
173 197 0
170 193 0
172 196 0
172 196 0
169 193 0
171 195 0
170 194 0
171 194 0
172 196 0
176 199 0
173 196 0
172 196 0
172 195 0
172 196 0
169 193 0
171 195 0
171 194 0
170 193 0
171 194 0
171 195 0
171 195 0
170 193 0
174 197 0
171 194 0
171 195 0
171 194 0
171 194 0
172 195 0
170 194 0
168 192 0
170 193 0
173 196 0
169 192 0
172 194 0
170 193 0
171 194 0
167 190 0
171 194 0
170 193 0
169 193 0
169 193 0
172 196 0
171 195 0
171 193 0
171 194 0
170 194 0
171 194 0
173 196 0
171 194 0
169 192 0
169 193 0
170 194 0
171 195 0
172 194 0
171 194 0
169 192 0
170 193 0
168 192 0
168 192 0
171 194 0
171 194 0
168 191 0
172 195 0
170 194 0
165 188 0
170 193 0
170 193 0
166 190 0
168 191 0
170 193 0
172 194 0
168 191 0
170 193 0
159 182 65
131 156 110
73 106 153
62 99 165
61 97 161
62 98 156
62 97 156
61 97 160
62 98 166
61 97 160
61 97 159
62 98 160
62 98 159
61 98 165
62 98 163
62 99 170
62 98 166
62 99 167
62 99 167
61 97 167
62 98 167
62 98 163
62 98 165
61 98 166
62 99 173
61 98 168
61 98 174
62 98 168
62 98 166
62 98 166
62 98 167
62 98 169
62 99 171
62 99 172
62 98 171
62 99 175
62 99 174
63 99 171
63 99 174
62 99 173
62 99 174
63 99 170
62 99 169
63 99 173
61 98 170
61 98 170
62 99 174
62 99 177
61 98 171
62 99 173
62 99 174
62 99 177
62 99 173
62 99 174
61 98 171
62 99 175
63 99 172
62 99 174
63 99 175
63 100 176
61 98 167
62 98 173
61 98 174
63 99 178
62 98 174
62 99 174
62 99 173
63 99 173
62 98 172
62 98 173
63 99 175
62 98 170
62 99 175
61 98 170
61 98 168
61 98 174
62 98 168
62 99 175
63 99 176
62 99 175
61 98 167
61 98 167
63 99 177
63 99 174
62 99 173
62 98 172
62 99 173
62 99 176
62 99 177
62 99 174
63 99 174
62 99 174
62 99 173
62 99 175
62 99 168
62 99 176
62 99 169
62 99 177
62 99 174
61 98 170
62 99 172
62 98 171
62 99 173
62 99 172
62 99 172
62 98 165
62 99 175
62 99 172
62 99 171
62 99 166
61 97 167
62 99 170
62 98 173
62 99 171
62 99 171
63 99 173
61 98 170
63 99 172
62 99 169
62 99 174
62 99 176
62 98 169
63 99 174
62 99 171
61 98 173
62 99 171
62 99 173
62 99 173
62 98 170
62 98 166
62 99 166
62 99 165
62 98 172
62 99 169
62 98 170
62 98 167
61 98 164
61 98 166
62 98 168
63 99 170
61 98 164
62 99 170
61 98 170
61 98 163
62 98 167
61 97 165
63 99 169
62 98 165
62 99 167
63 99 165
62 98 167
62 99 169
62 98 163
61 97 164
62 98 166
61 97 160
61 97 162
61 97 158
61 96 155
62 98 166
62 98 162
62 98 164
61 97 161
62 98 165
62 98 162
61 96 155
62 98 164
61 96 157
62 97 160
62 97 160
60 94 151
61 96 157
61 96 156
61 95 155
60 94 150
58 90 138
52 80 119
44 63 79
41 57 64
39 49 28
40 51 33
35 45 31
41 54 38
39 50 30
39 51 35
48 59 38
43 55 37
46 58 41
50 60 37
47 61 48
56 67 47
54 66 40
54 65 39
66 76 41
66 76 45
72 78 44
71 80 47
81 87 47
87 93 50
97 99 52
108 110 53
107 110 53
106 108 58
111 113 53
120 119 61
129 127 62
127 126 59
118 118 59
127 126 53
132 131 64
136 133 65
136 134 60
144 140 60
142 138 65
151 146 69
150 146 62
153 149 64
158 152 67
159 153 73
158 152 69
163 157 71
161 155 69
164 158 65
167 160 72
172 164 77
166 160 67
169 161 71
161 156 63
174 165 78
171 163 74
172 164 77
169 162 69
172 164 75
173 165 77
169 162 71
170 162 73
171 163 75
173 165 77
176 167 82
170 163 70
175 166 81
171 164 76
176 166 78
173 164 75
172 164 76
174 165 78
174 165 77
173 165 76
168 161 64
171 164 73
176 167 80
170 163 71
176 167 79
171 163 72
169 162 71
174 166 76
169 160 71
167 160 64
171 163 73
166 160 62
170 162 70
172 164 73
169 162 62
170 162 70
169 162 62
171 164 74
170 163 66
167 161 62
169 162 64
165 159 56
173 164 71
167 161 64
169 162 65
172 164 70
169 162 60
168 161 63
167 161 60
168 161 60
166 160 58
161 156 45
169 161 61
165 159 56
166 159 54
166 159 58
163 157 48
167 160 62
166 159 57
164 157 49
161 156 47
159 155 41
158 153 45
156 151 41
153 148 39
150 145 32
151 146 32
146 143 37
148 147 39
147 145 28
152 153 30
156 159 30
148 151 19
154 162 30
155 165 11
154 167 16
163 179 0
159 173 0
165 182 0
169 185 11
170 189 0
169 190 0
171 192 0
169 190 0
169 189 0
174 195 0
173 194 0
173 197 0
175 198 0
171 195 0
171 195 0
170 195 0
172 195 0
171 194 0
169 193 0
173 196 0
173 196 0
172 195 0
172 195 0
171 195 0
173 196 0
172 195 0
170 194 0
174 197 0
173 196 0
171 195 0
174 196 0
171 195 0
168 191 0
170 194 0
172 196 0
170 193 0
168 191 0
170 194 0
172 195 0
168 191 0
170 194 0
173 197 0
173 196 0
170 194 0
170 194 0
169 193 0
173 196 0
171 194 0
173 197 0
171 195 0
169 193 0
172 196 0
169 192 0
171 195 0
173 197 0
168 192 0
168 192 0
170 194 0
170 193 0
171 195 0
169 193 0
169 192 0
170 193 0
174 197 0
169 194 0
169 193 0
172 196 0
170 194 0
172 195 0
167 189 0
167 192 0
170 194 0
165 188 0
172 194 0
174 196 0
170 192 0
169 193 0
175 198 0
167 191 0
170 194 0
168 191 0
171 194 0
166 189 0
167 191 0
170 192 0
169 193 0
167 191 0
167 191 0
167 190 0
169 192 0
168 192 0
165 190 0
170 192 0
168 191 0
166 189 0
169 192 18
149 173 74
106 133 129
70 104 157
61 97 151
61 96 151
61 97 155
62 98 166
62 98 162
61 96 155
62 98 161
63 99 172
61 97 162
61 98 165
62 98 166
62 98 165
62 98 167
62 98 173
62 99 171
61 97 164
61 98 163
63 99 173
61 97 162
62 99 173
63 99 170
62 98 163
62 98 168
62 98 169
62 98 166
62 98 169
62 99 171
62 98 168
62 99 174
62 98 164
62 99 173
62 99 173
62 99 170
62 98 171
61 98 168
62 98 170
63 99 172
62 98 167
63 100 177
62 99 171
62 99 173
62 99 174
62 99 171
62 98 172
62 99 176
63 99 174
63 99 172
62 99 171
62 99 169
62 99 174
61 98 169
62 98 169
63 99 174
62 99 175
62 99 168
62 99 177
63 99 176
62 99 179
62 98 171
62 99 173
62 99 174
62 99 175
62 99 177
62 99 177
62 98 170
62 99 177
62 99 176
62 99 175
62 98 171
63 99 174
62 99 176
63 99 172
62 99 171
61 98 173
62 99 170
63 99 177
62 99 171
62 99 169
62 99 175
62 99 177
62 99 166
62 98 171
62 99 175
63 99 173
62 99 175
63 100 177
62 99 176
62 98 168
63 99 173
62 99 174
62 98 170
62 98 168
62 99 177
61 98 172
62 99 174
62 99 173
62 99 170
62 98 170
61 98 167
62 99 174
63 99 168
62 99 168
62 98 166
62 99 175
62 98 172
62 99 174
63 99 169
62 99 174
61 98 169
61 98 165
62 99 168
62 99 171
62 99 172
62 99 172
62 98 169
62 99 172
62 99 172
62 99 175
62 98 168
62 99 174
62 98 171
62 99 169
62 99 171
62 99 168
62 98 172
62 98 167
62 99 166
61 97 161
61 97 165
62 99 171
62 99 167
62 99 171
62 98 167
62 99 168
61 98 163
63 99 172
62 98 168
62 98 166
61 98 161
63 99 175
62 98 165
62 99 169
62 98 163
61 97 159
62 98 166
62 99 165
62 98 166
63 99 167
62 97 159
63 99 170
61 97 161
62 99 171
63 99 168
61 97 163
62 98 165
61 97 161
63 99 167
62 97 161
61 97 162
61 97 165
61 96 156
62 98 162
61 97 161
60 95 152
62 97 160
61 97 159
61 96 159
62 97 162
61 96 154
59 93 148
61 95 156
60 94 153
59 93 141
56 85 128
51 72 100
42 60 75
36 47 34
37 47 31
40 50 34
43 53 36
42 53 37
44 55 39
41 53 41
42 54 38
47 58 41
46 58 44
55 65 44
52 62 39
58 69 44
69 76 35
69 79 49
75 81 36
76 82 38
85 91 41
82 89 51
81 89 53
102 104 48
108 110 54
103 105 51
102 106 45
105 107 50
112 113 47
113 113 54
128 126 64
121 122 54
125 125 63
127 125 63
142 139 65
142 139 64
138 136 58
149 144 70
151 146 65
156 150 70
161 154 70
152 147 68
157 152 60
158 152 70
159 153 70
163 157 68
161 155 62
166 160 67
169 161 71
163 157 57
170 162 72
164 159 60
169 162 70
171 163 70
169 162 67
165 159 60
172 163 75
169 160 69
169 162 71
169 162 69
170 163 72
166 160 62
173 165 79
171 163 73
172 164 73
169 162 70
171 163 69
172 164 74
171 164 70
171 163 75
169 162 67
168 161 62
167 160 63
170 162 66
172 164 73
171 164 71
172 164 74
172 164 75
173 165 72
173 164 73
169 162 67
169 161 67
168 160 64
167 160 65
166 159 65
167 161 60
171 163 70
168 161 66
169 161 70
171 163 68
167 161 63
169 162 66
167 160 61
167 160 64
168 161 64
169 162 63
163 157 53
164 157 57
169 161 62
169 161 64
162 157 45
161 155 44
163 157 45
164 158 53
166 160 56
168 160 61
165 159 57
162 157 45
157 152 34
161 155 45
165 159 53
159 155 44
157 152 42
158 153 42
159 153 47
151 147 37
152 148 32
150 145 30
151 146 42
150 146 36
141 139 34
150 152 25
148 153 19
153 156 28
155 162 22
153 165 19
149 160 16
162 172 25
161 174 16
167 182 11
165 182 11
163 182 0
170 190 0
172 193 0
172 194 0
172 192 0
172 192 0
171 192 0
170 190 0
171 195 0
173 196 0
168 193 0
174 196 0
174 197 0
170 194 0
169 194 0
172 195 0
172 195 0
172 195 0
170 194 0
173 196 0
173 196 0
171 195 0
172 195 0
172 196 0
172 195 0
170 194 0
172 195 0
172 196 0
174 197 0
170 193 0
172 194 0
172 194 0
171 194 0
171 194 0
170 194 0
169 192 0
168 192 0
173 196 0
170 193 0
172 194 0
173 196 0
170 193 0
172 195 0
172 194 0
171 195 0
170 193 0
170 194 0
166 190 0
171 195 0
169 192 0
170 193 0
169 193 0
173 196 0
166 190 0
169 192 0
170 194 0
169 193 0
171 194 0
169 192 0
171 194 0
172 196 0
167 190 0
170 194 0
171 195 0
168 191 0
169 192 0
171 195 0
170 192 0
173 196 0
170 192 0
168 192 0
167 191 0
167 189 0
168 192 0
170 194 0
170 194 0
172 196 0
169 193 0
171 193 0
169 193 0
169 193 0
166 190 0
169 193 0
170 193 0
170 193 0
170 194 0
167 191 0
170 193 0
167 190 0
171 193 0
165 189 0
166 189 0
171 193 18
154 178 76
107 134 131
65 100 161
62 98 155
61 97 157
62 98 159
62 98 161
62 98 162
61 98 160
62 98 161
62 99 166
62 98 164
61 98 165
61 97 161
61 97 165
62 99 170
61 98 164
61 98 166
62 98 170
61 98 164
62 98 167
62 98 168
62 98 167
62 99 171
62 99 171
61 98 167
63 99 172
62 98 168
62 98 166
62 98 170
63 99 172
62 99 168
61 98 171
62 99 172
62 98 169
61 98 171
62 99 175
62 98 170
61 98 169
62 98 170
62 99 170
62 98 172
62 99 174
62 99 171
62 99 175
62 99 173
62 99 174
62 98 170
62 99 172
62 99 175
62 99 175
62 99 173
62 99 173
62 98 173
62 99 177
62 98 172
62 99 176
62 98 168
61 98 174
61 98 174
62 98 174
63 99 173
62 99 171
62 99 177
62 98 166
62 99 175
62 99 172
63 99 174
62 99 175
62 99 173
62 99 175
62 99 174
63 99 172
62 99 172
62 99 175
62 99 172
62 98 173
63 100 175
61 98 166
62 98 169
62 99 172
61 98 170
62 99 174
62 99 173
62 99 172
62 98 169
62 99 174
62 99 171
62 99 172
62 99 171
62 99 175
62 99 172
62 99 175
62 99 171
62 99 174
62 98 167
62 98 171
62 99 171
63 100 177
62 99 172
62 99 171
62 98 173
62 98 173
62 99 169
62 99 173
62 99 171
63 99 169
63 100 175
63 99 175
62 98 169
62 98 173
62 98 174
62 99 174
62 98 173
62 99 168
62 98 170
62 99 170
61 98 167
62 99 171
62 98 165
63 99 173
63 99 168
62 98 171
62 99 173
62 99 172
61 96 159
62 98 162
62 99 171
62 99 173
62 98 172
62 99 170
61 98 165
63 99 168
62 98 168
62 98 172
63 99 172
62 99 171
62 98 162
62 98 171
62 98 171
62 99 169
62 98 158
62 99 168
62 98 163
62 99 173
61 98 164
62 98 168
61 97 164
62 99 167
63 99 172
62 98 162
62 98 170
62 98 168
62 98 164
62 98 168
62 98 163
62 98 160
62 98 161
62 98 163
62 98 161
62 98 163
63 99 169
61 96 151
61 97 160
62 98 164
62 98 163
62 97 157
61 96 156
61 96 159
61 97 159
61 96 154
62 97 156
61 96 155
60 94 150
60 94 148
60 94 152
57 87 129
48 70 97
40 55 56
44 55 43
41 50 30
39 51 33
48 56 33
45 57 34
47 58 40
43 55 38
41 49 27
45 58 43
58 68 43
51 62 42
66 74 43
62 71 42
66 72 31
59 71 45
71 79 42
76 82 38
83 89 46
82 87 43
101 104 48
86 91 45
94 98 49
110 111 51
113 114 49
112 113 52
115 116 54
126 124 58
122 123 50
131 130 50
124 123 51
120 120 55
139 137 60
140 136 63
140 137 57
148 144 63
149 145 60
154 149 71
145 141 58
157 152 61
156 150 68
162 156 64
165 158 70
162 155 64
163 157 66
163 156 61
167 160 66
170 163 70
170 162 72
166 159 66
170 162 68
169 162 71
173 165 74
167 160 69
170 162 71
164 158 57
167 161 60
173 165 75
168 162 68
168 161 62
167 160 67
170 163 65
168 161 68
170 162 69
168 161 64
168 161 63
169 161 67
166 160 63
171 163 71
168 161 68
166 160 66
170 163 67
166 160 60
169 162 69
168 161 64
167 161 61
169 161 68
168 161 64
171 163 67
171 164 68
163 157 54
169 162 64
164 157 60
167 159 58
168 161 62
166 160 60
167 160 66
167 161 63
164 158 49
167 160 62
165 159 56
166 159 66
165 158 56
166 159 59
167 160 61
163 158 47
168 161 63
163 157 53
165 158 56
162 157 54
166 159 57
161 156 48
167 160 54
164 158 52
162 156 48
165 158 48
161 155 44
160 155 42
162 155 47
157 152 34
162 155 44
158 153 42
153 148 39
155 149 39
154 149 36
150 146 25
151 146 44
149 146 32
154 155 28
148 149 16
147 150 22
155 161 25
156 165 22
153 162 11
164 178 11
159 172 11
160 176 0
162 179 0
163 179 11
165 182 0
168 188 11
169 190 0
170 190 0
170 190 0
171 193 0
171 194 0
170 189 0
171 195 0
174 197 0
174 197 0
172 196 0
171 195 0
169 192 0
170 194 0
172 195 0
169 192 0
172 195 0
172 195 0
173 197 0
172 196 0
172 196 0
169 193 0
170 193 0
169 192 0
174 197 0
171 194 0
172 195 0
169 191 0
171 194 0
170 193 0
170 195 0
170 194 0
167 191 0
172 196 0
173 196 0
172 195 0
172 195 0
170 195 0
171 194 0
171 195 0
171 194 0
169 192 0
168 192 0
169 193 0
170 193 0
173 195 0
172 194 0
170 193 0
173 197 0
169 193 0
169 192 0
171 195 0
173 197 0
172 195 0
170 194 0
166 190 0
172 196 0
173 195 0
173 196 0
170 193 0
169 192 0
168 191 0
173 196 0
171 195 0
170 194 0
169 192 0
173 196 0
170 193 0
169 193 0
168 191 0
170 193 0
168 191 0
169 192 0
171 194 0
166 190 0
167 191 0
169 193 0
171 194 0
170 193 0
171 194 0
166 190 0
170 194 0
169 193 0
172 195 0
169 191 0
164 188 0
170 194 0
171 193 0
169 192 0
167 191 0
169 192 0
161 183 36
137 162 99
86 116 144
62 98 157
61 97 151
62 98 163
62 98 161
62 98 163
61 97 160
61 98 162
62 98 160
62 98 161
61 97 163
62 98 164
63 100 174
63 99 163
61 98 166
62 98 170
61 97 160
62 98 169
61 97 164
61 97 166
62 98 164
62 99 172
62 98 171
63 99 171
62 99 170
62 99 171
62 98 168
62 98 164
62 98 166
62 98 169
62 98 163
62 98 169
62 98 172
61 98 173
62 99 169
62 98 169
62 99 175
62 99 172
62 99 173
62 99 172
62 99 172
62 99 172
61 98 176
62 99 172
61 98 168
62 99 172
63 99 174
62 99 175
61 98 169
62 99 171
62 99 169
62 99 171
62 99 174
63 99 174
61 98 170
61 98 169
63 99 175
62 98 169
61 98 170
62 99 173
63 99 175
62 99 170
62 98 169
63 99 171
62 99 175
62 99 173
62 99 172
62 98 165
62 99 173
62 99 172
61 98 169
63 99 172
62 99 174
62 98 169
63 100 177
62 99 174
63 99 175
62 99 172
63 99 174
62 99 171
62 99 176
63 100 176
61 98 171
62 99 172
62 99 177
63 99 172
62 99 171
62 98 167
63 100 174
61 98 170
62 99 172
62 98 170
62 99 176
63 99 171
60 97 170
61 98 167
62 99 171
63 99 172
62 99 173
63 99 173
62 98 171
62 99 170
62 98 167
62 98 169
62 98 170
62 98 165
62 98 165
61 98 162
62 98 168
62 99 173
63 99 169
63 99 170
61 98 166
62 98 170
62 98 164
61 98 168
62 99 174
62 99 173
62 98 168
62 98 165
62 99 171
63 99 168
62 99 172
62 98 168
63 99 172
62 99 174
62 98 164
62 99 172
62 99 168
62 99 170
62 99 171
62 99 171
62 98 168
62 98 165
62 99 171
62 98 168
62 98 166
62 98 171
62 98 166
62 99 167
62 99 171
62 98 164
63 99 169
63 99 170
62 98 169
62 98 162
63 99 166
61 97 162
62 98 165
61 97 161
62 98 166
61 97 163
62 98 168
62 99 168
62 98 169
61 96 152
62 98 163
62 98 166
61 96 163
61 97 160
61 96 155
62 98 162
62 98 160
63 98 163
62 98 164
61 97 159
61 96 157
61 96 149
61 95 152
61 97 157
60 95 151
60 95 156
61 95 154
61 95 151
59 92 142
58 90 140
50 76 108
49 66 75
47 56 32
49 55 29
42 53 36
43 53 34
40 52 35
45 54 30
44 54 31
44 55 36
48 57 35
60 70 43
55 65 39
58 66 37
63 73 41
67 75 41
70 77 41
73 81 41
77 83 43
76 83 42
91 95 34
89 94 42
95 99 48
100 103 49
108 110 47
112 113 50
124 124 49
121 121 53
126 125 52
124 124 45
121 123 43
129 127 56
133 131 62
141 138 58
143 139 61
139 136 62
141 138 60
154 149 62
154 148 68
155 149 66
154 149 64
161 154 72
160 154 63
161 154 61
157 151 63
164 158 67
167 160 63
161 156 58
167 160 67
166 159 67
170 163 72
170 162 70
165 158 59
165 159 65
165 159 62
168 160 70
169 162 68
168 160 63
168 160 67
167 160 64
168 161 64
168 161 65
167 160 61
166 159 62
173 165 75
166 159 61
167 159 63
172 164 70
168 161 68
167 160 64
172 164 71
164 158 58
167 161 59
165 159 53
165 158 63
170 161 68
168 161 59
164 158 56
168 161 68
168 161 63
168 161 61
167 160 59
166 159 60
168 160 67
168 161 66
165 159 56
165 159 53
168 161 65
172 163 67
167 159 61
165 159 54
167 160 60
164 158 53
165 157 57
164 158 54
162 157 48
163 157 48
164 158 54
165 159 54
162 155 49
165 159 58
163 156 48
157 153 41
164 158 47
158 153 36
162 156 41
161 155 42
159 154 39
164 158 52
156 151 37
157 151 41
156 151 34
153 148 37
154 147 37
151 146 25
148 144 36
154 149 39
146 144 16
142 142 22
146 148 16
156 158 25
153 155 25
150 157 11
150 160 11
158 167 25
159 171 30
162 174 16
164 181 11
163 179 0
168 189 0
170 190 0
171 191 0
168 187 0
171 192 0
172 193 0
172 193 0
172 193 0
171 192 0
173 197 0
173 196 0
170 195 0
170 194 0
173 196 0
174 197 0
168 192 0
173 196 0
170 193 0
171 195 0
173 196 0
173 196 0
172 195 0
172 196 0
171 195 0
170 194 0
174 197 0
169 192 0
169 193 0
172 196 0
171 195 0
172 196 0
173 196 0
172 196 0
171 195 0
170 194 0
168 191 0
172 195 0
173 197 0
171 193 0
172 195 0
174 196 0
168 191 0
172 195 0
171 195 0
171 195 0
173 196 0
172 196 0
172 195 0
171 195 0
171 194 0
170 193 0
170 193 0
172 195 0
169 192 0
170 194 0
169 192 0
167 191 0
173 195 0
173 195 0
173 195 0
168 191 0
170 193 0
170 194 0
171 193 0
170 193 0
169 192 0
171 194 0
167 190 0
170 194 0
169 193 0
169 193 0
174 197 0
171 194 0
173 196 0
170 193 0
165 188 0
167 190 0
171 195 0
172 196 0
169 193 0
167 189 0
171 195 0
168 192 0
169 193 0
170 193 0
172 195 0
166 189 0
168 191 0
164 187 0
168 190 0
165 187 0
167 189 0
166 188 0
162 186 40
140 163 92
78 110 148
61 96 151
61 97 153
62 98 163
61 98 161
61 96 150
61 97 163
63 98 165
62 98 161
63 99 167
62 99 166
62 98 164
63 99 172
62 98 163
62 98 159
62 98 165
62 98 166
61 98 165
62 98 164
63 99 169
61 98 168
62 98 167
62 98 168
62 98 168
62 99 170
62 99 170
62 99 171
61 98 169
61 98 168
61 97 167
62 98 169
62 98 173
62 98 169
62 98 170
62 98 168
63 99 173
63 100 176
62 98 172
61 97 166
62 99 175
61 98 169
63 99 170
61 98 167
62 99 167
62 99 176
62 99 175
62 99 172
62 98 174
62 99 172
62 99 170
62 98 166
61 98 167
63 99 174
63 99 171
62 99 176
61 98 173
63 99 171
62 98 169
62 99 175
62 99 173
62 98 167
62 98 169
61 98 169
61 98 175
63 99 173
62 98 173
62 98 172
62 99 173
62 98 170
62 98 169
63 99 175
62 98 169
62 99 172
62 98 174
62 99 177
62 98 171
63 100 177
63 100 176
63 99 175
62 99 169
62 99 174
62 99 173
62 98 170
62 98 170
62 99 171
62 99 174
62 98 171
61 98 171
62 99 172
62 99 173
62 99 175
62 99 176
61 98 171
62 98 168
62 99 175
61 98 172
62 99 168
62 98 171
63 100 174
63 99 175
61 98 173
62 98 167
63 99 172
61 98 171
61 98 166
62 98 169
61 98 160
61 98 166
62 98 169
62 99 172
63 99 172
62 98 165
61 98 174
62 99 173
62 98 171
62 99 170
63 100 175
63 100 174
62 99 169
63 99 169
62 99 167
62 99 169
63 99 169
61 97 161
61 98 169
62 99 168
61 98 169
62 98 170
62 98 170
63 99 169
62 98 168
62 98 167
62 98 169
62 98 169
63 99 168
62 99 167
62 98 165
63 99 169
62 99 167
63 99 167
63 99 166
63 99 168
62 99 169
62 99 170
62 98 164
63 100 172
63 99 168
61 98 169
61 98 161
62 98 164
63 99 171
62 98 166
62 98 165
62 98 164
61 97 159
62 98 164
61 97 157
62 98 165
62 98 162
61 97 156
63 98 171
62 97 157
61 97 161
62 98 163
62 98 166
61 96 156
61 96 156
62 97 158
61 97 159
60 95 145
60 95 150
61 97 160
61 95 149
60 93 145
60 94 143
58 90 142
54 81 125
51 70 78
52 60 47
47 55 31
42 52 31
44 52 29
45 54 33
46 56 36
49 57 31
47 57 37
54 64 36
46 57 34
62 69 31
55 67 40
54 65 39
70 76 38
82 87 36
75 82 39
76 84 43
77 83 40
79 86 43
100 102 43
109 111 44
93 97 40
100 103 46
113 115 41
121 120 55
109 112 49
115 117 46
122 120 48
129 127 52
127 126 53
131 129 57
137 134 63
142 138 52
145 141 62
147 143 56
153 148 66
149 145 51
156 150 62
151 147 54
160 153 59
159 153 65
162 155 59
160 155 59
162 156 63
163 156 62
162 157 56
164 157 66
166 158 65
165 158 65
164 159 58
162 156 57
163 157 62
169 162 67
164 158 56
168 161 63
172 164 70
164 158 58
164 158 58
162 157 59
168 161 65
164 159 57
166 160 61
164 157 56
164 157 58
167 160 63
168 160 69
172 163 71
168 161 67
165 159 60
169 162 65
165 158 61
168 161 65
167 161 60
164 158 54
163 158 57
168 161 63
170 162 66
168 161 60
165 158 56
166 159 58
166 160 56
172 164 69
163 157 51
164 158 56
162 157 52
165 159 61
163 158 56
166 159 57
167 160 61
160 155 45
165 158 56
165 159 58
164 157 58
163 156 51
160 154 44
164 158 54
163 157 52
160 155 44
161 156 48
163 157 49
161 156 49
159 154 37
162 155 47
162 155 45
160 154 39
160 155 39
159 153 42
155 150 32
153 148 34
154 149 39
150 145 34
152 147 34
147 142 25
147 142 25
146 146 19
157 153 39
152 154 19
151 153 25
151 154 30
149 152 19
156 162 22
153 160 19
160 170 16
160 168 28
160 175 11
162 179 11
166 183 11
165 183 0
169 189 0
171 192 0
172 192 0
170 190 0
171 193 0
170 191 0
171 190 0
171 191 0
170 194 0
172 196 0
169 192 0
173 196 0
169 192 0
171 194 0
172 196 0
171 194 0
170 194 0
171 195 0
170 193 0
173 197 0
171 194 0
172 195 0
171 195 0
170 194 0
172 196 0
169 192 0
171 194 0
169 193 0
168 192 0
173 196 0
170 194 0
171 195 0
170 194 0
172 196 0
172 196 0
172 195 0
171 195 0
171 195 0
172 195 0
172 195 0
170 193 0
168 192 0
170 194 0
173 196 0
173 195 0
167 190 0
166 190 0
170 193 0
172 195 0
171 194 0
170 194 0
170 193 0
168 191 0
170 194 0
170 194 0
172 194 0
170 193 0
167 191 0
168 191 0
168 191 0
172 195 0
171 194 0
172 195 0
168 191 0
172 195 0
167 192 0
168 191 0
170 193 0
172 193 0
169 193 0
170 194 0
169 192 0
171 194 0
171 194 0
168 191 0
169 192 0
170 193 0
168 192 0
169 192 0
169 193 0
171 194 0
167 190 0
168 191 0
167 190 0
170 193 0
170 193 0
170 192 0
170 193 0
173 196 0
169 191 0
167 191 0
168 191 0
164 187 47
125 150 108
73 106 150
61 97 158
61 96 152
62 97 162
62 98 164
62 99 167
62 98 161
62 98 162
62 98 157
62 99 170
61 97 161
62 98 163
62 98 169
62 98 162
62 98 167
62 98 169
62 98 168
62 98 166
62 99 170
61 98 166
62 98 166
62 99 168
61 98 166
62 98 165
62 98 172
61 98 164
61 97 166
63 99 171
63 99 166
62 98 171
62 98 164
62 98 171
62 98 165
62 98 169
62 99 172
61 98 170
61 98 164
63 99 167
63 99 174
62 98 169
63 99 172
62 99 174
61 98 166
61 98 164
62 98 170
62 99 175
62 98 173
62 98 173
62 98 171
61 98 170
61 98 172
62 99 174
63 100 176
62 98 169
62 98 168
62 98 171
63 99 173
62 99 171
62 98 169
62 98 172
61 98 167
63 99 174
61 98 171
62 99 174
62 99 175
62 98 170
62 99 174
62 99 171
63 100 173
61 98 169
62 98 172
62 99 175
62 98 172
61 98 169
62 98 171
62 99 174
62 98 170
62 98 167
62 99 173
62 99 175
62 99 169
62 99 169
62 99 169
62 99 173
63 99 167
62 98 165
62 99 170
62 99 167
62 98 168
62 98 169
63 99 166
62 99 173
62 98 166
62 98 170
62 99 176
62 98 168
63 99 172
62 99 172
62 98 167
62 99 171
62 98 169
62 99 172
63 99 174
63 99 172
62 98 167
62 99 172
62 98 168
63 99 168
63 99 174
62 99 172
62 99 173
62 99 170
62 99 173
61 98 165
62 99 172
62 99 173
62 98 171
62 98 170
63 99 172
64 100 177
63 99 172
62 99 166
62 99 174
62 98 169
63 99 170
62 99 166
62 98 167
63 99 168
63 99 172
63 99 170
62 99 169
62 99 169
62 98 167
63 99 169
62 98 167
62 98 167
62 98 163
62 98 169
63 99 172
61 97 161
61 98 163
62 98 170
62 98 167
62 98 163
62 98 163
62 98 163
62 98 168
62 98 163
62 98 167
62 98 169
62 99 164
62 98 165
62 98 164
61 98 165
62 98 163
63 99 170
63 99 166
62 98 164
62 98 164
61 97 160
61 97 163
62 97 160
61 97 159
60 95 151
61 97 158
61 96 153
62 98 166
61 96 154
62 97 155
61 96 159
61 96 156
60 94 151
60 94 149
61 96 156
60 94 145
58 90 139
54 83 121
56 75 86
36 50 45
41 49 24
43 51 25
49 57 33
43 52 29
42 53 34
47 57 36
56 65 37
54 64 40
54 64 35
61 68 36
59 68 37
65 72 36
67 75 40
76 82 42
80 85 38
76 81 36
82 88 42
90 94 39
93 96 39
98 101 37
89 93 36
109 110 47
118 118 46
106 108 38
116 117 40
121 121 41
126 125 52
124 122 55
133 130 51
123 122 43
133 132 56
146 141 61
136 134 54
144 141 52
139 136 51
145 141 54
150 145 57
150 145 56
162 156 63
158 153 60
150 146 51
162 156 57
163 157 63
165 158 65
165 159 57
166 159 66
164 158 62
163 157 53
167 160 67
168 161 65
163 157 51
166 159 60
165 158 64
168 161 65
168 161 65
167 159 64
164 157 65
166 159 57
163 157 58
164 157 59
162 156 54
164 158 57
164 158 60
170 162 66
167 160 61
162 157 53
160 155 52
166 160 61
167 160 63
163 157 61
165 158 61
166 159 59
166 160 61
166 159 59
164 158 56
166 159 62
168 160 66
164 158 56
169 162 61
162 156 45
164 159 54
162 157 49
166 160 59
167 160 59
164 158 53
160 155 39
163 157 45
164 157 52
162 156 54
162 156 45
164 157 51
162 157 51
159 155 41
160 154 51
160 155 41
162 157 51
165 158 52
162 156 44
162 156 42
161 155 45
160 154 42
158 154 37
160 155 36
159 153 39
161 154 42
154 150 25
152 148 22
157 151 39
154 150 34
150 146 30
148 144 16
145 141 19
144 140 30
149 145 28
145 145 22
145 145 19
154 159 11
147 148 11
152 157 25
150 155 28
159 170 19
157 169 16
162 176 19
161 178 11
164 180 0
169 187 0
166 183 0
168 188 0
170 190 0
172 192 0
170 189 0
171 192 0
171 191 0
170 190 0
168 186 0
174 197 0
171 194 0
174 197 0
170 194 0
170 194 0
173 196 0
170 194 0
172 196 0
171 195 0
171 195 0
171 194 0
170 194 0
169 192 0
171 195 0
170 193 0
169 193 0
172 196 0
169 193 0
172 194 0
172 196 0
170 193 0
171 194 0
171 195 0
171 194 0
172 196 0
170 194 0
172 195 25
171 194 0
168 191 0
169 194 0
171 196 0
170 194 0
173 196 0
168 192 25
170 194 0
172 196 0
171 193 0
172 196 0
170 193 25
170 193 0
168 191 0
169 192 25
169 193 0
169 192 0
169 193 0
172 195 0
173 196 0
171 195 0
169 193 0
167 191 0
167 191 0
171 194 0
170 193 0
170 194 0
169 193 0
168 191 0
170 193 0
168 191 0
170 193 0
169 192 0
172 195 0
172 195 0
165 188 0
167 190 0
166 190 0
168 192 0
167 190 0
171 194 0
166 189 0
170 194 0
169 192 0
165 188 0
165 189 0
168 192 0
162 186 0
167 190 0
169 192 0
167 191 0
168 191 0
169 192 0
170 194 0
166 190 0
166 188 0
169 193 0
149 173 70
124 149 108
66 101 160
63 99 161
62 97 152
61 97 153
61 97 161
62 98 159
61 97 155
62 98 168
62 98 160
62 98 167
61 97 158
61 97 155
62 98 161
62 98 161
61 97 160
62 98 162
61 97 161
63 99 169
62 98 166
62 99 167
62 98 167
63 99 170
62 98 165
62 98 165
62 99 170
62 98 167
63 99 170
62 98 169
61 97 164
62 98 171
62 99 170
62 98 168
63 99 174
62 99 174
63 99 174
63 99 169
62 99 170
61 98 171
62 99 174
61 98 171
62 99 170
62 99 172
63 99 173
62 99 171
62 99 176
62 99 177
62 98 169
63 99 176
62 98 171
61 98 170
62 98 169
62 99 172
62 99 173
62 99 174
62 98 169
62 99 173
62 98 171
62 99 172
62 98 170
63 99 175
62 99 173
62 99 169
63 99 176
62 99 170
62 99 171
63 99 174
61 98 174
62 99 172
62 99 172
61 98 166
63 99 172
63 99 174
62 98 169
63 100 176
62 99 174
62 98 172
63 100 178
63 99 172
62 98 175
62 99 172
61 98 167
62 99 172
63 99 174
62 99 174
62 99 169
63 99 170
61 98 169
63 100 176
62 99 172
63 99 166
62 98 170
62 99 170
62 99 176
62 99 173
62 98 170
62 99 175
62 99 172
62 99 170
62 99 174
62 98 167
62 99 173
63 100 178
62 98 170
62 99 173
62 98 170
62 99 170
62 99 169
63 100 174
62 99 170
61 98 165
62 99 170
62 98 172
62 98 167
63 99 170
61 98 165
62 98 169
62 99 174
62 99 171
62 98 168
62 98 167
63 99 173
62 98 163
63 99 165
61 98 164
62 99 172
62 98 170
62 98 166
62 98 168
62 98 166
62 98 163
62 99 168
61 98 173
62 98 166
63 99 164
62 99 171
62 98 164
62 99 168
61 98 163
62 98 169
62 99 169
62 98 164
62 98 164
62 98 162
62 98 165
62 98 167
62 98 169
62 98 166
63 99 169
62 98 168
62 98 167
61 97 158
61 97 158
61 97 159
62 98 166
62 99 169
62 98 159
62 98 162
62 98 167
62 98 158
61 97 163
61 96 152
62 98 164
62 98 168
62 98 169
61 97 161
62 98 162
62 98 159
62 98 165
61 97 158
60 94 152
61 95 153
62 97 159
60 94 143
61 96 149
60 95 152
59 92 137
57 83 124
52 73 93
47 60 67
55 62 36
50 57 30
48 56 32
50 58 31
44 54 35
46 55 32
53 61 32
45 55 34
48 59 36
58 66 35
61 70 34
67 75 35
75 82 38
62 71 40
74 80 40
75 82 38
91 95 41
86 90 32
85 90 37
91 94 43
95 99 38
105 107 42
104 106 43
109 110 38
121 120 51
118 119 46
120 120 57
129 127 51
126 125 41
130 128 46
122 122 48
142 139 45
136 134 56
149 144 56
145 141 48
154 149 52
150 147 45
148 144 56
150 146 44
150 146 52
155 149 50
157 151 55
161 155 57
166 159 63
158 152 51
157 152 47
156 151 51
162 156 60
167 159 67
165 159 57
165 158 59
159 154 47
162 156 56
163 156 54
164 159 53
165 159 61
164 157 59
161 156 52
166 159 63
168 161 63
158 154 49
168 161 61
164 158 56
168 161 60
164 158 53
162 155 51
165 159 62
166 159 63
168 161 64
164 158 59
169 161 66
166 159 62
165 159 59
160 155 44
161 155 44
164 158 54
162 156 52
166 160 57
165 158 53
164 159 53
162 157 48
160 155 52
160 155 48
161 156 49
160 155 41
165 159 52
160 155 42
164 158 52
162 156 44
163 157 45
162 157 45
163 157 54
160 156 39
161 155 44
159 154 39
162 157 47
163 157 51
161 155 44
161 155 39
158 153 37
157 152 32
156 152 32
158 153 36
155 151 30
157 153 32
158 151 37
157 152 39
157 152 28
151 146 25
151 146 30
150 145 39
148 144 25
145 141 22
149 146 28
146 147 30
144 145 28
148 152 19
151 158 19
145 153 0
156 168 19
162 177 11
158 170 11
161 178 11
157 173 11
162 180 11
162 181 0
168 187 0
169 191 0
173 193 0
171 191 0
170 189 0
169 190 0
170 189 0
171 191 0
170 190 0
172 196 0
173 197 0
172 195 0
171 195 0
172 196 0
167 191 0
172 195 0
170 194 0
172 196 0
169 192 0
171 193 0
172 196 0
172 195 0
167 190 0
171 195 0
171 194 0
171 195 0
175 198 0
170 193 0
172 195 0
171 195 0
169 192 0
171 195 0
171 194 0
168 191 25
172 196 0
172 195 0
170 193 25
171 195 0
170 193 0
170 193 44
169 192 25
171 194 25
168 191 0
167 190 25
170 194 0
170 194 25
171 194 25
172 194 44
173 195 36
172 194 25
172 194 36
170 193 36
173 196 0
167 191 0
170 193 36
169 191 36
171 194 0
170 193 36
170 194 0
173 196 25
172 195 0
168 192 0
170 193 25
168 191 0
173 196 0
172 195 25
168 192 0
169 192 0
168 191 0
172 194 0
170 194 0
170 193 0
171 195 0
171 194 0
167 190 0
170 193 0
166 189 0
168 191 0
168 191 0
170 192 0
170 194 0
170 193 0
168 192 0
166 190 0
167 190 0
170 193 0
170 194 0
168 191 0
169 191 0
172 195 0
167 191 0
170 193 0
165 189 31
150 173 74
103 130 129
62 97 158
61 98 159
61 97 155
62 98 162
62 99 165
62 98 161
62 98 164
62 98 163
61 97 155
63 99 169
62 98 166
62 99 169
61 98 165
61 97 165
62 98 161
62 98 166
61 97 161
61 97 165
61 98 165
62 98 164
62 98 159
62 98 160
62 98 169
62 98 163
62 98 167
62 99 177
62 98 165
62 98 167
62 98 166
62 98 171
62 98 172
62 98 167
61 98 169
62 98 170
61 98 168
61 98 166
62 98 170
61 97 165
62 99 169
62 99 172
62 99 171
61 98 175
61 98 172
62 99 171
61 98 167
62 98 170
63 99 175
62 98 168
62 98 169
62 98 169
63 99 171
62 98 167
62 98 170
62 99 176
62 99 174
61 98 172
61 97 163
62 99 173
62 98 168
63 100 175
63 100 175
61 97 165
63 99 176
62 98 171
62 98 168
62 99 172
61 98 169
62 99 171
62 98 169
62 99 173
61 98 172
62 98 168
62 99 171
63 99 177
63 99 173
61 98 171
62 99 171
62 99 173
62 99 172
61 98 169
62 99 173
62 99 172
63 99 176
63 99 172
62 99 172
63 99 172
62 98 170
63 99 174
62 99 171
62 99 174
62 99 172
63 99 176
61 98 163
62 98 169
61 98 167
62 99 172
61 98 167
62 98 172
62 99 174
62 99 172
62 99 170
63 99 172
62 99 175
63 99 170
62 99 174
62 99 171
61 97 160
62 98 167
62 99 174
62 99 168
62 99 167
62 99 168
62 99 164
62 98 168
61 98 171
62 98 164
61 98 168
62 98 162
62 98 165
62 98 166
62 98 168
62 98 168
62 98 165
63 99 172
61 97 162
62 99 173
63 99 174
62 98 165
63 99 168
62 99 168
63 99 169
62 99 170
61 98 162
63 99 171
62 98 167
63 99 172
62 98 162
62 99 168
61 97 157
63 100 174
62 98 158
62 98 167
62 99 166
62 99 170
63 99 165
62 98 169
63 99 167
63 100 172
62 98 165
62 98 162
62 98 164
62 98 163
63 99 169
62 98 165
61 98 164
62 98 165
61 97 155
60 97 155
61 97 155
62 97 159
62 98 164
63 98 162
61 97 158
62 98 170
61 96 156
61 96 152
61 97 163
61 97 159
61 96 156
61 95 149
60 94 147
60 94 154
60 95 145
61 95 151
61 95 148
60 93 144
58 87 119
50 69 84
49 63 64
47 54 28
57 62 27
58 64 23
50 59 28
59 65 27
53 62 28
67 71 23
59 67 31
59 67 34
56 66 37
61 69 37
75 81 31
80 85 33
70 78 42
76 83 34
82 87 33
87 91 36
82 87 28
93 96 37
99 104 43
103 105 38
101 104 42
104 106 40
98 102 37
115 117 44
116 117 42
122 121 45
127 127 43
135 133 52
132 131 55
137 134 48
140 138 49
139 137 40
141 138 46
142 139 47
149 145 53
150 146 53
157 151 60
150 146 46
157 152 51
157 151 53
154 149 43
158 152 50
158 152 53
162 157 54
154 149 44
160 155 53
160 155 48
160 154 49
165 158 54
154 150 47
160 154 57
163 157 59
166 159 58
160 155 49
164 158 59
163 157 53
161 155 54
161 155 58
167 160 60
165 159 57
163 157 52
165 159 53
163 157 51
164 158 58
165 158 63
163 156 53
167 160 61
163 157 54
161 155 52
161 156 52
161 155 51
167 160 60
159 154 42
165 159 54
164 157 51
166 159 59
161 156 49
164 158 53
164 157 52
163 157 54
164 157 53
159 155 44
165 157 59
160 154 44
162 156 51
159 154 44
162 157 44
160 154 42
163 157 53
165 159 52
157 152 34
154 150 36
161 156 42
158 153 34
161 155 42
161 156 45
158 153 44
161 155 44
159 154 41
156 151 25
158 153 34
157 152 25
155 149 37
156 152 30
153 148 28
154 149 32
160 154 41
146 142 22
150 146 19
146 142 25
149 146 22
140 136 16
145 144 19
144 145 16
153 153 25
147 153 11
152 158 11
156 165 19
155 165 16
157 168 0
161 176 11
166 182 11
166 185 0
166 186 0
167 185 0
173 192 0
169 188 0
173 194 0
168 189 0
170 191 0
171 192 0
171 192 0
168 189 0
169 187 0
172 195 0
170 193 0
167 191 0
173 197 0
170 194 0
174 197 0
171 194 0
173 197 0
169 193 0
174 197 0
171 194 0
171 195 0
171 194 0
169 194 0
170 194 0
171 194 0
168 191 0
172 196 0
172 196 25
170 192 25
175 198 0
171 195 0
172 196 0
172 196 25
171 194 0
174 197 44
172 195 0
171 193 0
174 196 57
168 191 0
171 193 0
172 195 0
172 194 51
174 197 36
166 189 0
172 195 25
173 196 51
173 196 44
171 194 25
171 195 36
170 193 36
171 195 36
172 195 44
171 194 36
170 193 36
172 195 25
174 197 25
172 195 25
172 194 25
171 194 44
174 197 62
170 194 0
168 192 0
164 189 0
167 191 0
171 194 0
169 192 25
171 194 0
173 195 0
168 191 0
168 191 0
173 196 0
165 188 0
166 190 0
169 192 0
170 192 0
165 188 0
171 195 0
172 195 0
170 193 0
167 191 0
169 192 0
171 194 0
169 192 0
172 195 0
171 194 0
168 191 0
170 193 0
166 189 0
172 195 0
166 189 0
166 190 0
171 193 0
165 187 0
148 172 67
94 122 121
64 100 158
62 98 162
61 97 156
62 98 154
61 97 157
62 98 159
62 98 162
62 98 159
62 98 163
61 97 155
62 98 163
61 97 161
62 98 164
62 98 164
61 98 165
62 98 169
62 98 166
62 99 169
62 98 167
63 99 171
62 98 167
62 98 172
61 98 165
62 99 173
62 98 162
61 98 167
62 98 164
61 97 164
62 98 169
63 99 169
61 98 166
61 97 164
62 99 167
62 99 174
62 99 169
61 98 169
61 97 164
62 98 169
62 99 173
62 99 175
62 98 172
61 98 166
62 98 166
62 99 168
62 99 170
62 99 169
62 98 166
62 99 174
63 99 171
62 98 166
62 99 172
62 98 170
62 98 171
62 99 174
62 98 168
62 98 166
63 99 176
62 99 171
62 99 172
62 99 175
62 98 170
62 99 174
62 99 172
62 98 170
61 98 164
63 99 173
62 98 168
62 98 170
62 99 174
63 100 174
62 99 173
62 98 171
63 99 175
62 99 172
62 98 171
63 99 176
61 98 172
62 99 171
62 99 171
63 99 169
62 98 169
63 99 172
61 98 169
62 99 170
61 98 166
62 99 175
61 98 171
61 97 166
62 99 168
62 99 173
61 98 172
62 98 172
62 98 167
62 99 172
63 99 170
62 98 168
62 98 163
62 98 169
62 98 167
62 98 169
62 98 169
63 99 172
62 99 170
62 98 168
63 100 173
62 99 170
62 99 173
62 98 170
63 99 173
62 98 165
63 99 169
63 99 172
62 99 171
62 99 171
63 99 176
62 99 174
62 99 169
62 99 172
62 98 170
62 99 169
62 98 170
62 99 166
61 97 161
62 98 165
62 99 171
61 98 164
61 98 165
61 98 165
62 98 165
62 98 165
62 99 171
62 98 167
62 99 168
62 99 167
63 99 166
61 98 166
62 98 168
63 99 170
62 98 167
62 99 165
62 98 158
61 97 158
62 98 163
62 99 171
62 98 169
62 98 163
61 98 162
61 97 161
62 98 161
62 99 167
62 98 161
62 99 169
62 98 163
63 100 169
63 99 168
61 97 150
61 96 152
61 97 160
62 98 164
62 97 158
62 98 165
63 98 165
62 97 156
62 98 159
61 97 156
61 96 149
60 95 156
62 98 164
61 96 153
61 97 157
61 95 150
61 96 160
61 96 156
60 94 147
60 93 141
59 92 141
58 88 140
57 78 98
53 66 68
50 58 35
46 53 24
66 70 27
61 64 25
52 59 30
50 59 27
54 64 36
70 76 35
66 73 31
65 72 31
65 72 32
69 76 32
66 74 36
85 89 27
87 91 34
91 94 29
88 92 36
93 98 41
92 95 31
94 98 39
103 106 28
109 110 38
113 113 35
113 114 29
123 123 40
123 122 45
128 127 51
121 121 51
117 118 34
129 128 46
136 134 38
128 127 46
133 131 46
138 135 39
141 138 44
148 144 39
149 146 45
150 146 49
149 145 40
152 148 45
153 149 49
152 147 49
157 152 52
158 152 49
160 154 54
153 149 37
164 157 58
161 155 49
160 155 49
161 155 52
153 149 48
160 155 53
164 158 57
160 155 54
160 154 48
162 156 53
155 151 48
164 158 56
160 155 49
162 157 52
163 157 48
164 157 59
162 156 45
167 159 61
163 157 49
166 159 57
161 154 52
161 155 48
163 157 49
159 153 48
163 158 47
164 158 56
163 157 49
164 158 54
161 155 44
161 155 44
161 156 44
161 156 51
159 155 42
162 156 49
162 155 48
159 154 42
165 160 57
162 157 41
160 154 45
163 156 45
161 156 42
161 155 47
159 154 39
160 155 41
158 154 37
163 158 48
160 154 39
159 155 34
160 155 41
160 155 34
156 152 32
157 153 34
160 154 37
159 154 30
157 152 30
154 149 30
155 150 30
154 150 36
154 149 22
154 149 19
156 150 32
150 146 11
148 143 19
148 144 28
147 144 22
145 140 25
153 152 19
146 145 16
153 156 16
152 156 0
148 152 16
153 160 19
157 169 0
150 162 0
160 173 11
157 172 0
163 181 0
164 182 11
166 184 0
166 184 0
171 190 0
170 188 0
171 191 0
171 191 0
171 192 0
173 194 0
168 189 0
172 193 0
169 189 0
171 195 0
167 191 0
172 196 0
170 194 0
171 194 0
169 192 0
172 195 0
170 194 0
172 195 0
171 194 0
173 195 0
169 192 0
169 192 0
168 192 0
171 194 25
171 194 0
173 196 0
174 197 36
168 191 25
170 194 25
170 193 0
173 196 44
170 193 25
172 195 0
171 195 36
170 193 51
172 195 0
172 196 36
171 194 44
173 196 36
171 195 25
171 194 36
170 194 51
170 193 36
170 194 36
170 194 0
170 193 25
173 195 62
171 194 36
173 196 51
171 194 0
173 196 36
167 190 44
171 194 44
171 194 51
173 196 36
174 197 25
173 195 57
175 196 67
171 194 36
170 192 44
173 196 25
168 191 0
171 194 44
173 196 57
170 193 36
167 191 0
170 194 25
173 195 25
168 191 25
166 190 25
169 192 25
169 192 0
167 190 0
171 194 0
169 192 25
172 195 0
173 196 0
170 194 0
168 192 0
171 194 0
166 190 0
169 192 0
169 193 0
171 194 0
170 192 0
169 192 0
170 193 0
168 191 0
165 187 0
165 187 0
164 187 0
168 191 0
170 193 31
145 170 86
96 125 134
61 96 152
62 98 159
61 96 152
62 98 165
62 98 158
60 96 147
62 98 154
62 98 157
62 98 163
60 96 158
62 99 166
63 99 164
61 97 162
62 98 167
61 97 159
62 98 164
61 97 160
62 98 165
61 97 162
61 98 170
62 98 166
62 98 164
61 97 162
62 99 170
62 98 164
62 98 170
62 99 170
62 99 167
61 98 169
62 99 172
62 99 165
62 98 162
62 98 164
62 98 168
62 98 167
62 99 172
62 98 169
62 99 172
62 99 173
62 99 169
62 98 172
62 99 173
63 99 174
61 98 165
61 97 164
62 99 172
62 99 174
62 98 163
63 99 176
62 99 170
62 99 171
62 98 171
62 98 169
63 99 173
61 98 168
62 98 173
62 99 174
62 99 171
62 99 171
62 99 174
63 99 173
61 98 169
62 98 167
63 99 171
62 98 172
62 98 166
62 99 169
62 98 173
61 98 170
61 98 167
62 98 170
63 99 168
62 99 174
62 98 168
62 99 171
61 98 167
63 99 174
62 99 171
61 98 163
62 98 167
63 99 173
61 98 168
61 98 163
63 99 166
61 98 167
62 99 173
62 99 174
62 98 167
62 98 170
62 99 172
62 99 168
62 99 171
62 98 169
61 98 171
62 98 172
62 98 165
62 98 165
61 98 169
61 98 167
62 98 169
62 98 166
63 99 173
61 98 169
62 99 175
63 100 176
62 98 165
63 99 172
62 99 173
61 98 163
63 99 173
62 99 168
63 99 174
62 99 173
63 99 167
62 98 169
63 100 173
63 99 173
61 98 165
62 98 164
62 99 169
62 99 171
62 98 170
62 98 164
62 98 161
62 98 164
62 98 170
63 99 167
62 99 172
62 99 171
62 98 165
62 99 170
62 98 168
63 99 169
62 99 169
61 97 165
63 99 170
62 98 168
61 98 164
62 99 171
62 98 159
63 99 165
62 99 166
62 98 162
63 99 165
62 98 169
63 99 168
62 99 171
62 98 164
62 98 162
62 98 165
61 97 161
63 99 168
62 97 156
61 97 163
61 97 163
62 98 166
62 98 162
63 99 168
62 98 163
62 97 167
61 97 161
61 96 149
62 97 160
62 98 162
62 97 162
62 97 154
62 97 158
61 97 154
60 95 151
61 96 155
62 97 154
61 96 153
62 97 159
59 93 144
61 96 151
58 91 138
61 89 127
61 81 110
51 66 70
56 63 40
62 67 24
66 69 29
63 71 27
70 73 30
53 59 26
69 74 26
65 69 22
66 70 29
79 83 33
68 75 31
74 80 39
67 72 33
88 92 32
81 86 30
86 90 32
88 92 32
82 89 38
102 103 30
94 97 31
107 110 27
106 109 36
98 101 37
110 112 34
114 115 38
117 117 39
130 128 44
120 120 30
127 125 35
129 129 30
136 134 37
135 133 43
140 136 42
139 136 38
136 134 33
137 134 41
142 139 48
145 141 39
144 140 45
153 147 55
153 149 41
155 150 41
156 151 41
155 150 42
158 153 49
155 150 47
163 157 54
161 155 59
161 155 58
153 149 42
153 149 48
158 153 37
158 153 49
163 157 48
155 151 37
157 152 42
160 155 49
157 152 44
161 155 51
160 154 48
158 153 53
163 157 51
161 156 54
158 154 42
160 154 42
160 155 42
159 154 51
160 155 47
159 153 47
162 157 48
159 154 44
161 155 47
160 155 39
163 157 53
161 156 42
158 154 45
159 155 42
155 151 37
162 156 51
160 155 39
159 154 41
162 156 51
160 154 41
162 155 45
161 157 45
156 152 32
160 154 39
160 155 44
161 156 47
156 151 34
156 152 34
157 153 34
160 155 37
158 153 37
155 150 25
160 155 34
160 154 37
156 152 30
157 153 28
154 151 22
154 150 28
157 152 34
153 149 22
150 147 19
153 148 25
151 147 19
151 146 30
148 144 16
148 143 19
143 138 16
140 137 11
147 145 25
153 154 11
144 141 19
152 156 11
146 154 11
149 156 11
148 155 16
156 167 11
155 167 11
163 176 19
162 176 0
160 173 0
166 184 0
170 189 0
165 182 0
169 188 0
168 189 0
169 189 0
171 194 0
172 192 0
172 192 0
170 190 0
172 193 0
170 191 0
173 196 0
171 194 0
171 194 0
171 194 0
172 195 0
169 193 0
173 197 0
170 193 0
171 194 0
173 196 25
174 197 44
172 195 36
169 193 0
171 194 36
172 194 0
173 197 36
173 197 25
168 191 36
172 194 0
172 195 44
171 195 36
172 196 0
171 193 51
169 192 44
172 195 51
169 192 25
172 195 36
173 196 57
175 198 57
169 193 25
173 196 25
174 197 51
168 191 44
170 192 51
175 198 51
173 196 36
170 194 57
175 198 51
171 193 0
173 195 25
173 196 62
171 194 36
173 197 57
169 191 36
175 198 57
174 196 51
173 196 62
167 191 51
171 195 51
173 196 62
170 193 25
176 199 72
174 198 62
173 196 44
171 194 44
167 190 44
172 195 57
170 193 25
170 193 36
173 195 51
170 193 44
169 192 25
168 191 25
170 193 0
169 192 36
169 193 36
168 192 0
167 191 0
168 191 0
172 195 25
172 195 0
166 190 0
169 192 25
165 189 0
169 193 0
168 191 0
167 189 0
166 190 0
168 191 0
171 195 0
166 189 0
167 190 0
166 190 0
157 180 60
140 165 87
86 116 147
62 98 156
61 97 155
61 97 154
61 97 154
61 98 161
62 99 165
61 97 158
61 97 159
62 98 162
61 98 159
61 97 160
62 98 164
63 99 166
60 96 150
62 98 168
62 98 166
63 99 168
62 98 163
61 97 156
61 97 161
62 98 161
61 98 167
61 97 163
62 98 165
61 97 164
62 98 164
62 98 164
61 97 164
62 98 170
62 98 167
62 98 171
62 98 166
62 98 169
62 99 169
62 98 166
62 98 169
62 99 173
61 98 169
61 97 168
61 98 168
62 98 164
61 98 171
62 98 171
62 99 170
62 99 171
62 98 167
61 98 170
62 99 173
62 98 168
62 98 168
62 99 172
62 98 172
62 99 170
63 99 174
62 99 173
62 99 172
62 98 169
62 99 175
62 99 175
62 98 169
62 99 173
62 98 171
62 98 171
61 98 170
62 99 173
62 99 175
63 99 175
62 99 175
63 99 173
62 99 173
62 98 165
62 99 171
62 98 166
63 99 168
62 99 173
62 99 170
63 99 170
62 98 165
62 99 168
61 97 164
63 99 168
63 99 172
62 99 170
63 99 169
63 99 171
62 98 172
62 99 171
61 98 163
62 99 168
62 98 169
63 99 171
62 98 169
62 98 169
62 98 169
62 99 170
62 99 167
62 99 169
62 98 169
62 98 169
63 100 178
62 98 167
63 99 170
62 98 170
61 98 165
62 98 168
61 98 165
62 98 165
62 99 169
61 98 166
62 98 168
63 99 169
62 99 170
61 98 165
62 98 166
60 97 162
62 99 173
62 99 164
62 99 170
62 98 165
62 98 162
62 99 165
61 98 171
62 98 165
62 98 167
62 99 168
62 99 168
62 99 164
62 99 169
61 98 167
62 98 166
62 98 169
62 98 167
62 99 166
62 98 166
62 99 168
62 98 168
62 98 162
62 98 166
63 99 170
62 98 164
62 98 168
62 99 167
63 99 166
62 98 163
61 97 162
62 98 167
62 98 161
62 97 157
62 99 168
63 99 169
63 99 164
62 98 164
61 97 161
61 97 161
61 97 159
62 98 157
61 97 153
61 98 163
63 99 169
62 98 161
61 97 156
61 96 152
62 97 153
61 97 158
61 96 159
62 97 158
61 96 154
61 97 155
61 96 146
61 96 149
61 96 152
61 96 152
60 94 147
59 92 136
60 95 149
60 94 150
61 91 132
57 80 106
59 73 73
67 71 46
65 67 17
66 70 27
63 69 29
66 70 24
62 67 29
60 67 33
65 68 18
72 77 37
71 74 27
81 86 31
74 80 34
70 77 27
75 82 40
78 83 25
83 87 35
89 93 30
99 100 24
79 83 33
104 106 32
93 94 26
104 107 31
95 98 31
119 118 37
112 113 29
127 125 40
121 121 35
127 126 33
134 132 40
122 121 37
130 128 34
137 134 39
139 136 42
138 136 32
143 141 36
145 140 46
145 140 49
148 144 42
147 142 43
146 143 28
153 148 42
156 151 42
151 148 34
154 151 34
155 150 37
154 149 44
149 146 36
157 153 45
153 149 37
160 154 44
153 150 41
157 152 44
155 151 41
157 153 42
153 149 37
157 152 44
154 150 41
154 149 37
159 154 41
154 151 41
157 153 39
162 156 51
156 151 39
158 153 39
161 156 44
156 152 39
161 156 39
156 150 37
161 155 45
160 154 47
160 155 45
156 152 34
156 152 42
161 155 44
160 155 48
162 156 52
158 153 42
157 153 39
161 155 45
160 155 45
158 153 32
156 150 37
161 155 41
158 154 41
160 155 41
153 149 28
157 153 28
155 150 44
159 154 39
158 154 32
157 153 25
158 153 36
156 151 25
157 152 36
157 152 36
154 151 22
157 152 30
154 149 36
154 149 25
159 153 36
152 148 22
152 148 28
150 146 22
155 151 30
151 148 19
154 149 30
149 145 19
150 145 25
149 144 19
143 139 11
150 146 22
146 145 11
148 147 22
149 151 11
141 146 0
152 160 11
149 156 16
149 156 16
153 165 11
157 168 11
157 171 16
159 174 11
163 181 11
166 181 0
167 184 0
169 189 11
169 188 0
170 190 0
171 191 0
170 188 0
171 192 0
172 192 0
167 186 0
170 191 0
169 189 0
173 196 0
171 194 0
169 192 0
169 193 0
171 194 0
170 194 0
175 198 25
169 192 25
171 195 25
172 196 0
172 196 0
173 195 44
172 195 36
172 195 25
169 192 0
171 194 25
172 194 44
170 194 44
173 195 36
173 196 44
173 196 36
174 197 51
175 198 51
174 197 36
173 196 44
168 191 25
177 199 57
175 198 67
174 197 44
172 195 51
172 195 44
173 196 44
169 192 44
175 198 51
172 196 36
171 195 25
172 194 36
170 194 36
170 193 62
172 195 51
173 197 44
173 195 57
171 195 36
174 196 57
170 193 36
169 192 44
174 197 44
169 192 25
173 196 51
175 198 62
173 195 57
168 191 57
171 193 44
172 195 62
171 193 36
167 191 36
171 194 51
172 195 51
172 194 51
172 195 25
169 192 25
167 190 36
169 192 51
170 193 36
171 194 44
173 195 0
169 192 0
170 192 36
168 191 36
173 196 0
165 188 36
167 190 0
169 191 0
163 185 25
165 188 0
170 194 0
172 194 0
168 191 0
165 188 0
170 192 0
170 193 0
165 189 0
164 187 0
160 183 44
129 154 92
88 117 140
61 97 155
62 97 155
61 97 155
61 97 153
60 96 150
61 96 156
61 97 155
62 99 168
61 96 158
61 97 157
61 98 162
61 97 154
61 97 160
61 97 166
61 97 166
62 98 163
61 98 168
60 96 160
63 99 166
62 99 168
61 97 162
62 98 165
63 99 167
61 98 166
61 98 164
62 98 165
62 98 167
62 98 166
62 98 164
62 98 167
62 98 165
62 99 170
62 98 165
61 98 168
61 97 168
62 98 166
62 98 171
61 98 166
61 97 161
62 98 171
62 98 168
62 98 169
62 98 171
62 99 173
62 98 170
62 99 177
62 98 173
62 99 169
62 99 171
62 99 175
61 98 167
62 99 171
61 97 158
62 99 172
63 100 174
62 99 173
62 99 173
62 98 169
62 99 169
62 99 171
62 98 164
61 98 168
61 97 162
62 98 168
61 98 173
62 98 171
62 98 170
62 98 168
62 98 166
60 97 163
62 98 166
62 98 166
62 99 169
62 98 171
62 98 163
61 98 169
63 99 169
62 99 168
62 99 175
62 99 172
62 99 169
63 99 175
62 98 167
62 98 168
62 99 167
62 99 173
62 98 174
62 99 173
62 98 164
61 98 166
62 99 170
62 98 164
63 100 173
62 99 169
62 99 168
62 99 170
61 98 167
62 98 167
61 98 167
62 99 168
62 99 173
62 98 166
63 99 174
62 98 165
62 99 172
63 99 169
62 98 166
63 99 166
62 98 168
62 98 167
61 98 165
62 98 169
62 99 172
63 99 171
62 99 170
62 99 171
63 99 170
62 99 172
61 98 161
61 98 167
62 98 165
62 99 169
62 98 164
62 98 167
62 98 169
62 98 165
62 98 172
62 98 162
62 98 166
62 98 162
62 98 168
62 98 165
61 98 163
63 100 171
62 98 161
62 98 166
61 98 160
63 99 168
62 98 169
62 98 164
63 99 173
62 98 166
63 99 166
62 98 167
63 99 169
62 98 160
62 98 164
62 98 162
62 98 165
61 97 163
62 97 154
62 98 159
62 98 161
62 98 163
62 97 155
62 99 170
62 98 161
62 98 164
63 98 164
61 96 160
61 97 158
61 96 157
62 97 160
61 96 150
61 97 158
61 97 159
62 98 158
62 97 157
61 96 152
61 97 157
61 96 152
60 94 137
61 96 151
60 94 142
60 94 150
60 93 143
60 90 130
59 79 96
67 80 88
67 73 53
67 72 23
72 74 20
65 70 25
62 67 26
70 76 30
77 79 27
75 76 25
70 74 32
57 65 29
78 81 29
84 84 28
70 76 34
79 84 34
82 86 35
90 94 24
90 92 25
93 96 30
88 91 33
99 101 28
111 113 33
98 100 29
112 113 30
108 110 31
104 107 35
119 119 37
114 114 30
123 122 34
111 112 38
131 129 40
131 129 41
141 138 36
136 134 37
143 140 33
139 137 35
143 140 42
143 140 35
147 143 34
148 145 36
150 147 42
150 146 34
154 150 38
148 145 36
153 149 39
150 146 37
157 152 45
155 151 36
156 151 39
149 145 41
154 150 34
157 152 41
159 154 42
155 151 42
156 151 44
157 153 42
155 150 36
160 154 44
153 150 34
157 151 49
156 150 37
156 152 36
156 151 42
158 152 42
159 154 42
157 153 32
158 153 39
156 152 30
161 155 51
157 153 44
157 152 36
158 153 45
156 150 41
161 155 44
158 152 37
156 151 34
161 157 42
158 153 39
157 152 28
159 154 45
161 155 41
155 151 32
157 153 34
157 152 36
156 152 34
159 154 36
162 156 39
158 153 36
159 154 28
156 151 25
157 153 30
159 155 34
152 149 22
157 153 34
155 151 28
154 151 22
152 148 25
154 151 28
155 152 25
153 150 25
159 154 25
155 151 11
150 146 16
148 144 19
152 147 11
150 146 16
148 143 11
150 146 0
150 145 22
144 140 19
145 142 0
139 138 0
151 151 16
148 151 22
147 149 11
154 160 16
154 159 11
156 167 0
156 163 11
156 166 0
160 174 0
162 176 16
161 175 0
170 189 0
165 183 11
171 190 0
170 189 0
170 189 0
169 188 0
170 190 0
170 189 0
169 188 0
172 193 0
171 190 0
169 188 0
169 191 0
170 193 0
173 196 0
172 195 0
168 192 0
174 197 25
173 197 25
177 199 44
171 194 44
170 194 0
172 195 51
173 197 51
171 195 36
170 192 36
174 197 62
172 196 36
174 198 44
165 188 0
177 200 62
174 197 57
169 192 57
179 200 67
169 192 44
174 197 62
175 197 62
170 193 57
175 197 67
176 198 57
173 195 44
171 194 36
175 196 57
175 198 57
173 195 57
170 194 0
171 194 51
171 193 44
176 199 67
172 195 36
171 193 25
171 194 57
171 194 25
170 193 44
172 195 57
170 193 51
176 199 76
173 195 57
174 197 51
174 196 51
172 194 57
172 195 36
173 196 62
170 192 51
170 193 44
171 194 72
174 197 57
171 195 51
170 192 51
172 194 62
169 192 51
175 198 72
166 190 36
171 195 25
173 195 44
165 187 44
171 194 51
171 194 44
169 192 36
164 188 36
167 190 57
168 191 44
166 190 25
169 192 0
172 195 36
171 195 44
168 191 25
169 192 25
171 195 25
165 189 0
162 185 0
167 191 0
167 189 0
164 188 0
166 189 0
162 186 25
152 176 62
130 155 94
79 110 149
61 97 149
60 96 147
60 96 151
62 98 164
61 97 154
61 97 159
62 98 159
62 98 164
61 97 154
61 97 157
62 98 165
61 97 156
61 98 163
61 97 161
62 98 158
62 99 167
61 97 160
61 97 157
62 98 172
63 99 161
62 99 166
62 98 167
62 98 162
62 99 170
61 97 160
62 98 168
61 97 164
62 98 166
62 98 162
62 98 163
61 97 165
61 98 169
61 98 165
62 98 166
62 99 170
63 99 165
62 99 170
62 98 167
61 97 167
62 98 167
62 98 174
61 98 166
62 99 174
62 99 172
62 98 169
62 98 172
62 98 166
62 99 171
61 97 165
61 98 171
62 99 171
62 99 171
62 99 170
62 99 166
61 98 169
62 99 170
62 98 165
62 99 174
62 98 172
62 98 168
61 98 166
62 98 169
62 99 170
61 98 168
62 99 174
62 99 174
62 98 165
62 98 167
61 97 169
62 99 171
62 98 167
63 99 175
62 99 168
62 99 169
61 98 170
62 98 171
63 99 171
62 98 169
63 99 171
62 98 168
62 98 166
62 99 172
63 99 169
62 99 173
62 98 165
62 99 171
61 97 159
62 99 170
62 99 170
63 99 170
61 98 169
60 97 168
62 98 168
63 99 171
62 98 168
62 98 168
61 97 165
62 99 171
62 98 168
61 98 164
63 99 168
62 98 160
62 98 165
62 98 166
62 98 167
62 99 172
63 99 170
62 99 167
62 99 169
61 97 162
62 98 166
62 98 166
62 98 167
62 99 174
62 99 171
62 98 170
62 99 172
62 99 167
63 99 169
62 99 170
62 99 167
63 99 164
61 97 161
62 98 167
63 99 171
61 97 160
61 98 163
61 98 160
62 98 157
62 99 166
62 98 167
63 99 169
62 98 165
61 97 159
62 98 164
61 97 161
62 98 164
61 98 160
61 98 160
61 97 159
62 98 164
62 98 161
61 98 164
63 99 167
62 98 160
62 98 164
62 98 158
61 97 160
62 98 162
61 98 162
62 98 162
61 98 166
61 97 156
63 99 164
62 98 161
61 97 163
61 96 150
62 98 164
61 97 159
61 96 156
61 96 150
61 96 151
62 98 161
60 95 155
61 96 157
61 96 154
61 96 150
61 96 149
61 96 153
63 99 167
61 96 156
62 98 155
61 95 152
59 93 147
60 94 146
59 94 146
59 90 129
56 85 123
60 73 65
51 57 32
64 68 21
67 71 22
70 74 20
74 77 29
81 83 22
74 75 26
79 80 26
71 76 28
73 78 31
75 79 28
75 80 29
70 75 29
80 83 27
82 86 25
91 94 31
92 96 31
102 102 28
89 93 34
101 102 24
103 103 24
106 107 32
109 111 31
112 114 31
113 114 33
113 114 31
121 121 36
120 120 25
134 133 29
125 125 27
126 125 35
131 130 29
133 131 31
145 141 39
138 135 40
137 135 25
141 139 29
138 135 32
146 143 28
149 145 36
153 149 28
144 140 33
152 148 43
148 144 34
144 140 22
148 144 25
155 151 34
151 147 41
152 148 37
156 151 44
153 149 41
152 148 34
155 151 30
151 148 32
153 149 34
157 152 39
152 149 32
153 150 30
154 150 34
152 149 36
156 151 36
158 153 41
155 151 30
158 153 36
156 151 37
158 153 41
162 157 48
157 152 32
156 151 39
158 153 39
155 151 30
157 152 36
158 153 39
159 154 41
160 154 39
157 152 34
157 152 34
159 154 37
154 150 28
154 150 19
157 152 37
157 151 34
161 154 44
152 148 30
157 152 22
159 153 41
155 152 28
156 152 25
154 150 22
156 150 37
157 152 30
156 153 25
156 152 30
155 150 30
157 152 22
155 152 22
151 146 19
152 148 19
152 148 11
152 147 16
155 151 25
151 146 19
151 148 19
146 142 19
143 140 0
146 141 16
147 142 11
142 138 16
148 144 0
143 142 16
146 143 19
150 150 11
144 146 0
150 156 0
147 154 11
153 161 11
153 164 0
157 168 0
162 175 0
160 174 0
160 173 0
164 182 0
163 182 0
166 185 0
169 186 0
170 189 0
170 191 0
170 190 0
174 194 0
172 192 0
171 192 0
171 191 0
173 193 0
172 192 0
172 194 0
168 192 0
172 195 0
171 195 25
170 193 44
169 192 25
174 197 25
173 196 25
172 195 51
176 199 44
169 191 36
170 193 36
173 196 51
175 198 44
173 196 57
168 192 25
173 194 44
173 195 62
173 196 44
177 199 72
175 197 44
174 198 44
173 196 36
172 195 57
172 194 25
169 192 36
169 191 44
174 196 80
174 197 51
171 194 62
174 197 62
171 194 51
174 197 67
174 197 72
176 199 76
175 197 72
173 196 51
176 198 51
171 193 72
173 196 44
173 196 62
175 198 62
173 196 62
175 198 57
178 200 88
174 196 76
173 195 62
173 195 72
175 198 62
171 193 67
171 194 62
176 199 72
175 196 80
169 191 25
172 195 76
174 197 57
173 196 67
176 198 62
170 193 57
172 195 57
175 198 62
170 194 44
172 195 51
170 194 44
167 190 36
170 194 51
168 191 25
175 198 51
168 190 44
167 190 25
170 193 44
171 193 51
169 192 57
169 192 25
163 186 36
167 190 44
165 188 44
167 190 25
167 190 44
166 189 25
165 188 0
169 192 0
165 188 0
163 187 18
157 180 60
125 149 108
66 100 145
61 96 149
61 96 154
60 95 147
62 98 156
62 97 158
61 96 151
62 98 160
62 98 158
62 97 158
62 98 167
62 98 167
61 98 163
61 98 163
62 98 162
62 98 161
62 98 170
62 98 163
62 98 165
62 98 168
62 98 163
62 99 168
61 97 160
61 97 168
62 98 166
61 97 166
62 99 173
61 98 162
61 97 167
62 98 168
61 98 166
61 98 167
62 98 168
61 98 166
62 98 172
61 98 167
62 98 164
61 97 166
61 97 164
62 98 169
62 99 170
62 99 167
62 99 170
62 99 176
61 98 170
63 99 174
62 98 167
61 98 166
62 99 169
62 98 168
62 99 170
62 99 175
62 98 168
61 98 165
63 99 170
61 98 172
62 98 168
63 100 175
62 98 171
63 99 173
62 99 169
62 99 173
62 98 168
61 98 172
62 99 172
62 98 168
62 99 174
63 99 171
62 98 171
62 98 169
62 99 173
62 99 173
62 98 167
61 97 162
62 98 169
62 98 165
62 99 166
62 99 174
62 99 173
61 98 169
61 98 166
63 99 172
62 99 171
62 99 172
62 98 168
62 99 168
63 99 172
61 98 162
62 98 169
61 98 172
63 99 169
62 98 169
62 99 168
62 98 169
62 99 167
63 99 173
62 99 168
62 98 164
62 99 168
62 99 169
63 99 175
62 99 172
63 99 174
62 98 169
63 99 172
62 98 168
62 98 170
62 98 166
62 98 168
62 99 171
63 99 171
62 99 171
62 98 167
61 98 165
62 99 169
62 98 167
61 97 160
62 99 173
61 98 166
62 99 170
63 99 169
62 98 162
62 98 165
63 99 167
62 99 167
61 97 159
62 98 163
62 98 167
62 98 170
62 98 165
62 99 167
62 99 166
63 99 171
62 98 164
61 98 161
62 99 169
62 98 161
62 98 163
62 98 169
62 98 163
61 97 161
63 99 163
62 99 165
63 99 170
61 97 156
62 98 163
62 98 164
62 98 161
61 98 162
61 98 161
62 98 162
62 98 163
62 97 161
62 98 158
62 98 166
62 98 161
62 98 165
62 98 162
62 98 161
61 98 162
61 97 161
61 96 151
61 97 155
62 97 162
61 97 156
62 97 158
62 97 158
60 96 147
61 97 151
61 95 151
61 96 150
60 95 156
60 94 151
61 96 151
62 96 154
59 93 145
60 93 142
60 91 135
57 82 108
58 71 67
75 81 51
67 68 17
72 74 28
59 65 21
65 68 19
78 80 21
68 72 26
81 83 23
87 88 20
84 86 25
85 87 28
82 87 32
89 91 25
101 100 19
88 91 23
85 88 27
93 96 29
94 97 27
96 98 21
99 101 29
109 110 35
104 107 30
95 99 28
116 116 27
116 118 28
113 113 26
119 119 31
126 125 18
124 123 27
120 120 18
120 119 29
134 132 30
139 135 36
140 137 28
134 132 22
129 128 30
137 135 29
137 135 24
139 136 35
140 137 30
148 144 28
144 141 20
149 144 32
148 144 19
144 140 25
152 148 36
149 145 25
150 147 25
148 144 25
149 146 25
156 151 36
151 148 22
152 149 25
156 152 37
151 147 28
152 149 30
153 148 34
153 149 32
156 152 36
158 153 36
157 153 32
152 148 39
156 152 36
156 151 41
153 148 28
154 151 32
155 151 30
155 151 32
159 154 42
158 153 32
155 150 30
157 153 34
154 151 25
154 150 36
155 151 22
156 153 25
157 152 37
157 152 28
153 149 32
156 151 28
153 149 25
156 152 30
152 148 25
152 148 19
154 151 32
154 149 22
155 150 22
155 150 25
155 151 16
157 154 32
154 149 22
153 149 22
157 152 25
154 150 22
152 148 16
153 148 25
151 147 22
153 149 16
154 149 28
153 148 19
150 145 11
150 147 11
147 144 11
146 142 0
146 143 16
139 136 11
143 140 16
144 141 11
151 149 19
147 147 16
143 142 11
143 147 0
144 147 11
147 150 0
150 157 11
148 160 0
158 169 11
156 168 0
159 172 0
164 181 0
165 181 0
163 179 0
169 185 0
168 187 0
170 188 0
170 190 0
171 191 0
171 191 0
167 185 0
167 188 0
172 192 0
168 189 0
170 191 0
171 190 0
168 188 0
171 195 25
172 195 44
171 194 0
174 197 36
171 194 44
172 195 51
171 194 25
172 196 36
176 198 51
171 195 36
172 195 51
174 197 51
171 194 51
175 198 57
170 194 36
168 191 0
175 197 67
175 198 62
172 194 51
176 199 57
174 196 51
173 196 51
175 197 76
173 196 67
174 197 57
176 198 67
170 193 44
166 188 36
171 194 44
175 197 76
174 197 72
171 195 36
174 196 62
170 193 62
174 197 72
177 200 84
170 193 62
166 188 62
177 199 84
177 199 88
179 200 95
173 195 62
173 196 72
176 198 84
174 196 72
176 198 76
177 200 88
174 197 84
176 198 76
174 196 51
172 194 44
173 196 57
174 196 67
177 199 88
169 191 57
173 195 62
175 198 67
177 199 72
170 192 51
175 198 80
168 190 67
172 194 57
176 199 80
175 198 84
172 194 67
176 198 80
167 190 44
170 192 57
173 195 51
167 190 51
170 192 62
169 192 57
170 194 44
171 194 44
167 190 44
169 192 51
171 195 25
166 189 44
170 192 51
170 193 25
170 194 0
165 187 0
165 189 25
153 176 62
126 151 103
73 105 148
65 99 145
65 99 147
62 98 164
61 97 156
62 97 156
61 96 152
61 97 157
61 97 154
62 98 163
62 98 165
62 98 160
61 96 157
62 98 160
62 98 164
62 98 169
61 97 160
61 97 156
61 98 164
62 98 165
62 98 163
62 98 166
61 97 166
62 98 165
62 98 167
61 97 166
62 99 171
62 98 166
61 97 161
61 97 162
61 97 163
62 98 164
63 99 175
61 98 171
63 99 171
61 98 167
60 96 155
62 98 171
62 98 169
63 99 172
61 98 170
63 99 170
62 98 168
61 98 166
62 99 165
62 99 173
61 98 171
61 97 161
62 99 171
62 99 168
61 98 171
61 97 163
62 99 170
62 99 177
61 98 170
62 98 172
62 98 171
62 99 170
61 98 170
61 98 169
61 98 169
61 98 164
63 99 173
62 99 173
62 98 170
62 99 168
62 98 170
62 98 166
62 98 166
62 98 169
62 98 170
61 98 170
61 98 166
61 98 173
62 99 171
62 99 172
63 99 171
62 98 165
62 99 168
61 98 166
62 98 165
62 98 166
62 99 172
63 99 171
62 98 163
62 98 171
61 98 167
62 98 168
62 99 167
62 98 167
62 98 162
62 99 175
62 98 166
62 99 171
61 98 164
62 98 169
62 99 172
62 98 169
62 99 168
62 98 165
62 98 168
62 98 169
62 98 164
62 99 167
62 98 169
62 99 171
62 98 168
62 99 169
62 98 165
62 98 169
61 98 171
62 98 169
63 99 170
62 98 163
62 98 164
62 99 173
63 99 168
64 100 172
62 99 168
62 98 167
62 98 166
62 98 166
62 98 165
61 98 166
63 99 171
62 98 165
62 98 163
63 99 170
61 97 160
62 98 164
62 98 157
61 98 163
62 98 163
62 98 165
62 98 164
62 98 167
62 99 170
61 98 161
62 99 169
62 98 161
62 98 162
62 98 160
62 98 162
63 99 167
62 98 161
63 99 166
62 98 163
62 98 158
62 98 158
62 98 156
63 99 166
62 98 167
62 98 164
61 97 160
62 98 165
62 98 160
62 97 156
62 98 158
62 98 164
61 97 151
61 97 158
61 97 156
63 99 165
62 97 156
61 97 156
62 98 163
62 97 160
61 97 156
62 97 151
61 96 153
61 97 157
61 96 158
60 95 152
60 93 142
61 96 150
61 95 151
60 93 147
60 93 139
61 84 119
61 74 75
70 77 63
74 75 20
75 77 15
77 77 19
75 76 24
64 68 17
79 80 24
77 79 25
83 84 20
79 83 21
84 85 23
79 83 23
84 86 27
84 87 26
92 91 22
95 97 31
93 96 29
95 97 27
93 95 27
101 102 29
102 105 29
103 104 30
106 107 26
114 114 24
101 102 28
118 119 31
119 118 24
121 120 22
127 125 29
121 120 25
124 123 18
138 136 19
132 131 29
135 133 18
140 138 22
133 131 30
140 137 19
135 133 16
144 141 18
144 141 11
147 144 25
149 146 34
147 144 16
150 145 28
152 148 32
149 145 19
150 145 25
150 148 34
151 147 22
155 150 34
150 147 22
153 148 30
150 147 16
150 147 16
153 148 32
158 154 41
155 152 36
151 147 25
151 148 19
153 149 25
150 147 30
151 147 28
153 149 28
153 149 25
157 153 39
154 151 22
154 150 30
154 150 25
158 153 39
151 148 22
154 150 25
152 148 25
152 147 28
153 149 19
156 153 22
156 152 30
155 151 25
158 154 37
155 151 19
156 150 28
154 149 30
151 148 19
152 149 19
154 149 19
152 149 22
154 151 28
153 150 19
154 149 30
154 150 25
150 146 16
152 148 22
155 150 22
154 148 22
154 150 16
152 148 0
156 152 19
151 146 11
150 146 16
152 146 16
152 148 11
150 145 16
151 147 0
148 144 16
142 138 0
146 141 11
140 136 11
147 143 11
147 145 16
144 142 16
148 150 0
137 136 11
143 144 0
151 158 11
151 158 0
150 156 0
160 170 0
151 164 0
159 168 0
159 173 0
162 177 0
168 185 11
169 186 0
171 190 0
168 186 0
169 188 0
170 188 0
168 187 0
170 192 0
172 191 0
170 189 0
173 192 0
168 186 0
169 188 0
170 190 0
170 190 0
173 196 44
172 194 36
169 192 36
171 195 0
171 194 36
174 196 44
172 195 36
172 196 57
172 195 44
173 195 62
173 196 44
174 196 76
172 195 36
176 199 72
172 195 25
177 200 76
175 198 57
174 197 72
177 199 76
170 194 25
175 197 84
178 201 80
176 199 84
175 197 80
176 199 67
175 197 72
176 198 80
174 198 72
176 199 84
175 198 72
176 198 80
173 195 67
177 198 99
177 199 84
175 197 72
174 196 92
174 196 92
178 200 84
175 198 72
179 200 102
177 198 92
177 200 67
180 202 92
176 198 102
173 196 51
177 199 105
173 196 67
177 199 72
175 197 76
176 198 88
184 205 117
176 198 76
177 199 84
177 199 80
178 200 88
174 196 72
175 197 84
175 198 84
171 194 44
168 191 51
169 192 62
170 193 67
170 192 44
171 194 57
172 194 62
170 193 51
171 193 62
168 190 36
168 191 36
172 194 67
165 188 44
167 190 25
170 193 44
169 192 36
171 193 62
169 193 25
165 189 36
174 196 44
169 193 25
167 190 0
168 191 0
167 191 44
166 188 36
150 173 78
119 144 113
77 108 135
63 98 151
63 99 156
64 99 160
63 98 147
66 101 159
61 96 150
61 97 151
62 98 161
60 96 151
62 98 161
61 97 155
62 98 163
61 96 159
61 97 159
62 98 162
61 97 161
61 97 160
62 98 166
62 99 165
61 97 160
61 98 163
62 98 166
61 98 161
61 97 160
61 98 163
62 99 168
60 96 162
62 98 164
62 98 162
62 98 167
62 98 169
61 97 167
62 98 167
61 98 165
62 99 165
62 99 169
61 98 168
61 98 168
61 98 168
60 97 168
63 99 173
62 99 171
63 99 172
62 98 163
61 98 167
62 99 176
62 99 171
62 99 175
62 98 164
62 98 168
62 99 171
62 99 171
62 99 170
62 99 170
62 98 172
62 98 168
61 98 167
62 99 168
62 99 176
61 98 160
63 99 176
62 98 165
62 98 166
62 98 171
62 99 175
61 98 165
62 99 170
62 99 172
63 99 169
62 98 167
62 98 168
61 98 160
63 99 172
63 99 172
61 97 166
62 98 169
61 98 169
62 98 168
61 98 169
62 99 172
61 98 166
62 99 170
62 98 170
62 98 172
63 99 169
62 99 172
62 99 174
62 98 168
62 98 170
62 99 168
62 98 168
63 99 172
62 99 165
62 99 169
63 99 168
62 99 171
62 98 169
62 98 164
62 98 166
62 98 167
62 99 170
62 99 168
63 99 169
62 98 163
62 98 165
61 97 160
62 99 172
62 99 169
62 98 168
62 99 167
61 98 164
62 99 170
61 97 163
63 99 168
62 98 167
62 98 168
62 99 170
62 98 167
62 99 168
62 98 165
62 99 167
62 99 169
62 98 164
62 98 164
62 98 166
61 98 162
61 98 164
62 99 167
61 97 161
61 98 161
61 97 159
62 99 164
62 99 166
62 98 161
62 98 165
62 98 161
62 98 158
63 99 172
62 99 168
63 99 170
61 96 153
63 99 166
61 97 159
62 98 162
61 97 162
61 97 162
62 98 165
63 99 166
63 99 162
62 97 159
63 99 164
61 97 165
62 98 165
62 98 161
61 96 154
61 96 153
61 96 158
62 97 158
62 98 164
62 98 160
60 96 149
63 98 161
62 98 161
62 98 159
61 97 151
63 99 164
61 97 156
61 96 160
61 97 149
61 96 155
60 95 154
62 97 150
60 94 145
60 95 144
60 93 146
60 94 147
61 95 145
63 87 121
72 86 100
73 78 45
83 82 18
85 86 22
91 91 21
85 85 15
88 88 24
74 78 27
64 67 18
70 74 25
78 80 24
78 82 28
86 89 28
78 82 27
94 96 22
86 89 21
95 97 26
91 95 21
93 96 35
95 98 22
109 108 16
91 94 24
107 107 23
112 112 24
110 110 21
113 113 16
118 118 19
112 113 23
119 120 28
127 125 23
120 120 18
128 127 19
127 126 25
125 124 30
129 129 22
138 137 19
145 141 26
139 136 14
138 134 26
144 142 16
144 140 19
149 147 22
144 142 11
152 148 11
143 140 22
144 141 19
148 145 19
149 146 22
144 141 19
149 146 16
151 147 28
148 145 11
148 145 11
153 150 25
146 143 30
147 145 16
149 146 16
147 144 16
151 147 22
149 146 19
148 145 11
151 147 37
155 151 25
151 147 28
152 149 16
152 150 19
152 147 34
151 148 22
150 147 22
152 149 22
152 148 16
153 150 16
154 149 22
155 151 32
154 150 25
152 148 16
152 147 22
160 155 34
154 148 28
150 147 0
155 151 25
154 149 19
149 145 11
154 150 22
151 148 11
156 151 30
152 148 19
155 149 22
151 148 11
155 150 19
157 152 19
153 148 11
155 150 16
153 149 22
156 152 16
148 145 16
151 147 22
150 145 11
151 148 11
153 148 16
148 144 0
146 142 0
147 144 0
145 141 11
144 140 0
140 138 0
142 138 0
145 141 0
136 133 0
142 143 16
147 149 0
152 156 11
149 156 0
154 161 11
154 163 11
149 159 0
157 168 11
159 170 0
155 168 0
162 178 0
162 178 0
164 181 0
169 189 0
166 184 0
173 192 0
166 184 0
171 189 0
171 192 0
171 189 0
168 188 0
170 189 0
170 189 0
171 189 0
170 188 0
168 186 0
171 192 0
168 191 36
171 195 25
173 196 44
175 197 57
174 196 44
172 195 36
176 198 51
174 197 44
174 197 67
176 199 67
173 196 51
172 195 51
174 197 57
174 197 80
176 199 62
174 197 62
172 193 72
175 198 76
172 195 57
171 194 44
175 198 72
177 200 72
178 201 80
177 200 76
178 200 95
175 198 92
180 201 102
182 203 108
177 200 88
180 202 102
179 202 84
180 202 102
177 199 88
179 200 99
181 202 102
177 198 95
177 198 99
174 196 80
173 194 88
179 200 108
179 201 102
182 202 122
180 202 105
180 202 114
176 197 88
179 201 102
176 199 80
173 194 95
177 199 72
176 198 105
180 201 105
179 200 95
178 200 105
170 194 62
181 203 102
177 199 95
177 199 84
172 195 76
175 197 88
174 197 72
175 198 80
177 199 105
172 195 57
174 197 72
173 195 67
171 193 67
173 196 62
173 195 62
171 194 51
169 192 44
172 195 51
169 192 57
168 190 36
172 195 62
168 191 57
171 194 62
171 193 44
168 191 57
167 189 44
163 185 44
164 188 47
163 186 54
166 189 25
154 176 88
122 148 107
66 100 148
65 100 151
70 103 154
71 105 161
64 99 160
63 99 155
61 97 161
60 96 150
61 97 154
62 98 159
61 97 159
62 98 160
60 96 157
63 99 173
61 97 158
61 97 161
62 98 161
61 96 155
62 98 169
61 98 166
62 98 167
62 98 162
62 98 162
61 98 166
60 97 160
62 98 171
62 98 160
61 98 162
60 96 162
61 98 166
62 98 167
63 99 171
62 98 167
62 98 167
62 98 165
62 98 164
61 98 168
61 98 170
62 99 170
61 98 166
62 99 174
61 97 161
61 98 165
61 98 165
62 99 171
62 99 170
62 99 169
62 98 169
62 99 175
61 98 164
63 99 175
62 98 169
62 99 172
62 98 170
61 98 166
61 98 167
61 98 169
62 98 168
62 98 170
62 99 173
61 97 164
63 99 171
62 98 164
61 98 167
63 99 170
62 99 169
62 98 166
62 99 169
62 98 166
62 98 166
62 98 167
62 98 168
62 98 169
62 98 171
62 98 165
62 99 172
62 99 171
62 99 173
62 99 173
63 99 168
62 99 169
63 99 170
62 99 169
62 99 178
63 99 173
62 99 171
62 98 169
63 99 172
62 99 166
63 99 172
62 98 171
62 98 168
62 99 171
61 97 159
61 98 161
62 99 163
61 97 165
62 98 169
63 99 166
62 98 166
62 98 165
61 98 164
60 97 161
61 97 161
63 99 171
62 99 168
63 99 168
62 98 165
62 99 167
62 99 173
62 98 167
62 99 168
63 99 167
62 99 172
61 98 166
63 99 163
62 98 167
63 99 163
63 99 167
62 98 162
61 97 161
62 99 168
62 98 164
62 98 169
63 99 172
62 98 161
62 98 166
62 99 170
62 98 165
61 97 160
62 98 158
62 98 162
61 97 161
61 97 155
63 98 161
63 99 161
62 98 163
63 99 167
62 98 161
62 99 169
62 98 156
62 98 160
63 99 168
62 99 166
63 99 169
62 98 164
62 98 164
62 98 162
63 99 161
63 99 164
62 99 165
61 97 156
62 98 160
62 98 160
62 97 157
62 98 161
63 98 159
61 97 158
61 96 153
61 97 161
62 98 160
62 98 160
61 97 162
61 96 152
60 96 152
62 97 154
62 98 160
61 96 154
61 96 150
61 96 154
60 93 144
60 95 145
61 95 156
61 96 151
60 94 136
60 95 149
59 92 138
59 93 141
63 88 113
77 92 100
66 74 51
75 78 35
85 84 16
82 83 20
74 74 21
81 82 19
75 77 17
76 78 24
84 84 20
86 88 21
86 89 29
87 88 23
91 91 17
91 93 25
79 83 31
91 94 29
92 95 24
103 104 29
97 99 23
104 105 24
107 108 20
103 105 27
109 110 23
111 111 25
112 110 15
112 113 20
122 120 14
121 121 27
121 120 18
117 117 14
134 133 14
133 131 24
131 127 24
131 128 12
133 131 19
136 133 8
139 136 19
144 139 18
135 132 11
140 138 19
145 142 25
144 140 11
142 139 11
145 143 19
142 140 16
138 136 19
148 145 22
143 141 16
144 142 0
148 144 25
151 147 30
148 144 25
149 145 19
147 143 19
149 146 22
151 147 25
150 146 28
145 143 0
147 143 16
150 147 16
146 144 16
150 147 16
148 145 11
151 147 19
150 146 16
151 149 16
154 150 11
154 150 25
146 144 16
154 149 19
150 146 22
153 149 32
154 150 19
149 146 25
152 148 22
149 146 11
149 147 11
154 150 16
154 150 16
149 145 16
155 152 16
155 151 11
151 147 22
153 149 19
152 148 19
155 150 19
152 149 16
155 151 19
151 147 11
150 147 16
151 146 19
156 152 19
153 148 16
148 144 0
151 148 19
151 146 0
150 144 11
152 147 16
145 141 11
145 142 11
145 142 0
147 142 0
145 142 0
146 142 0
134 131 0
145 143 0
141 138 0
144 143 0
142 144 0
144 144 0
146 149 11
145 149 0
147 152 11
156 166 0
155 168 0
155 165 0
156 169 0
158 173 0
164 178 0
162 179 0
167 185 0
166 185 0
168 185 0
168 188 0
170 189 0
167 185 0
170 189 0
172 191 0
170 190 0
169 186 0
169 191 0
169 190 0
171 190 0
172 191 0
172 191 0
172 196 25
174 196 57
178 200 67
172 195 51
175 198 44
175 197 57
174 197 44
177 199 80
170 193 57
175 197 57
175 198 84
171 193 62
175 198 67
175 198 72
174 196 72
178 200 76
175 198 72
174 195 76
177 199 80
176 198 72
176 198 102
172 195 44
177 199 72
180 201 114
182 203 117
177 200 84
176 199 92
178 201 80
178 200 102
181 202 111
183 205 125
182 203 114
179 202 105
180 202 105
177 199 111
182 203 114
181 203 105
186 206 127
179 201 102
177 200 72
182 202 114
177 199 105
179 201 102
181 202 99
178 199 114
180 201 102
176 198 99
180 202 105
180 201 105
176 197 102
178 200 99
177 200 99
179 200 108
180 201 111
181 202 99
179 201 102
178 199 102
176 198 95
174 196 72
177 198 92
178 199 84
175 196 95
174 197 84
173 195 72
174 198 62
173 195 80
171 193 72
173 195 80
173 195 67
170 194 44
173 195 84
168 191 62
171 193 51
174 197 36
170 193 36
168 190 25
165 189 44
168 191 44
171 194 57
168 191 44
167 191 62
161 184 78
158 182 70
148 171 86
122 147 113
75 106 147
64 98 143
71 103 150
66 100 152
71 104 154
69 103 154
66 101 156
65 99 150
64 99 163
62 98 162
61 97 156
61 96 154
62 98 159
62 98 160
61 98 169
62 98 162
61 98 167
61 97 159
62 98 169
62 98 161
62 99 167
62 98 166
62 98 165
62 98 161
61 98 162
62 98 170
61 98 168
62 98 166
62 98 170
62 98 166
62 99 168
61 97 165
61 97 163
62 99 168
62 98 167
63 99 170
61 97 163
62 98 171
62 98 168
62 98 162
62 99 166
62 98 171
62 99 170
63 99 169
62 98 167
62 99 174
61 98 167
62 99 173
62 98 170
61 98 166
62 98 172
62 98 172
62 99 171
62 98 166
62 99 171
62 99 168
62 98 170
61 98 169
61 98 171
62 98 168
62 98 163
62 99 169
62 98 170
61 98 167
62 98 165
62 98 168
61 98 166
62 98 170
62 99 177
63 99 173
63 99 169
62 98 165
62 99 170
62 98 166
63 99 176
62 98 170
62 99 172
61 98 162
62 98 168
62 99 170
62 98 165
61 98 167
62 99 170
63 99 168
61 98 162
62 98 166
62 99 172
62 98 168
62 99 172
62 98 167
62 98 166
61 98 166
61 97 162
61 98 162
61 98 166
62 98 168
61 98 163
61 98 163
63 99 171
62 99 170
63 99 171
61 97 161
62 98 159
62 98 164
62 98 163
62 99 172
62 98 162
62 98 165
63 99 171
61 97 160
63 100 175
62 98 164
62 98 164
61 97 163
63 99 166
62 99 169
63 99 168
63 99 165
62 98 164
62 99 172
62 99 171
62 98 164
62 98 163
62 98 160
62 98 163
61 97 157
63 99 172
61 98 165
62 98 168
62 98 162
63 99 166
62 98 165
62 98 166
61 97 158
61 97 156
61 98 161
61 97 158
61 98 163
61 98 162
62 98 164
62 98 167
62 98 163
63 99 162
62 98 156
62 98 159
61 97 152
62 99 166
61 97 156
62 98 160
62 98 165
61 97 154
62 98 161
62 97 158
61 96 154
62 97 160
61 97 157
62 98 161
61 97 153
62 98 162
62 97 161
61 97 160
61 97 159
61 97 155
61 96 157
62 97 156
60 95 148
62 98 160
61 97 156
62 98 158
61 96 158
62 98 158
60 95 147
60 95 145
60 96 158
61 95 147
61 95 149
60 95 145
60 93 143
63 87 113
71 88 92
89 94 55
85 86 21
87 85 20
88 87 17
94 92 15
83 83 20
88 88 16
90 89 17
88 86 20
82 85 25
88 88 16
91 93 20
92 93 21
95 96 25
102 101 22
86 88 15
96 97 27
89 93 24
104 104 11
108 108 20
105 106 25
118 117 20
103 104 24
111 111 23
113 114 23
116 114 18
114 113 23
122 121 17
122 121 16
120 121 22
125 123 8
122 121 22
137 135 22
131 129 14
129 126 28
138 137 8
136 135 14
140 136 8
138 137 11
143 140 11
139 137 16
145 142 11
144 141 11
144 140 16
143 141 0
145 142 11
139 136 0
148 146 11
148 145 16
146 144 11
146 144 11
148 145 16
153 149 11
144 142 16
149 146 0
151 148 19
150 147 11
145 143 16
150 147 16
151 147 11
147 144 16
149 147 19
152 148 19
151 148 16
155 150 19
151 147 22
153 149 16
152 148 16
151 147 11
150 147 0
153 148 16
153 149 16
151 147 19
147 143 11
149 146 0
150 145 11
149 144 16
147 142 0
152 149 11
151 148 11
153 149 16
151 147 11
150 147 0
150 146 11
153 150 0
154 150 11
151 148 0
151 147 11
152 148 0
150 145 11
150 146 0
152 148 0
152 148 0
147 144 0
152 147 0
149 144 0
149 146 0
148 144 0
145 139 0
145 141 0
148 143 0
148 143 11
135 131 0
140 138 0
144 140 0
140 138 0
148 149 0
143 143 0
153 155 0
147 149 0
141 145 0
154 161 0
152 159 11
149 159 0
150 163 0
160 172 0
161 175 0
163 178 0
166 184 0
165 181 11
169 187 0
170 186 0
170 191 0
167 185 0
170 188 0
168 186 0
167 184 0
169 187 0
171 190 0
168 186 0
172 192 0
170 188 0
169 190 0
171 188 0
170 191 0
173 196 76
174 197 51
175 197 62
174 197 67
173 196 67
171 195 51
174 197 51
177 199 67
175 197 72
174 196 67
176 199 72
180 202 76
177 199 84
172 195 62
174 197 72
179 201 108
178 200 80
179 200 99
180 202 108
177 198 105
182 203 105
178 200 95
184 204 120
181 203 117
180 202 102
182 204 111
185 206 133
180 202 99
179 201 92
183 203 122
180 202 102
180 202 108
183 204 122
185 205 120
179 199 117
182 202 127
179 200 108
182 203 127
187 207 133
181 203 111
179 201 114
182 202 105
180 201 108
180 201 99
182 203 120
183 203 122
183 205 117
181 203 105
178 199 105
185 206 140
178 200 108
182 203 117
183 204 111
181 202 105
182 204 120
180 200 114
183 203 117
183 204 127
179 201 108
182 203 117
176 197 76
180 202 99
175 196 92
176 197 92
175 197 51
171 194 76
177 199 88
177 199 99
178 200 84
174 197 62
173 196 80
173 195 76
169 192 51
170 193 51
171 193 62
170 192 62
170 192 62
169 192 51
168 191 51
172 194 36
160 183 80
158 181 54
157 180 72
148 171 82
120 145 110
67 101 148
72 105 150
86 115 153
77 108 156
63 99 164
61 96 151
74 106 149
64 99 157
61 97 157
61 97 154
62 97 155
61 97 162
64 99 160
62 98 159
63 99 163
61 97 153
60 95 150
62 98 165
61 97 166
61 97 159
62 98 165
60 96 155
63 99 165
61 97 164
61 97 163
61 98 171
61 98 167
61 98 168
61 98 167
62 99 169
62 98 166
62 98 166
61 97 160
62 98 169
62 98 165
62 98 165
61 98 168
62 98 166
61 98 166
62 98 164
62 98 166
61 97 163
62 98 166
62 98 170
61 97 160
62 98 164
61 97 166
62 99 170
62 99 169
62 98 166
62 98 164
61 98 166
61 98 174
62 98 169
62 99 166
61 98 168
62 98 168
61 97 164
62 99 169
62 98 165
62 99 171
61 98 171
62 99 168
62 98 167
62 99 167
62 98 165
61 97 167
62 98 166
62 99 170
63 99 173
62 99 170
62 99 169
63 99 168
62 98 164
61 98 169
61 98 170
62 98 165
62 98 168
62 99 170
63 99 176
62 99 171
62 98 160
62 98 163
61 98 160
62 99 168
61 98 165
61 98 165
62 98 163
62 99 170
62 98 159
62 99 166
63 99 168
62 98 166
63 99 170
62 98 166
63 99 168
62 98 169
62 98 162
62 99 169
61 98 165
62 98 165
62 98 166
63 99 165
63 99 167
61 98 167
63 99 168
62 98 169
62 99 170
62 99 168
62 98 163
62 99 167
62 99 167
62 98 166
63 99 172
61 98 166
62 98 163
61 97 160
63 99 164
62 99 168
63 99 169
63 99 167
62 98 167
61 98 164
62 99 170
62 98 167
61 98 162
63 99 165
62 98 162
63 99 168
61 97 160
62 98 160
63 99 165
62 98 162
62 98 163
61 97 165
63 99 165
62 98 163
62 98 167
61 98 161
62 97 156
63 99 165
62 99 166
63 99 168
62 98 161
62 98 158
61 97 158
62 98 164
62 98 159
61 97 157
63 99 171
61 97 158
63 98 160
62 98 160
61 97 157
62 98 161
61 96 153
62 97 155
62 97 158
61 97 152
62 97 156
61 96 151
62 98 157
61 97 160
62 97 162
61 96 150
61 96 153
61 96 154
61 96 155
60 95 152
61 97 157
61 96 157
62 97 153
62 97 148
62 97 159
61 96 149
61 95 144
60 94 140
60 93 139
61 89 126
86 96 89
93 98 73
91 91 24
78 77 3
84 84 11
89 88 15
76 77 18
96 94 14
87 85 14
80 82 22
83 84 18
96 96 23
82 83 16
89 88 17
90 91 20
106 104 15
87 88 26
92 92 17
97 98 23
102 103 20
111 110 20
103 102 20
113 112 14
114 113 23
113 113 12
120 119 16
115 115 24
119 118 21
125 126 20
113 112 16
130 128 12
122 121 14
126 125 16
122 121 12
127 126 11
132 131 8
133 131 0
139 136 0
138 134 0
137 135 11
138 136 11
139 137 0
138 136 0
142 139 0
139 136 0
141 139 11
145 142 16
149 145 0
147 143 0
146 143 11
143 141 0
144 141 0
142 140 11
144 141 11
147 144 11
151 148 0
149 146 16
145 142 16
152 148 22
147 144 11
150 147 16
152 149 16
152 149 11
150 147 0
149 145 11
152 149 16
151 148 0
151 148 11
152 149 11
151 148 16
149 145 0
150 145 11
148 145 11
149 145 11
148 144 0
152 149 19
152 148 0
151 148 11
152 148 11
152 148 11
149 145 11
152 148 11
153 151 0
151 146 0
153 150 16
149 145 0
152 148 11
155 150 0
151 147 11
152 147 16
148 144 0
151 146 11
150 145 11
151 147 0
146 143 11
149 146 0
151 147 0
148 145 0
149 145 0
147 141 0
145 140 0
139 136 11
137 132 0
141 136 0
140 136 0
140 138 0
145 146 0
139 137 0
142 142 0
150 155 0
147 150 0
146 152 0
149 157 0
153 163 0
156 166 0
155 169 0
163 176 0
159 171 0
165 181 0
164 180 0
168 186 0
168 185 0
170 191 0
167 186 0
167 185 0
169 188 0
170 189 0
164 183 0
169 186 0
166 184 0
170 190 0
168 188 0
168 189 0
172 191 0
172 192 0
170 191 0
174 197 62
173 196 62
175 199 62
172 195 62
175 198 72
175 198 62
178 200 80
178 200 95
178 199 95
179 201 92
175 198 80
181 202 95
177 199 88
179 201 99
179 201 95
179 201 108
183 204 117
177 198 102
181 203 105
182 203 111
185 206 122
176 199 102
182 203 111
180 202 120
186 206 133
176 198 95
182 203 127
183 204 122
183 204 122
183 203 122
190 210 151
188 208 147
188 207 144
188 208 137
189 209 142
182 203 108
185 205 133
184 205 125
177 198 105
187 207 137
187 207 144
182 204 114
180 201 127
183 204 114
184 205 114
184 205 125
185 205 137
187 207 142
181 203 120
184 205 130
187 207 142
183 203 125
185 206 135
180 201 114
184 204 122
183 203 130
183 204 130
186 207 130
176 198 92
178 199 114
184 204 127
181 201 108
177 199 92
183 204 120
178 199 108
175 197 84
178 200 99
174 196 95
178 199 76
174 196 92
177 199 80
173 195 76
172 195 67
174 196 67
173 195 72
169 191 67
172 195 36
169 191 44
171 194 62
165 187 67
165 188 65
161 185 88
149 172 88
146 170 90
118 144 118
93 121 137
71 104 150
71 103 148
68 102 152
72 105 150
70 103 161
65 100 153
66 101 155
60 96 155
69 103 153
65 100 155
62 98 156
61 97 156
64 98 153
61 97 153
62 98 164
63 98 160
61 97 158
61 97 156
62 98 169
61 97 158
61 97 169
62 98 169
61 98 165
61 97 162
63 99 166
61 98 164
61 97 162
63 99 173
62 98 166
62 99 170
62 98 166
62 99 172
62 99 173
62 99 167
62 98 164
62 98 167
61 98 161
61 97 170
62 98 165
62 98 167
62 98 168
62 98 169
62 99 175
61 98 167
61 97 163
62 98 160
62 99 174
62 99 170
62 98 165
61 98 171
61 97 169
62 98 169
62 98 168
63 99 172
61 98 169
62 98 170
61 97 165
62 99 169
62 99 169
62 98 166
61 98 167
61 98 169
63 99 171
62 98 162
61 98 169
63 100 173
62 98 172
62 99 174
62 98 168
62 99 173
61 98 173
62 98 169
62 99 171
62 99 171
61 98 161
62 98 166
62 99 172
62 99 167
62 98 173
62 98 163
62 98 164
62 99 165
63 99 169
62 99 164
62 99 169
62 99 170
62 99 169
62 98 171
61 97 160
62 99 172
61 98 168
62 98 171
62 99 166
62 98 167
63 99 173
61 98 164
62 99 169
62 98 163
61 97 159
61 97 158
62 99 170
61 98 165
61 97 155
62 99 167
62 99 171
63 99 168
63 99 170
62 98 169
62 99 171
62 98 164
62 99 164
62 98 167
62 98 167
61 98 164
62 98 161
62 99 169
62 98 161
63 99 168
62 98 168
61 97 159
63 99 164
62 98 159
62 98 160
61 97 161
62 98 165
63 99 170
63 99 166
61 97 153
62 98 164
62 98 156
62 98 165
62 98 160
62 99 164
62 98 164
62 99 163
62 98 159
63 99 164
61 97 161
63 99 166
61 96 155
62 99 169
62 99 163
62 98 162
62 98 162
62 97 158
62 97 163
61 97 158
61 97 159
61 97 155
62 98 157
61 97 153
62 98 160
62 98 165
63 99 160
62 97 159
61 96 153
62 98 163
63 99 165
61 96 151
62 98 157
62 98 160
61 97 153
61 96 147
61 96 150
61 96 150
62 97 155
61 96 153
62 98 156
60 94 145
62 97 156
60 94 145
60 94 140
60 94 145
60 94 144
59 93 143
60 95 147
59 92 139
73 89 93
80 90 89
80 82 48
96 95 20
89 88 14
87 84 9
92 90 9
77 77 14
85 86 19
81 81 15
84 84 17
96 94 17
91 92 21
94 92 21
96 96 12
88 89 19
105 105 20
95 92 17
102 103 27
102 103 23
101 102 20
104 103 25
108 107 18
110 109 18
113 112 17
112 111 18
125 122 8
112 111 21
117 116 14
114 115 21
121 122 22
134 131 0
132 129 12
127 125 12
133 130 8
136 133 18
132 130 11
137 135 8
138 136 8
134 131 0
139 137 0
140 137 8
137 135 0
144 142 16
140 137 0
138 134 0
142 139 0
141 138 11
134 131 0
139 138 0
146 143 16
143 141 0
141 139 11
143 139 0
142 140 0
141 139 0
144 141 0
147 143 16
148 144 19
146 143 11
147 144 0
148 145 11
149 146 11
148 147 11
153 149 16
151 146 11
147 143 11
146 143 11
152 148 11
152 148 11
152 148 0
149 146 0
149 146 0
149 145 16
149 145 0
146 142 16
151 148 0
151 146 11
149 147 0
151 147 11
150 148 0
154 149 11
148 145 0
152 148 11
154 150 0
153 150 0
152 146 0
152 148 0
150 147 0
152 148 0
151 147 0
146 142 11
147 144 0
151 146 11
151 148 0
150 145 0
147 142 0
149 145 0
148 142 0
146 141 0
148 143 0
144 140 0
144 139 0
144 138 0
137 133 0
144 144 0
141 137 0
136 134 0
147 149 0
140 142 0
146 151 0
150 155 0
150 158 0
153 162 0
154 162 0
156 168 11
158 169 0
158 170 0
164 179 0
162 178 0
166 186 0
167 185 0
162 178 0
170 188 0
168 187 0
172 192 0
169 189 0
169 187 0
167 185 0
170 189 0
169 187 0
170 186 0
170 189 0
168 188 0
170 190 0
171 192 0
174 194 0
173 196 51
173 196 51
173 197 44
176 199 76
178 200 92
177 199 67
172 195 72
175 197 76
181 202 108
177 200 92
179 201 99
182 203 111
184 204 122
181 203 111
183 204 117
182 202 122
186 207 135
180 201 114
180 201 120
180 201 120
183 205 122
180 202 102
188 208 142
189 209 149
186 206 133
186 206 133
183 204 120
180 201 114
190 210 151
185 205 133
186 207 140
185 206 137
186 206 137
187 208 147
190 210 142
185 205 149
188 207 149
193 213 157
188 208 153
189 208 144
187 208 137
189 209 144
186 208 133
183 204 125
186 206 142
183 203 133
188 209 142
186 207 135
187 207 149
190 210 144
188 207 151
187 207 133
187 207 147
186 207 127
183 203 125
181 202 114
182 202 120
186 207 130
186 205 140
189 210 147
185 205 135
180 202 114
178 199 111
177 199 92
179 200 99
181 203 111
176 198 92
177 199 88
178 199 95
178 200 99
175 197 84
174 197 80
177 199 84
174 197 88
174 196 76
175 197 84
173 196 76
172 195 76
171 194 72
164 188 60
157 179 80
152 175 78
146 169 88
145 168 99
116 142 125
86 115 141
92 121 160
82 112 149
66 100 153
73 105 151
74 106 153
66 100 155
66 100 147
66 101 157
68 102 158
63 98 155
62 97 150
65 100 153
62 98 160
62 98 168
61 97 159
61 97 157
61 97 160
62 98 165
61 97 157
60 96 161
61 98 166
62 98 162
61 98 165
62 98 166
61 97 160
60 96 162
61 97 167
61 97 165
61 98 163
61 97 166
61 97 164
61 98 165
61 97 158
61 98 167
62 99 172
62 99 171
63 99 166
61 97 156
61 98 168
61 97 165
62 99 169
62 98 166
61 98 168
62 98 163
62 98 167
62 98 172
60 97 166
61 98 165
61 98 168
61 97 168
61 98 164
62 98 168
62 98 168
61 97 164
61 98 164
62 98 170
62 98 165
61 98 166
62 99 172
62 99 168
61 97 164
62 98 164
62 98 167
62 98 170
61 98 164
62 99 169
62 98 172
61 97 165
62 98 171
63 100 172
62 98 165
62 98 165
62 99 171
62 98 168
61 98 170
62 98 167
62 99 168
62 98 163
62 98 165
61 98 163
62 98 165
62 98 166
62 99 173
61 98 167
62 99 167
62 98 163
61 97 161
62 98 167
62 99 168
63 99 170
63 99 172
62 99 166
62 98 166
62 98 166
62 98 164
62 98 165
62 98 168
62 98 167
62 98 165
62 99 167
62 99 169
63 100 169
62 98 168
62 98 162
62 98 165
62 98 169
62 98 166
62 99 168
63 99 169
61 97 159
62 98 163
62 98 163
63 99 171
61 97 154
61 98 161
62 99 168
63 99 173
62 98 162
62 98 164
62 98 163
62 98 162
62 98 169
62 98 164
61 98 159
62 98 161
61 97 159
62 98 166
62 98 164
63 99 164
63 99 162
62 98 165
62 99 165
63 99 163
62 98 162
62 98 168
62 98 161
62 98 160
62 98 158
62 98 161
61 97 160
62 98 170
63 99 164
62 98 162
62 98 160
62 98 159
63 99 167
62 97 158
62 98 160
61 96 151
62 99 163
61 97 152
63 99 160
61 97 159
62 97 157
62 97 162
63 99 164
62 97 154
61 97 161
62 98 159
62 97 159
61 98 162
62 98 156
61 96 153
62 97 159
61 96 148
61 96 142
61 96 144
61 96 140
60 95 142
61 97 153
62 97 157
61 96 149
61 95 152
61 95 141
60 95 142
60 94 144
59 92 135
66 92 109
75 91 107
80 85 64
89 87 21
89 87 17
96 94 8
93 90 22
93 92 14
89 89 11
96 94 14
92 93 17
95 93 14
89 90 18
90 90 16
94 95 21
99 98 20
91 92 16
96 96 12
109 108 5
105 106 24
104 103 18
113 113 20
105 104 19
101 102 14
108 107 18
110 111 20
118 117 20
116 115 16
113 114 16
121 119 13
123 120 8
129 126 11
126 124 14
125 124 8
125 122 8
127 126 14
138 136 0
131 128 0
138 135 0
138 135 8
133 131 0
145 142 0
133 131 0
135 134 0
137 134 0
141 138 16
140 138 0
143 139 0
147 143 0
140 138 11
143 140 0
146 142 0
141 138 0
152 148 0
148 145 0
147 145 0
144 141 0
142 139 0
149 144 0
150 147 0
144 140 0
152 148 0
148 144 11
145 143 0
147 144 0
148 144 11
151 147 0
149 146 0
147 145 0
148 145 11
141 139 0
147 144 11
149 146 0
146 142 0
146 142 0
152 148 0
147 143 0
148 144 0
151 146 0
145 141 0
151 147 0
152 149 0
147 143 0
152 148 11
147 143 0
151 146 0
148 142 0
148 145 0
148 145 0
148 143 0
148 144 0
151 146 0
149 144 0
145 140 0
146 141 0
151 146 0
145 140 0
142 138 0
146 142 0
148 143 0
146 142 0
140 136 0
147 143 0
141 138 0
142 140 0
139 138 0
143 145 0
152 155 0
146 149 0
143 145 0
142 150 0
153 162 0
158 165 0
155 165 0
158 170 0
157 170 0
156 169 0
159 174 0
162 176 0
166 183 0
166 181 0
168 185 0
169 187 0
170 188 0
166 185 0
170 188 0
169 186 0
168 188 0
169 188 0
170 187 0
171 189 0
169 189 0
170 190 0
171 191 0
169 189 0
170 190 0
168 188 0
177 200 92
175 197 72
179 201 84
176 198 72
175 197 84
175 197 80
180 201 92
176 199 80
178 200 88
180 201 108
181 203 114
178 200 105
183 205 120
182 203 122
181 203 114
184 204 125
180 201 102
184 205 114
178 200 108
185 205 130
186 206 144
190 210 147
188 208 151
189 209 137
183 204 135
185 206 127
187 207 144
189 208 151
180 201 133
187 207 149
183 204 135
187 208 144
192 211 165
188 208 149
191 210 161
188 208 142
186 206 140
189 209 151
184 205 140
188 208 157
193 213 175
187 207 144
192 211 155
189 209 153
189 209 151
193 212 161
192 211 161
189 208 163
184 205 127
185 206 127
189 210 147
189 209 155
189 208 159
187 207 149
187 207 142
188 208 149
184 205 130
187 208 144
188 208 140
187 206 140
186 206 137
182 202 120
183 204 127
188 208 140
175 197 99
182 203 120
182 202 125
177 199 92
182 203 120
182 202 130
179 201 95
180 200 102
178 200 99
181 202 114
172 195 80
177 199 95
177 198 99
174 195 74
171 194 84
160 183 95
158 182 97
153 175 107
149 172 118
138 162 107
100 127 125
79 110 140
85 115 161
67 101 150
80 111 159
71 104 153
74 107 154
67 100 151
72 104 153
63 99 158
67 101 148
68 102 151
66 100 159
63 99 157
64 99 163
61 97 156
62 98 158
63 98 162
61 97 159
62 98 167
61 97 160
61 97 162
62 98 161
60 96 155
62 99 168
61 97 163
61 97 157
60 96 155
61 98 169
61 97 163
62 98 162
61 97 165
60 96 160
61 97 162
61 97 162
61 98 162
62 98 167
62 99 172
61 98 168
62 98 166
62 98 162
62 98 170
61 97 163
62 98 165
61 97 167
62 98 164
62 98 166
62 98 169
61 98 162
61 98 162
62 99 176
62 98 165
61 97 164
61 97 170
62 98 163
62 98 162
62 98 166
62 99 174
62 99 173
62 99 168
61 98 170
62 98 167
62 98 168
62 99 170
62 98 167
62 99 169
62 98 168
62 98 171
61 97 162
60 97 163
63 99 167
62 98 165
61 98 166
61 98 169
61 98 171
62 98 167
62 98 169
61 97 163
62 98 167
62 99 172
61 98 165
62 99 172
63 99 170
63 99 170
61 98 165
62 99 169
62 98 168
63 99 170
61 98 159
62 99 169
63 100 175
62 98 163
62 98 165
62 98 164
62 99 168
62 99 170
62 98 164
62 98 168
61 98 159
62 98 168
62 98 166
62 98 162
62 98 168
61 98 165
62 99 169
62 99 168
62 99 172
62 98 160
62 98 166
63 99 168
62 98 164
61 97 163
61 98 162
62 98 170
62 99 167
61 97 162
63 99 165
62 98 164
62 99 171
63 99 167
62 99 164
62 98 160
63 99 166
62 99 167
62 99 169
62 98 159
62 98 163
62 98 165
62 98 159
62 98 165
61 97 160
62 99 165
61 97 164
62 98 162
61 97 159
63 99 166
62 98 164
62 98 161
62 97 158
62 98 161
63 99 170
62 99 167
61 97 153
62 98 157
62 98 158
62 98 160
62 98 163
63 99 168
62 98 161
62 97 154
61 97 153
62 98 159
61 96 153
61 97 156
61 96 153
61 97 159
61 97 152
63 98 164
61 97 158
61 97 156
62 98 160
60 96 148
62 98 154
62 97 158
62 97 152
63 99 163
62 97 151
60 95 147
61 96 144
62 97 152
61 96 148
61 96 155
61 96 149
61 95 145
60 95 145
61 95 146
60 95 146
61 95 148
59 92 136
77 99 127
78 89 90
98 98 49
94 92 23
97 96 3
94 91 8
93 91 3
94 93 16
86 85 12
92 89 11
95 93 8
93 91 18
89 89 9
97 95 15
99 98 8
99 97 14
89 90 14
101 98 12
99 98 19
94 94 5
100 101 19
105 104 18
110 109 21
114 113 5
97 98 20
112 111 16
123 120 8
118 116 8
122 119 14
128 125 8
125 122 11
119 117 11
127 124 8
135 132 0
122 120 8
134 131 8
130 127 0
133 129 11
134 131 0
137 135 0
134 130 0
131 130 0
133 129 0
144 140 0
141 138 0
137 134 0
140 138 0
142 138 0
138 136 0
139 136 0
143 141 0
138 137 0
140 137 0
145 142 0
145 141 0
142 140 0
140 138 0
143 140 11
145 142 0
142 140 0
147 144 0
144 141 11
144 141 0
146 144 0
147 145 0
146 142 0
146 144 11
149 146 0
148 145 0
146 143 0
149 144 0
150 145 11
148 145 0
151 148 0
152 148 0
146 141 0
148 145 0
147 144 0
148 145 0
149 144 0
149 145 0
150 145 0
150 146 0
152 147 0
151 147 0
150 147 0
151 148 0
149 146 0
150 145 0
147 143 0
149 144 0
149 144 0
149 146 0
150 145 0
144 140 0
146 141 0
147 142 0
149 142 0
140 135 0
141 135 0
144 140 0
144 140 0
143 139 0
146 143 0
142 140 0
144 146 0
149 151 0
149 151 0
149 155 0
155 162 0
152 158 0
157 167 0
150 157 0
158 167 0
157 169 0
154 163 0
157 170 0
167 182 0
163 178 0
165 180 0
168 184 0
164 180 0
169 187 0
167 184 0
166 184 0
169 187 0
169 188 0
167 185 0
170 188 0
169 188 0
170 188 0
170 190 0
168 185 0
170 190 0
171 190 0
171 190 0
169 188 0
177 200 72
176 198 84
176 198 76
178 201 84
178 200 76
180 202 111
183 204 114
183 204 120
179 201 102
184 205 130
182 203 120
187 207 137
177 198 105
189 209 140
185 206 135
184 205 127
186 207 130
183 203 130
186 206 142
190 210 149
188 208 142
182 203 120
186 206 137
193 212 161
191 211 159
191 211 155
191 211 155
188 208 149
189 209 149
191 210 157
194 213 173
190 209 149
189 210 142
189 209 161
193 213 167
192 212 169
190 211 163
185 206 133
192 212 173
192 211 169
193 212 173
192 212 173
193 212 165
185 205 151
193 213 159
197 216 186
185 205 155
191 210 155
192 211 159
188 208 155
188 208 151
188 208 151
188 208 157
191 210 157
196 215 177
187 207 147
189 208 163
189 209 149
184 205 130
188 209 147
184 205 122
185 206 140
184 205 140
189 209 157
183 204 125
186 206 149
177 198 108
182 202 120
181 202 125
181 201 130
180 202 108
182 203 120
176 198 102
178 200 88
177 199 99
177 198 99
178 198 102
172 194 84
172 195 84
169 192 105
150 172 117
156 178 110
140 164 107
140 164 114
115 140 139
100 127 135
84 114 137
75 106 142
67 100 156
70 104 160
68 101 148
70 104 164
69 102 156
65 100 160
68 102 163
67 102 153
68 101 147
65 100 160
68 102 162
63 98 160
63 98 155
61 96 161
65 100 160
64 99 162
62 97 159
61 97 160
61 97 158
61 97 157
61 97 162
62 98 168
61 98 165
62 99 169
61 97 164
61 96 161
61 98 165
61 97 159
62 98 166
62 98 168
61 97 166
62 99 168
60 96 150
62 98 165
62 98 165
62 98 167
62 98 167
62 98 168
62 99 168
61 97 164
62 98 170
61 97 159
61 98 166
62 98 166
62 98 164
61 97 164
62 98 166
62 98 167
62 98 171
62 99 168
61 98 165
62 99 168
62 98 166
62 98 168
61 97 158
61 98 171
61 98 164
61 98 165
62 98 166
62 98 166
61 97 160
62 98 162
62 98 164
62 98 165
62 98 167
62 98 172
62 98 163
62 98 164
62 99 167
62 98 168
61 97 166
62 98 161
62 99 168
62 99 170
62 98 169
62 98 168
62 98 167
62 98 165
62 99 168
62 99 169
62 98 163
62 98 164
61 98 169
62 98 167
62 99 168
62 98 166
61 98 162
62 98 162
62 98 162
61 98 164
62 99 170
61 97 161
62 98 164
61 98 169
62 98 160
62 99 167
62 98 169
62 98 166
62 99 166
63 99 173
61 97 158
61 98 166
63 99 166
62 98 163
62 99 168
61 98 161
62 98 167
62 99 169
62 98 168
62 98 166
61 97 162
62 98 162
62 99 169
62 98 159
61 97 163
62 99 175
62 98 165
62 98 159
63 99 166
61 97 161
62 98 162
62 98 164
62 98 159
60 96 152
62 98 165
62 99 167
63 99 162
62 98 166
62 98 159
62 98 161
61 97 154
62 98 161
63 99 167
62 98 155
62 98 163
62 98 160
62 98 159
62 99 168
63 99 163
61 97 150
61 97 163
62 97 156
62 98 161
61 98 162
61 96 145
62 98 159
61 97 153
62 98 164
62 98 161
62 98 158
63 99 162
62 98 157
61 96 155
61 97 158
61 96 155
60 95 147
62 97 155
61 97 154
62 97 161
62 98 162
62 98 159
62 97 163
61 96 148
61 96 147
60 95 150
61 96 151
61 97 155
61 96 148
61 96 153
60 96 141
59 92 134
61 95 143
60 95 146
60 95 143
60 95 147
67 89 113
89 99 95
92 93 42
104 101 22
92 89 11
99 97 0
92 89 12
98 97 16
103 99 16
98 97 8
95 94 11
87 87 13
91 89 14
99 97 8
102 99 12
88 88 11
97 96 14
101 99 20
113 110 12
104 103 14
98 97 18
116 114 14
102 100 12
113 111 12
118 116 20
115 113 12
116 115 16
123 120 8
117 115 12
112 109 8
124 122 8
129 128 8
128 125 0
128 126 8
128 126 0
126 125 0
136 134 0
134 131 0
134 131 0
137 135 0
139 136 0
128 127 0
138 135 0
136 133 0
147 143 0
138 136 0
142 139 0
144 140 0
143 139 0
139 136 0
144 142 0
144 141 0
142 140 0
140 136 0
142 139 0
143 139 0
146 144 0
144 140 0
142 137 0
141 137 0
148 144 0
146 141 0
147 144 0
147 144 0
150 145 0
143 140 0
142 139 0
146 143 0
146 144 0
147 144 0
152 148 0
151 147 0
151 147 0
147 143 0
151 148 0
149 146 0
147 143 0
150 147 0
149 145 0
152 148 0
148 144 0
149 145 0
152 147 0
147 143 0
148 144 0
148 144 0
150 147 0
150 146 0
149 144 0
147 143 0
148 143 0
149 145 0
143 140 0
149 144 0
146 140 0
146 142 0
149 144 0
148 144 0
143 138 0
142 137 0
142 138 0
138 133 0
139 136 0
138 136 0
133 133 0
143 144 0
142 145 0
148 153 0
146 150 0
144 149 0
137 139 0
151 162 0
150 161 0
157 166 0
159 171 0
161 173 0
162 177 0
166 181 0
167 182 0
167 184 0
169 188 0
169 187 0
168 185 0
167 184 0
170 190 0
169 187 0
167 184 0
167 185 0
167 184 0
171 190 0
168 184 0
168 188 0
169 189 0
169 187 0
169 187 0
171 190 0
169 187 0
178 200 67
179 201 108
180 201 99
179 200 95
180 202 111
175 197 99
183 204 114
189 209 144
180 201 111
178 200 105
187 207 147
183 204 130
185 206 122
179 202 99
187 207 137
188 209 151
189 209 153
189 209 140
193 213 161
190 209 151
190 210 149
196 215 177
189 209 144
184 205 135
189 209 144
187 207 142
187 208 142
192 212 161
195 215 173
192 212 167
196 215 179
194 214 173
190 210 151
194 213 171
192 211 169
191 211 163
194 213 165
195 214 169
194 213 159
192 211 161
194 214 169
195 214 186
194 213 179
192 212 163
191 211 159
190 209 165
193 213 167
197 215 177
192 212 167
191 212 163
191 211 165
192 211 169
197 216 181
183 203 133
191 211 167
190 210 151
190 210 163
188 208 149
192 211 155
191 211 153
187 207 144
193 212 165
184 204 133
185 206 133
187 208 130
189 209 151
183 203 130
184 204 122
182 203 125
181 202 117
187 206 140
181 202 125
182 203 125
178 199 111
180 200 122
181 202 108
177 198 111
176 198 114
166 187 108
154 177 121
150 173 111
146 169 122
142 165 122
131 155 120
117 141 134
88 117 148
80 110 151
81 112 158
78 109 156
82 112 154
84 114 161
80 111 163
71 104 154
66 101 160
69 103 157
68 102 156
69 103 149
64 99 158
62 98 163
64 99 162
70 103 157
61 97 160
62 98 159
61 97 161
61 97 160
60 96 159
62 98 164
61 97 162
61 97 158
61 97 160
62 98 160
61 98 165
61 97 159
61 97 162
61 97 160
61 97 163
62 98 165
61 97 153
62 98 168
61 97 167
60 96 157
63 99 164
62 98 166
62 98 169
61 97 165
62 98 164
62 98 162
61 97 160
63 99 170
61 97 161
60 96 163
61 97 163
62 99 170
62 98 162
62 98 169
61 97 158
62 99 170
61 97 161
62 98 165
62 99 171
62 98 167
62 99 171
61 98 168
62 99 165
63 99 168
62 98 166
61 98 168
60 97 163
62 98 167
62 98 170
61 98 169
62 98 166
63 99 168
61 97 164
61 98 167
62 98 163
61 98 163
62 98 171
62 98 169
62 98 167
62 98 167
62 98 167
62 98 164
61 97 160
61 98 169
62 98 165
63 99 165
61 97 161
62 99 170
61 97 160
61 98 165
62 98 166
62 99 169
62 98 165
63 99 170
63 99 163
62 99 169
61 98 164
62 99 170
62 99 168
63 99 165
63 99 166
62 98 160
61 97 157
62 98 166
61 98 166
61 98 163
62 98 161
61 97 161
62 98 165
60 97 161
62 98 165
62 98 161
62 98 166
63 99 166
62 98 163
62 98 167
62 98 163
61 97 160
62 98 163
61 98 161
62 98 166
62 99 168
62 98 164
62 98 160
63 99 164
62 99 164
62 98 164
63 99 170
62 98 164
62 98 164
62 99 164
63 99 165
62 98 160
63 99 165
61 96 154
62 98 159
63 99 166
62 98 163
61 97 160
62 98 161
62 98 161
62 98 163
62 98 164
61 97 158
62 98 159
61 97 159
62 98 156
63 98 159
62 98 160
63 99 163
63 98 159
62 97 154
62 98 162
61 97 160
62 97 155
62 98 166
62 98 159
62 98 159
63 99 161
61 96 152
61 97 160
61 96 148
62 98 157
61 97 155
62 97 157
61 96 150
62 97 150
62 98 155
61 96 151
61 96 149
61 96 145
62 97 156
61 97 148
62 97 159
61 96 147
61 97 158
59 94 139
61 95 149
61 95 149
61 95 149
59 93 142
60 94 140
73 92 109
86 96 90
98 102 51
95 93 1
97 93 8
96 91 8
95 94 8
107 102 3
83 80 8
94 90 11
104 100 11
96 92 14
99 96 14
103 99 5
95 93 12
95 92 8
106 104 15
107 105 11
110 106 18
99 98 11
101 101 18
98 98 18
103 100 9
103 102 11
109 108 12
111 109 11
110 109 16
122 118 11
124 121 8
116 115 12
122 118 11
132 129 8
121 120 11
132 130 0
134 129 8
135 132 0
130 128 0
133 131 0
128 126 8
132 130 0
134 132 0
130 128 0
138 136 0
133 131 0
133 132 0
139 135 0
135 133 0
144 139 0
140 137 0
144 141 0
144 140 0
140 136 0
142 139 0
145 142 0
142 137 0
146 144 0
149 143 0
138 135 0
146 142 0
142 139 0
148 144 0
146 142 0
145 141 0
148 144 0
142 138 0
144 141 0
146 142 0
147 142 0
149 144 0
146 142 0
145 142 0
143 140 0
145 141 0
146 141 0
150 145 0
147 143 0
147 143 0
147 141 0
147 142 0
152 147 0
151 145 0
150 146 0
150 144 0
151 147 0
149 142 0
153 149 0
149 143 0
149 145 0
146 142 0
147 142 0
146 142 0
145 139 0
150 147 0
138 133 0
144 141 0
148 143 0
144 139 0
139 133 0
136 131 0
144 140 0
144 140 0
144 142 0
143 142 0
139 139 0
140 142 0
147 149 0
147 151 0
149 154 11
144 149 0
154 159 0
148 156 0
150 159 0
152 161 0
161 177 0
158 171 0
161 176 0
163 178 0
162 175 0
166 181 0
164 180 0
168 186 0
167 184 0
166 184 0
166 181 0
173 191 0
166 186 0
169 189 0
171 191 0
165 183 0
170 188 0
170 189 0
169 188 0
170 189 0
169 189 0
167 187 0
171 190 0
171 190 0
175 197 95
179 202 102
179 199 114
186 206 133
182 204 108
187 208 127
183 204 114
187 208 133
187 207 140
184 205 137
189 208 142
190 209 155
187 207 135
193 212 155
185 206 142
184 205 135
189 209 142
194 213 161
190 210 159
188 209 147
192 212 165
195 214 175
188 208 149
191 211 157
192 212 163
194 212 171
194 213 167
193 213 171
190 210 157
194 214 167
193 213 169
191 210 163
197 216 182
198 216 186
196 215 184
196 216 179
193 212 169
199 217 189
200 218 199
197 216 189
196 215 184
198 217 186
200 219 194
198 216 191
197 216 184
192 211 165
195 214 177
192 212 167
194 213 167
198 217 188
193 213 167
197 216 181
188 208 147
192 212 165
193 213 167
190 210 149
192 212 163
194 213 169
188 207 153
188 207 155
194 213 165
191 211 157
189 209 157
191 210 155
186 207 135
187 206 149
189 208 149
188 208 151
186 206 153
190 209 147
181 202 135
186 206 137
188 208 140
185 205 133
183 203 135
186 206 135
181 201 126
172 193 105
170 192 126
146 168 133
151 173 129
145 167 134
139 162 136
140 163 130
122 146 140
91 118 141
97 125 148
78 109 153
72 104 143
80 110 150
76 107 145
77 109 142
76 108 156
69 103 157
63 99 156
69 102 153
70 103 155
65 99 150
63 98 156
66 101 163
64 99 160
63 98 159
61 97 157
60 96 154
63 98 156
60 96 159
61 97 160
61 97 161
60 96 158
62 97 164
62 98 161
62 98 167
61 97 161
60 96 162
61 98 163
61 96 160
62 98 168
60 96 157
62 98 163
61 98 161
61 97 158
62 98 162
61 97 158
62 98 163
61 97 164
62 98 162
60 96 155
62 98 169
62 98 165
61 97 166
61 98 167
62 99 169
62 98 166
62 98 164
62 99 171
62 98 164
61 97 163
62 99 170
61 98 170
62 98 167
62 98 165
62 98 163
61 98 165
61 97 164
61 98 165
62 98 165
62 99 168
61 97 162
62 99 168
61 98 163
62 98 167
62 98 167
62 99 170
61 97 159
61 97 162
62 98 161
61 98 163
63 99 170
61 97 161
62 99 173
61 98 160
62 98 167
62 98 165
62 99 167
62 98 164
63 99 171
62 99 171
62 98 166
62 98 168
61 98 167
62 98 161
61 97 162
62 98 163
62 98 164
61 98 164
62 98 164
62 98 165
62 98 165
62 98 164
62 98 165
62 98 160
62 98 169
61 97 161
61 97 155
61 98 164
61 98 164
62 99 166
63 99 166
62 98 164
62 98 160
62 98 162
62 99 169
62 98 163
62 98 165
62 98 156
62 98 163
62 99 170
61 97 160
60 96 161
62 98 168
62 98 161
62 98 162
62 98 162
62 98 164
62 98 160
62 98 159
62 98 159
63 99 171
62 98 168
61 97 160
62 99 163
61 97 158
62 98 166
62 98 158
63 99 168
62 98 166
62 98 163
62 98 161
62 98 159
63 99 161
62 98 160
61 97 156
61 96 158
61 97 159
62 98 163
62 98 158
62 98 160
61 97 158
62 98 164
62 98 159
61 97 154
62 98 160
61 97 157
61 97 158
61 97 160
63 99 165
62 98 156
62 97 156
62 97 158
62 98 158
62 98 156
61 97 155
61 96 148
61 96 150
62 97 150
61 97 154
62 98 156
63 98 162
62 97 150
61 97 157
61 96 155
62 97 159
60 94 140
61 95 149
62 97 154
62 96 155
61 97 150
61 96 151
61 95 147
61 95 144
60 94 148
60 94 141
60 94 137
69 91 110
82 91 85
91 93 59
100 96 18
95 91 11
87 86 11
94 92 3
90 85 0
96 94 3
108 106 8
92 90 8
101 99 8
97 95 16
100 98 14
101 99 12
106 103 15
102 99 11
103 100 12
96 94 14
100 98 12
106 103 16
103 102 14
120 117 14
109 107 8
118 115 8
118 113 12
117 115 8
121 117 11
116 115 8
122 119 11
118 116 8
129 126 8
130 127 0
119 118 3
131 128 8
130 127 0
119 118 0
138 135 0
129 126 0
127 125 0
134 130 0
134 130 0
140 138 0
130 128 0
136 133 0
136 134 0
134 132 0
138 136 0
143 140 0
136 133 0
138 135 0
145 141 0
138 136 0
141 137 0
147 144 0
145 141 0
143 141 0
142 139 0
145 141 0
145 143 0
146 143 0
142 137 0
142 138 0
147 144 0
149 144 0
143 138 0
146 142 0
144 140 0
147 142 0
146 142 0
144 139 0
148 145 0
150 147 0
147 142 0
149 144 0
143 138 0
150 144 0
148 143 0
150 145 0
146 142 0
148 143 0
148 143 0
146 141 0
150 145 0
149 145 0
148 143 0
148 145 0
152 147 0
146 141 0
143 139 0
148 142 0
148 142 0
147 142 0
143 137 0
142 136 0
143 137 0
139 134 0
145 140 0
139 134 0
141 137 0
138 134 0
137 136 0
134 135 0
138 137 0
143 144 0
142 143 0
143 145 0
149 155 0
144 150 0
155 163 0
152 162 0
155 163 0
157 168 0
154 162 0
158 171 0
164 176 0
168 182 0
165 180 0
167 182 0
171 190 0
167 184 0
168 184 0
169 186 0
168 186 0
168 186 0
168 184 0
169 186 0
168 186 0
170 188 0
170 190 0
171 190 0
168 186 0
171 189 0
165 182 0
168 186 0
170 187 0
169 186 0
179 200 108
182 203 122
184 205 122
185 205 125
178 200 108
188 209 140
184 205 130
187 208 140
190 210 155
188 209 142
189 209 147
189 209 157
189 209 147
190 211 155
190 210 163
193 212 165
195 213 177
194 213 161
196 214 177
190 210 151
191 211 163
190 210 157
190 211 163
198 216 189
197 216 186
193 213 169
196 216 191
197 216 182
197 216 194
198 217 182
196 215 181
198 217 196
196 216 179
200 218 191
194 214 186
196 215 182
197 215 186
201 220 198
195 214 181
201 219 201
198 217 189
196 216 184
201 220 196
196 215 181
194 213 179
195 215 182
199 218 194
198 217 188
201 219 201
198 217 184
197 216 188
196 215 179
197 216 191
197 215 179
191 211 165
196 215 181
193 212 167
195 215 175
193 213 171
193 212 165
194 214 175
198 217 182
193 213 169
189 209 153
193 212 165
193 212 165
194 212 171
195 213 169
183 204 135
190 210 155
182 204 130
191 211 161
187 207 147
183 203 125
192 211 151
185 206 137
180 201 121
170 192 126
163 184 134
146 169 125
141 164 134
144 166 144
135 159 121
128 153 126
107 133 139
93 121 146
81 111 150
81 112 148
86 115 154
78 110 154
82 113 155
76 108 157
68 102 151
82 112 143
63 98 151
67 101 152
67 102 159
71 104 155
66 100 160
62 97 155
62 99 165
66 101 158
61 97 156
62 98 159
63 99 156
63 98 154
61 97 165
61 97 163
61 98 165
60 96 149
61 97 161
62 98 167
61 97 164
61 97 161
62 98 161
61 97 164
61 97 167
63 99 167
61 97 162
62 98 169
61 98 165
61 97 158
61 98 163
61 98 169
62 98 164
62 98 167
61 97 165
62 98 166
62 98 165
62 98 165
60 97 162
60 96 160
60 96 156
61 98 158
62 99 172
61 98 163
62 98 164
63 99 172
61 97 162
61 97 169
62 98 167
62 98 167
62 98 162
61 97 162
61 98 164
61 97 164
62 98 166
61 97 162
60 96 158
62 98 168
62 98 170
61 97 161
61 98 166
62 98 167
61 97 165
62 98 168
63 99 166
62 99 171
61 97 162
63 99 171
63 99 173
61 97 163
62 98 157
62 98 164
62 98 164
62 98 164
62 99 163
61 97 155
62 99 171
62 98 160
63 99 165
62 98 166
62 98 165
62 98 163
61 97 159
62 98 163
62 99 168
62 98 164
62 98 164
61 97 161
62 98 163
62 98 165
61 97 155
62 98 162
62 98 161
62 98 162
62 99 170
62 98 162
62 98 168
62 98 164
62 98 166
61 97 159
63 99 166
61 97 158
62 98 162
62 98 163
62 98 161
62 98 164
62 99 166
61 97 161
62 98 164
61 98 159
63 99 170
62 98 163
62 98 165
62 98 164
61 97 162
61 97 156
63 99 164
62 98 161
62 98 162
62 98 162
62 98 165
62 98 164
62 98 162
62 99 164
62 98 161
63 99 168
62 98 161
62 98 164
62 98 165
62 98 160
62 98 163
62 98 158
61 97 159
62 98 159
62 98 158
62 98 155
62 97 155
60 96 149
62 97 156
62 97 149
61 96 155
61 97 150
61 97 154
62 98 159
61 98 159
61 97 152
62 97 152
63 99 163
62 97 158
62 98 161
62 97 154
62 97 155
61 96 153
61 96 148
62 97 154
61 96 151
60 95 139
61 96 148
61 96 151
62 97 155
61 96 151
61 96 146
62 97 157
61 95 149
61 96 149
61 95 138
60 95 141
61 96 149
59 93 138
59 93 128
60 94 145
77 96 117
85 95 88
88 90 64
93 91 18
104 99 0
93 89 8
98 94 0
98 96 8
100 97 8
95 92 8
96 90 8
99 96 8
110 106 3
95 92 2
106 103 12
103 100 5
100 97 2
113 110 0
106 103 0
112 108 16
108 105 8
97 95 14
110 106 8
109 108 11
109 107 3
117 114 8
116 113 11
124 120 0
121 119 0
128 123 8
116 112 0
119 114 0
127 125 0
133 130 8
125 123 0
130 125 0
126 123 0
122 120 0
133 129 0
129 127 0
132 129 0
138 135 0
133 130 0
139 134 0
140 137 0
137 134 0
137 132 0
137 134 0
139 134 0
136 132 0
136 132 0
137 133 0
142 137 0
141 137 0
140 137 0
144 141 0
142 139 0
144 142 0
144 140 0
139 137 0
142 139 0
137 134 0
148 143 0
145 142 0
145 141 0
144 140 0
141 136 0
143 138 0
145 141 0
148 142 0
147 144 0
151 147 0
150 147 0
145 140 0
146 143 0
147 143 0
143 138 0
147 143 0
148 143 0
148 142 0
149 145 0
144 139 0
145 140 0
149 144 0
149 145 0
143 138 0
146 140 0
147 143 0
145 140 0
147 143 0
144 137 0
147 140 0
145 139 0
144 138 0
144 140 0
146 140 0
141 137 0
132 126 0
137 133 0
141 138 0
146 145 0
140 140 0
145 146 0
149 150 0
139 139 0
149 153 0
146 151 0
154 164 0
153 160 0
155 162 0
161 174 0
158 171 0
159 170 0
152 165 0
156 168 0
164 180 0
161 175 0
169 187 0
166 183 0
165 181 0
169 187 0
169 186 0
167 184 0
167 183 0
169 187 0
163 179 0
168 185 0
171 190 0
168 185 0
171 190 0
168 186 0
167 186 0
172 190 0
171 190 0
169 189 0
170 189 0
169 186 0
183 203 122
181 203 108
187 207 127
187 207 137
183 204 114
187 207 137
191 210 151
187 207 133
190 210 147
186 206 137
194 213 163
195 214 177
190 210 159
185 206 142
196 215 181
191 211 155
189 209 161
189 209 151
197 216 184
197 216 188
197 216 177
195 214 182
194 214 177
197 216 181
194 214 175
196 216 186
199 218 193
198 217 193
193 214 175
200 219 199
200 219 198
200 219 199
202 220 206
199 219 196
199 218 196
201 220 203
199 218 193
201 219 196
201 219 198
201 220 206
199 218 194
199 218 194
202 221 204
201 219 201
197 217 188
200 219 203
194 214 182
199 218 194
200 219 193
201 220 203
199 218 191
200 218 198
201 220 198
196 215 179
196 215 182
196 215 182
193 213 169
194 214 169
194 214 184
194 213 175
194 213 175
193 212 175
191 211 159
195 214 171
195 214 173
190 210 153
193 211 181
192 212 163
193 213 169
189 208 161
195 213 179
189 209 153
186 205 140
190 210 155
182 202 137
184 204 130
183 203 151
169 189 144
161 182 131
150 172 141
164 185 155
148 170 150
123 148 133
121 145 141
128 153 149
102 129 148
83 114 153
89 119 155
78 110 157
82 112 149
83 113 158
73 105 152
75 107 150
70 104 158
67 101 155
69 102 152
61 97 155
69 102 158
64 99 158
63 98 157
59 95 154
65 100 155
63 98 156
61 96 155
68 102 161
61 97 155
64 99 159
61 97 159
62 97 156
62 97 157
61 97 158
62 97 165
61 96 157
61 97 166
61 97 162
61 97 161
58 94 154
61 97 161
61 97 162
61 98 168
61 97 160
60 97 159
61 98 167
61 98 166
62 98 163
62 98 161
62 99 167
61 97 158
61 96 162
62 98 168
60 96 163
62 98 166
62 98 169
62 98 163
62 98 170
61 97 162
61 98 165
63 99 171
62 98 166
62 98 165
63 99 173
62 99 173
61 98 165
62 98 164
62 99 169
62 98 164
63 99 165
62 98 163
61 97 164
62 99 168
62 98 164
62 99 169
61 98 164
62 99 165
62 98 168
62 98 161
62 99 169
62 99 168
61 98 164
62 99 172
61 98 167
62 98 165
61 97 157
62 99 168
62 98 167
61 97 162
62 98 165
61 98 167
62 98 162
62 99 172
62 98 167
62 98 164
62 98 162
62 98 167
62 99 167
61 98 159
62 98 162
62 98 166
61 97 157
61 98 162
62 99 170
61 98 166
62 98 159
63 99 164
61 97 159
62 98 161
62 98 164
63 99 166
63 99 169
62 98 160
62 98 164
61 97 158
62 99 169
61 97 155
63 99 166
62 98 158
62 98 159
61 98 159
61 98 164
63 99 165
61 97 158
62 98 164
62 98 163
61 97 161
61 98 160
61 97 157
62 98 160
62 98 162
61 96 154
63 99 165
63 99 162
62 98 163
62 98 157
62 98 157
62 98 161
62 98 157
62 98 159
63 99 167
62 98 163
61 97 156
61 97 157
61 96 151
62 98 163
60 96 143
63 99 164
62 98 155
63 99 162
62 98 158
62 98 158
62 98 158
63 99 165
61 97 153
62 98 162
62 98 156
62 98 161
62 98 157
61 97 149
62 97 157
61 97 160
61 97 157
62 98 160
62 97 158
61 96 148
61 97 149
62 97 154
62 98 160
61 97 159
63 98 157
61 96 152
62 97 152
61 96 150
60 95 154
61 97 155
60 95 142
61 96 150
60 95 147
61 96 143
60 94 145
60 94 143
60 94 137
60 94 138
59 93 139
61 94 138
69 91 115
80 88 84
98 97 40
94 92 26
97 93 0
91 89 0
92 86 8
101 97 0
91 87 3
100 97 11
106 100 3
99 95 14
99 95 8
101 97 8
104 101 12
104 102 8
106 102 5
101 100 8
103 98 8
108 102 0
111 107 3
112 108 8
113 110 11
121 118 3
109 107 8
121 118 0
105 104 11
126 122 11
111 108 8
126 123 11
118 117 0
123 119 0
123 120 0
125 121 0
131 127 8
128 124 0
127 125 0
129 125 0
131 128 0
130 126 0
133 128 0
133 129 0
125 123 0
134 131 0
135 133 0
129 128 0
136 133 0
136 132 0
138 135 0
139 136 0
141 136 0
144 139 0
143 139 0
140 137 0
142 137 0
141 136 0
143 140 0
140 135 0
145 141 0
148 144 0
138 134 0
146 141 0
145 140 0
145 141 0
144 139 0
143 138 0
142 138 0
144 139 0
145 141 0
147 141 0
149 145 0
144 138 0
146 142 0
148 145 0
146 141 0
151 147 0
143 138 0
148 142 0
150 144 0
145 141 0
148 143 0
143 139 0
150 145 0
150 145 0
151 147 0
144 139 0
148 142 0
143 139 0
146 139 0
141 137 0
144 139 0
148 143 0
145 141 0
148 143 0
142 136 0
139 136 0
138 133 0
140 136 0
141 134 0
141 138 0
140 139 0
140 139 0
141 140 0
140 141 0
147 153 0
147 153 0
144 150 0
148 156 0
150 158 0
148 157 0
161 171 0
165 178 0
160 172 0
164 180 0
159 169 0
166 182 0
168 185 0
166 181 0
168 185 0
167 184 0
169 186 0
168 186 0
165 182 0
167 185 0
170 188 0
167 186 0
171 189 0
164 182 0
167 185 0
167 185 0
169 188 0
169 187 0
167 185 0
172 192 0
171 190 0
169 187 0
170 191 0
186 206 125
187 208 137
190 210 149
181 202 125
181 202 122
186 206 147
187 207 142
188 209 135
189 209 159
191 211 159
194 213 169
198 217 184
194 213 173
194 214 182
194 214 173
194 213 165
194 213 173
198 217 188
196 216 186
198 217 189
195 215 177
198 218 193
194 213 175
199 217 194
199 218 193
203 221 209
198 217 201
204 222 207
196 216 189
199 219 196
198 217 189
198 217 191
200 219 196
201 220 206
200 219 199
198 218 201
202 221 211
201 219 198
200 219 196
199 218 198
203 222 215
205 223 217
202 221 204
206 224 220
199 218 196
204 221 206
201 220 209
201 219 199
201 220 194
201 220 201
200 219 198
199 218 191
205 222 207
201 220 199
200 218 196
200 219 194
199 218 196
203 222 207
195 215 184
202 220 198
198 217 189
197 216 186
198 217 189
197 216 191
196 215 181
197 216 188
196 215 186
191 211 161
191 211 161
195 214 175
189 209 142
190 209 161
194 213 165
193 212 175
188 208 147
192 211 160
181 201 140
176 196 156
159 180 148
149 170 168
160 179 179
128 151 155
146 168 167
131 155 144
118 142 153
122 146 156
79 110 155
89 118 148
84 114 155
87 116 149
72 105 158
67 101 153
75 106 149
85 115 154
69 102 155
77 108 156
69 102 154
62 97 154
62 97 156
62 97 152
70 103 164
68 101 150
65 100 154
63 99 157
61 97 163
63 99 158
63 99 161
63 98 158
60 96 162
62 98 168
63 99 157
61 96 162
61 97 166
62 98 157
62 98 164
61 97 160
62 98 166
61 98 165
62 98 168
62 98 164
61 98 168
62 98 165
61 97 154
61 97 163
62 99 163
62 98 167
61 98 160
61 97 159
60 96 157
61 97 160
61 97 162
62 98 160
61 98 165
63 99 167
61 98 162
61 97 162
61 98 164
61 97 157
61 98 166
62 98 163
61 97 163
61 97 162
61 98 160
62 98 168
62 98 162
62 98 164
62 98 164
60 96 158
61 98 162
61 97 162
63 99 169
61 97 158
62 99 168
62 97 162
61 97 164
62 98 161
62 98 163
61 97 158
62 98 167
61 98 168
62 98 164
61 98 166
62 98 168
61 97 157
61 98 166
61 98 165
62 99 173
63 99 169
61 97 159
63 99 169
62 98 161
62 98 166
62 98 161
62 98 162
61 97 162
62 98 165
61 97 161
62 98 159
62 98 160
62 98 158
62 98 166
62 98 163
62 98 162
62 98 167
61 98 165
62 99 172
62 98 160
61 97 154
62 98 162
62 98 169
62 98 169
63 99 167
62 99 168
62 98 161
63 99 168
62 98 157
61 97 157
63 99 162
63 99 165
61 97 159
61 98 162
62 98 158
62 98 159
62 98 164
62 98 157
61 98 160
62 97 156
62 99 165
61 98 162
62 98 157
62 98 167
62 98 162
62 98 162
62 98 161
62 98 163
61 97 160
62 98 160
62 98 159
61 97 159
61 97 155
62 98 164
62 97 158
62 98 158
61 97 153
62 98 158
62 98 158
62 98 158
62 98 160
63 99 166
62 98 155
62 98 155
62 98 155
62 98 160
62 98 158
61 96 144
61 97 156
61 97 156
61 97 153
62 98 159
62 98 156
62 98 162
63 98 158
62 98 159
61 96 150
62 98 160
61 96 153
60 95 145
63 99 161
61 96 147
61 97 155
61 96 151
61 96 144
60 95 143
61 97 149
62 98 158
62 98 158
61 96 148
61 95 147
60 94 143
60 94 143
61 95 147
60 93 136
61 92 132
69 88 110
95 101 72
100 97 38
105 101 18
97 94 3
96 91 8
98 93 0
109 103 0
98 93 0
98 96 8
96 94 0
94 93 8
110 106 0
105 101 0
109 105 8
98 94 0
104 100 0
108 105 0
118 114 0
114 110 3
106 105 0
111 109 14
111 106 8
105 104 8
120 115 8
109 106 0
124 120 0
117 116 12
120 115 0
133 128 0
124 120 0
124 121 0
115 111 0
126 124 0
129 125 0
129 126 0
130 126 0
129 126 0
134 129 0
132 128 0
131 129 0
138 133 0
137 135 0
131 128 0
136 133 0
135 130 0
136 132 0
130 127 0
146 141 0
140 135 0
144 141 0
140 136 0
143 139 0
141 137 0
141 138 0
143 139 0
142 139 0
148 144 0
142 138 0
139 136 0
145 140 0
138 134 0
149 145 0
141 137 0
144 140 0
140 136 0
146 143 0
143 139 0
147 142 0
145 139 0
146 142 0
145 139 0
147 143 0
148 143 0
145 140 0
148 143 0
145 139 0
147 143 0
143 137 0
144 138 0
144 140 0
145 140 0
146 142 0
145 141 0
146 140 0
142 137 0
145 140 0
145 141 0
144 138 0
143 138 0
142 136 0
143 138 0
139 134 0
144 137 0
138 132 0
140 134 0
140 137 0
139 136 0
137 136 0
140 138 0
140 139 0
140 142 0
144 146 0
144 148 0
146 151 0
147 150 0
146 157 0
154 162 0
157 165 0
152 163 0
154 162 0
160 174 0
160 172 0
163 179 0
168 184 0
163 177 0
165 180 0
169 184 0
161 175 0
169 187 0
169 185 0
170 188 0
168 185 0
165 181 0
170 186 0
166 183 0
169 186 0
168 186 0
168 185 0
168 186 0
171 190 0
171 190 0
171 189 0
167 183 0
169 188 0
169 187 0
171 190 0
187 207 144
188 208 135
189 209 144
188 208 144
190 210 153
193 212 157
191 211 161
192 212 167
195 215 175
192 212 173
191 211 155
192 211 159
196 215 181
193 212 175
195 214 181
195 215 179
199 218 189
195 215 186
202 221 209
200 218 196
197 217 186
198 217 188
197 216 188
201 220 194
200 219 204
202 220 206
202 220 203
202 221 204
200 219 196
200 219 203
202 221 204
202 220 207
203 222 220
199 218 196
206 224 224
204 222 211
202 221 209
205 223 218
203 221 211
202 221 206
199 218 196
204 222 220
203 221 215
201 220 206
201 220 206
204 223 217
202 220 215
199 218 204
199 218 203
207 225 223
203 221 206
204 222 211
202 221 209
204 222 214
204 222 211
203 222 212
201 219 204
201 220 207
200 219 199
202 220 199
201 220 196
200 218 194
197 216 193
200 218 194
198 217 188
197 216 181
195 214 181
198 217 186
192 211 161
203 221 206
196 215 181
195 214 177
193 212 159
198 216 186
197 215 188
184 204 158
186 205 179
169 189 173
168 187 184
143 164 164
146 167 168
134 156 166
134 157 150
129 151 157
121 146 151
106 132 156
98 125 159
86 116 156
93 121 157
80 111 158
82 112 154
81 111 157
83 113 158
71 104 154
75 107 157
77 109 159
74 107 159
71 104 148
66 100 161
72 105 157
64 100 164
68 102 154
60 96 156
63 99 164
63 99 155
64 100 164
62 97 153
64 99 159
65 101 162
60 96 161
60 96 158
60 96 150
61 97 161
62 99 168
62 98 162
62 98 163
62 98 166
61 97 164
61 97 161
62 98 162
61 97 163
61 97 165
61 97 162
59 95 155
59 95 156
61 97 166
61 97 157
62 98 160
62 98 170
59 95 153
61 97 163
61 97 165
61 97 162
62 99 169
61 98 163
61 98 165
61 97 157
62 99 174
61 97 159
61 97 162
61 97 157
62 98 165
62 98 163
61 98 166
61 98 166
61 98 168
62 98 167
61 97 159
61 97 158
61 98 164
62 98 162
62 99 169
62 98 162
61 98 165
61 97 159
61 96 151
62 98 166
61 98 161
62 99 169
61 98 163
62 99 170
62 98 163
62 98 160
61 97 161
63 99 170
61 98 168
63 99 165
62 98 160
62 98 166
61 98 160
61 98 163
62 98 163
62 98 163
62 98 161
63 99 169
62 98 160
61 98 165
63 99 165
62 98 165
63 99 168
61 97 157
61 97 157
62 98 158
62 98 159
62 97 161
62 98 157
62 98 164
62 99 168
62 99 166
62 98 161
62 98 162
62 98 159
62 98 160
62 98 163
62 98 166
62 98 157
62 98 161
61 97 160
61 98 166
62 98 163
63 99 164
62 98 166
62 98 157
62 97 157
62 98 160
61 97 161
61 97 157
62 99 167
62 98 160
62 98 161
62 98 161
61 97 157
62 98 163
61 96 154
62 98 161
63 99 165
62 98 162
61 97 158
61 97 155
62 98 160
62 98 161
62 98 160
62 99 168
61 96 151
62 97 152
61 97 153
62 98 157
61 97 159
62 98 163
62 98 158
62 98 162
62 98 157
60 96 144
62 98 158
61 97 160
61 97 154
62 98 155
62 98 155
62 97 154
62 97 154
62 98 158
61 97 157
62 98 156
61 97 151
61 96 146
62 97 150
62 97 154
61 97 145
61 97 156
62 97 153
61 96 150
61 96 151
61 96 148
61 97 153
61 96 148
61 95 147
61 96 151
61 96 155
60 94 140
61 95 145
60 94 145
61 95 143
60 92 129
76 93 104
85 93 86
98 97 54
94 91 0
101 97 0
95 94 0
101 95 0
96 94 8
98 96 3
91 87 1
98 93 0
100 95 0
95 92 11
101 98 0
99 98 8
103 98 14
104 101 0
111 105 8
105 101 14
105 102 8
110 107 0
106 103 11
99 96 8
109 106 0
117 115 8
108 105 8
115 111 0
117 113 0
123 118 0
123 121 0
122 117 0
126 121 0
122 119 8
122 119 0
129 124 0
120 116 0
129 126 0
131 126 0
129 126 0
134 131 0
132 129 0
133 130 0
132 128 0
139 134 0
134 130 0
139 133 0
137 133 0
135 132 0
136 133 0
139 135 0
135 133 0
142 138 0
139 135 0
143 139 0
136 132 0
141 136 0
145 141 0
146 142 0
139 135 0
146 141 0
142 139 0
144 138 0
141 137 0
139 133 0
137 133 0
141 138 0
144 140 0
147 141 0
142 138 0
150 146 0
142 139 0
147 143 0
144 140 0
148 143 0
147 142 0
149 144 0
144 138 0
148 142 0
147 142 0
148 143 0
146 140 0
146 141 0
144 138 0
148 143 0
148 141 0
149 144 0
147 140 0
145 139 0
141 135 0
146 140 0
139 133 0
141 135 0
137 131 0
139 135 0
140 135 0
145 144 0
144 139 0
135 134 0
144 142 0
141 140 0
145 142 0
139 140 0
146 147 0
147 152 0
147 151 0
149 156 0
153 162 0
157 165 0
157 167 0
159 172 0
159 169 0
159 173 0
163 176 0
161 173 0
165 180 0
166 179 0
165 180 0
167 182 0
166 180 0
166 181 0
167 182 0
163 180 0
169 186 0
170 185 0
166 181 0
169 186 0
167 184 0
168 186 0
167 182 0
166 184 0
168 186 0
167 185 0
169 187 0
169 188 0
168 185 0
168 187 0
167 187 0
196 216 181
195 214 175
190 210 155
192 212 161
190 210 153
193 212 167
192 212 173
190 210 159
194 213 179
196 215 175
197 216 182
195 215 182
194 213 171
195 215 179
196 215 188
194 213 186
196 214 186
198 217 188
201 220 196
201 219 207
198 217 193
204 222 211
201 220 199
201 220 203
202 220 207
204 222 211
199 218 194
203 221 207
203 221 207
203 222 218
201 221 207
206 224 220
203 222 211
202 220 204
202 221 214
206 224 223
204 222 212
205 224 223
204 223 215
203 222 217
200 219 204
205 223 218
202 221 209
205 223 224
205 224 220
203 221 212
204 222 212
199 218 196
204 223 215
202 221 211
204 222 215
204 223 215
199 219 196
205 223 218
200 219 198
203 221 209
200 219 204
205 223 221
206 224 220
205 223 215
201 220 204
205 223 221
200 218 193
198 218 196
199 218 203
197 216 188
197 216 191
201 219 198
194 213 173
198 216 191
196 216 184
197 216 175
191 211 169
196 215 179
190 209 155
184 203 165
185 204 175
168 188 169
162 182 175
149 171 176
155 176 186
140 161 173
129 152 170
146 167 180
124 148 161
109 135 158
104 129 168
93 122 157
86 116 159
84 114 156
98 125 173
77 108 159
75 106 153
69 102 158
80 110 154
90 118 158
65 99 148
78 109 163
66 100 156
77 108 158
63 98 152
61 97 152
63 98 156
64 100 162
63 99 164
63 99 164
65 100 156
60 96 157
61 98 163
63 97 158
62 98 166
62 98 164
60 96 157
61 97 165
61 97 163
61 97 158
61 96 160
61 97 160
61 97 158
61 96 157
61 98 165
62 98 167
61 97 164
62 98 167
61 97 159
61 97 163
62 98 163
62 98 166
61 96 162
62 99 165
61 98 165
62 99 167
62 98 167
61 97 160
62 98 167
60 96 161
63 99 170
63 99 172
62 98 164
62 98 167
61 98 169
61 97 164
62 98 159
61 98 167
60 96 164
61 98 167
62 99 168
62 98 164
62 98 161
61 97 156
63 99 165
61 97 168
62 97 159
62 98 163
63 99 171
62 98 167
62 99 170
61 97 161
61 98 161
62 98 161
62 98 162
62 98 165
62 99 164
62 98 164
62 98 163
62 98 159
62 98 166
62 98 163
61 98 162
62 98 168
62 99 168
62 99 165
61 96 154
62 98 165
62 98 166
62 98 160
62 98 165
62 98 162
61 97 158
61 97 159
61 98 161
61 97 159
61 97 161
62 99 166
61 97 163
62 98 162
62 99 169
61 98 163
61 97 159
62 99 167
62 98 160
62 98 166
61 98 164
62 98 157
62 98 156
62 98 166
62 98 162
62 98 158
61 97 157
61 97 158
62 98 164
61 98 164
63 99 166
62 98 163
61 97 160
63 99 167
62 98 162
62 98 159
62 97 155
61 97 159
61 97 155
62 98 161
62 98 165
62 98 163
62 98 166
62 97 153
62 98 161
62 98 162
61 97 158
62 98 159
62 98 163
62 98 159
62 99 164
62 98 162
62 98 155
62 97 153
62 98 158
62 98 158
61 97 156
61 97 159
61 97 154
62 97 155
62 98 156
61 97 155
61 97 156
62 97 156
63 99 162
63 99 157
61 96 149
61 97 158
62 97 156
62 97 158
62 98 161
61 97 156
61 96 145
61 97 153
61 96 150
61 96 145
62 97 152
60 95 144
60 95 142
60 95 144
61 96 146
61 95 144
60 95 140
61 95 145
61 96 151
60 95 143
61 95 143
61 95 139
58 91 129
59 93 133
64 93 125
75 91 94
81 90 78
95 98 33
100 98 0
100 95 0
108 103 0
108 103 0
101 97 0
103 98 0
113 109 0
88 86 11
112 107 0
94 90 0
108 104 8
104 98 0
113 107 0
111 108 8
104 101 0
106 101 0
105 103 8
110 105 8
109 107 0
112 108 0
109 104 8
115 110 0
114 110 0
120 115 0
118 114 0
120 115 0
122 116 0
118 116 0
125 122 0
127 123 0
115 112 0
128 126 0
127 123 0
130 125 0
130 124 0
120 116 0
132 128 0
137 132 0
136 132 0
128 124 0
135 131 0
135 129 0
129 125 0
141 136 0
130 127 0
132 129 0
135 131 0
139 136 0
134 130 0
140 135 0
136 131 0
141 137 0
136 131 0
147 141 0
138 132 0
147 142 0
141 136 0
141 136 0
143 138 0
149 144 0
143 137 0
138 135 0
144 141 0
143 137 0
143 140 0
144 140 0
146 141 0
143 137 0
142 136 0
142 134 0
140 136 0
143 137 0
148 144 0
149 142 0
142 137 0
145 140 0
148 143 0
147 141 0
140 135 0
143 137 0
143 138 0
146 142 0
149 144 0
143 136 0
136 131 0
139 135 0
137 131 0
144 138 0
138 132 0
132 127 0
140 136 0
141 138 0
140 139 0
138 134 0
143 142 0
148 146 0
140 143 0
141 143 0
148 152 0
150 154 0
152 159 0
149 155 0
156 165 0
156 165 0
163 172 0
152 161 0
165 176 0
167 179 0
160 173 0
160 173 0
164 179 0
165 180 0
168 184 0
168 183 0
168 185 0
164 180 0
166 183 0
167 182 0
166 181 0
166 182 0
168 184 0
168 185 0
167 183 0
169 186 0
168 185 0
167 184 0
169 186 0
167 185 0
167 185 0
167 183 0
170 189 0
168 187 0
170 190 0
168 186 0
191 211 159
190 211 149
193 213 167
194 214 169
193 213 171
194 214 177
197 216 186
196 215 177
197 216 188
194 213 177
200 218 194
197 216 191
196 216 181
198 218 193
198 217 189
200 219 199
200 219 199
199 218 198
202 221 204
201 219 204
199 218 196
203 222 212
205 223 217
207 225 227
205 223 217
200 219 194
205 223 221
202 220 207
204 223 215
203 221 212
205 224 227
204 222 217
205 223 218
200 219 209
202 221 206
205 223 223
202 221 211
206 224 220
204 222 218
201 219 209
207 225 228
204 223 217
207 224 217
205 223 221
206 224 230
208 226 227
207 224 226
205 223 218
206 224 223
205 223 218
204 223 217
205 223 223
199 218 198
206 224 224
203 221 211
205 223 221
205 223 223
200 219 203
206 225 224
201 220 203
201 220 203
202 221 206
200 218 191
200 219 201
204 222 209
204 222 212
199 218 199
201 220 207
197 216 184
198 217 193
198 217 189
199 218 194
197 215 188
193 211 181
197 215 192
189 208 185
185 205 183
158 179 170
160 179 182
148 169 183
145 166 181
129 151 178
133 155 184
122 146 176
118 142 171
106 132 164
104 130 171
95 122 170
101 129 162
81 112 162
88 118 157
85 115 156
77 109 153
76 108 159
81 112 159
70 103 159
74 106 162
68 102 154
75 106 155
64 99 157
67 101 153
72 104 162
68 101 156
61 96 162
66 101 165
62 98 162
60 96 154
65 99 151
61 96 154
66 100 155
61 96 157
61 97 157
61 97 160
60 96 157
60 96 156
60 96 159
60 96 157
61 97 159
61 97 163
60 95 158
61 97 163
61 97 161
61 97 158
61 97 163
61 97 164
61 97 163
62 98 165
61 97 167
61 97 156
61 97 162
61 97 162
61 97 162
62 98 167
61 97 164
61 98 164
62 98 162
62 97 158
61 97 160
61 97 160
62 98 165
61 97 158
62 98 168
61 98 168
62 98 164
61 97 163
61 98 164
62 98 162
62 98 163
61 98 165
62 98 162
61 97 165
62 99 170
61 98 160
61 97 163
62 98 164
61 97 154
62 98 160
61 97 161
62 98 158
61 98 165
62 98 163
62 99 169
62 98 162
62 98 161
61 97 158
62 98 163
62 98 165
62 98 162
62 98 166
62 98 159
61 97 160
62 98 162
61 97 160
62 98 161
61 97 157
62 98 163
62 98 164
62 98 164
63 99 169
62 98 162
61 97 162
61 97 159
62 98 160
62 98 161
62 98 164
62 98 159
62 98 160
61 97 158
62 99 168
61 97 154
61 97 155
62 98 162
61 97 156
62 99 166
61 97 156
61 97 153
62 98 165
62 98 164
61 97 157
61 97 160
63 99 171
61 97 157
62 98 162
63 99 162
61 97 149
62 98 163
62 98 159
62 98 160
62 98 160
62 97 156
61 97 158
61 97 158
62 99 168
62 98 158
63 99 165
61 97 157
61 98 159
62 98 161
61 97 155
62 98 158
62 98 162
62 98 165
61 97 159
61 97 159
63 98 158
62 98 156
62 98 159
62 98 163
62 98 162
62 98 163
62 98 157
61 97 157
62 98 156
63 99 160
60 95 140
61 96 150
62 98 157
61 97 150
61 97 152
61 97 156
61 97 155
61 96 146
61 97 152
60 95 143
62 97 152
63 98 159
61 96 148
60 95 145
61 96 150
61 96 144
61 97 158
60 95 150
60 95 142
61 96 152
62 97 154
60 95 146
60 94 142
61 96 146
60 94 137
60 94 145
61 96 149
59 92 130
67 95 129
81 96 106
95 97 71
91 90 31
97 95 0
90 88 0
106 101 0
106 101 0
109 105 0
111 106 0
91 85 0
98 94 0
100 94 0
104 98 0
110 105 0
109 100 0
110 103 0
106 101 0
102 97 0
105 101 0
114 110 0
112 107 11
120 113 0
116 113 8
112 109 0
120 116 0
110 106 0
111 107 0
121 118 0
122 118 0
118 115 0
120 116 0
128 123 0
124 118 0
127 123 0
126 122 0
124 119 0
119 115 0
135 130 0
128 123 0
126 122 0
130 126 0
128 126 0
133 128 0
132 128 0
131 126 0
134 128 0
132 127 0
141 135 0
134 130 0
138 133 0
139 135 0
137 132 0
145 140 0
137 134 0
135 131 0
144 140 0
139 135 0
139 135 0
142 138 0
141 137 0
145 139 0
140 134 0
145 140 0
141 137 0
142 135 0
141 136 0
139 135 0
145 140 0
147 141 0
146 140 0
144 137 0
140 135 0
141 138 0
141 138 0
145 139 0
146 139 0
143 139 0
144 138 0
142 137 0
146 141 0
143 138 0
150 143 0
146 140 0
136 128 0
145 140 0
133 126 0
140 134 0
143 138 0
141 134 0
139 133 0
147 142 0
142 137 0
137 133 0
136 130 0
145 143 0
140 138 0
143 142 0
139 141 0
150 150 0
141 140 0
146 150 0
148 149 0
148 156 0
150 158 0
148 155 0
154 164 0
154 163 0
156 165 0
160 172 0
164 178 0
160 171 0
168 183 0
166 183 0
164 178 0
165 178 0
165 179 0
172 190 0
171 186 0
162 177 0
168 185 0
169 184 0
168 184 0
168 185 0
171 188 0
162 175 0
165 181 0
169 188 0
168 182 0
170 186 0
169 186 0
168 186 0
167 185 0
169 188 0
171 190 0
169 186 0
169 187 0
169 188 0
187 208 147
191 211 167
190 210 165
197 216 181
195 214 177
199 218 189
198 216 191
198 217 189
199 219 198
196 215 188
197 216 196
202 220 201
203 222 212
199 218 194
203 222 211
201 220 214
203 222 214
199 218 193
200 219 196
201 220 204
203 222 215
202 221 212
205 223 218
201 221 207
204 223 215
201 220 206
203 222 217
205 223 218
202 221 215
205 223 218
205 223 215
205 224 220
206 224 220
208 226 227
207 225 227
208 225 226
206 224 223
207 225 226
209 227 234
207 224 218
205 224 220
206 224 224
208 226 233
207 225 221
208 226 228
204 222 218
206 225 226
207 224 227
203 221 211
205 223 221
206 223 220
206 224 218
207 225 223
204 221 214
207 225 227
207 225 226
207 224 224
203 222 215
203 221 211
205 223 214
204 222 211
204 223 212
205 223 212
201 220 203
204 222 218
204 223 212
205 223 223
202 221 204
207 224 221
202 220 203
199 218 191
196 215 177
199 218 193
197 216 187
199 217 193
187 206 197
182 201 194
164 184 190
158 178 194
153 173 187
142 164 184
133 156 185
123 146 181
125 148 165
110 135 172
114 139 176
108 133 165
95 123 161
84 114 162
92 120 167
88 117 152
82 112 161
76 108 153
72 104 157
74 106 161
73 106 155
68 102 157
73 105 161
75 106 148
70 103 161
67 101 154
65 99 152
65 100 151
68 101 157
61 96 158
65 100 158
64 100 163
65 100 154
61 97 158
61 96 149
60 96 155
63 98 156
62 97 153
61 97 159
60 95 157
61 97 165
61 97 160
61 97 158
61 97 163
61 97 161
61 97 157
61 96 158
60 96 156
62 98 164
61 97 164
60 96 157
60 96 156
61 97 166
61 97 160
59 95 157
61 98 169
62 98 165
62 98 162
60 96 160
61 97 163
60 96 157
62 98 165
59 95 156
61 97 161
62 99 166
62 98 165
61 97 161
62 98 170
62 98 165
62 98 163
62 99 169
61 98 168
61 97 164
61 97 160
61 97 160
61 97 163
61 97 165
61 98 165
62 98 166
62 98 166
62 99 169
61 97 170
60 96 153
62 99 169
62 98 163
62 98 162
60 96 153
61 98 162
63 99 169
61 97 164
62 99 168
62 99 168
62 98 157
62 98 164
62 98 164
63 99 167
62 97 158
62 98 163
61 98 158
61 97 159
62 98 163
61 97 152
61 98 163
62 98 163
62 98 161
62 98 160
62 98 164
62 98 166
62 98 164
61 97 156
62 99 164
62 98 160
62 99 163
61 97 159
62 98 160
62 98 164
62 98 154
62 98 163
62 98 160
61 97 159
62 98 165
62 98 157
61 97 160
62 98 158
61 98 161
62 97 157
62 99 164
62 98 156
62 98 162
62 99 165
62 98 158
62 98 159
62 98 166
62 98 165
62 98 161
62 98 162
62 98 157
61 97 158
61 97 161
62 98 162
62 98 161
62 97 154
61 97 155
62 98 156
62 98 160
63 99 163
62 98 162
62 98 157
61 97 152
62 98 164
61 97 155
61 97 152
62 98 158
62 98 156
62 98 158
61 96 144
62 98 160
61 96 150
62 98 164
62 98 160
62 97 155
61 97 157
61 97 159
61 97 152
61 96 149
62 98 157
61 97 157
63 99 163
62 97 156
61 96 150
62 98 152
63 98 157
61 96 147
61 96 148
61 97 149
61 97 158
61 95 150
61 95 143
62 97 153
60 95 137
60 95 141
61 96 142
62 96 145
62 96 147
60 95 143
61 95 142
58 91 130
66 94 124
85 97 97
100 105 71
106 103 31
105 104 0
103 100 3
106 103 0
101 99 0
99 95 8
91 90 0
103 99 0
98 94 0
99 94 0
95 91 0
98 94 0
109 104 0
107 101 0
119 113 0
97 95 0
113 106 0
106 101 0
104 99 0
113 109 0
114 110 0
116 111 0
105 101 0
117 112 0
122 117 0
120 116 0
117 112 0
119 114 0
122 117 0
120 116 0
120 115 0
123 118 0
126 118 0
121 118 0
122 117 0
136 131 0
126 123 0
131 128 0
133 128 0
129 126 0
138 132 0
129 126 0
134 130 0
137 134 0
131 126 0
137 132 0
132 126 0
135 129 0
138 134 0
133 128 0
139 134 0
142 135 0
137 131 0
138 134 0
136 132 0
139 136 0
143 138 0
138 132 0
138 134 0
141 136 0
141 136 0
144 140 0
140 135 0
140 134 0
145 140 0
145 139 0
141 136 0
140 136 0
142 137 0
141 135 0
140 135 0
137 131 0
143 138 0
144 139 0
140 134 0
147 140 0
150 144 0
138 132 0
147 141 0
143 136 0
141 137 0
143 137 0
142 137 0
140 133 0
141 136 0
143 136 0
140 133 0
140 136 0
134 129 0
142 138 0
141 135 0
132 128 0
143 140 0
136 133 0
145 146 0
139 138 0
143 145 0
148 151 0
148 151 0
152 156 0
145 150 0
155 163 0
154 162 0
160 170 0
160 170 0
165 177 0
161 171 0
161 173 0
162 175 0
162 176 0
166 180 0
162 176 0
164 177 0
168 184 0
169 185 0
168 183 0
165 181 0
165 181 0
167 184 0
171 190 0
168 185 0
167 184 0
167 182 0
168 183 0
167 183 0
167 185 0
168 188 0
167 184 0
167 185 0
168 188 0
168 184 0
171 189 0
167 185 0
168 186 0
168 187 0
193 213 167
199 218 188
195 215 182
196 216 186
198 217 189
192 211 173
198 218 199
196 216 186
202 221 209
199 218 194
205 224 221
198 217 191
206 224 218
206 224 218
202 221 209
203 222 214
206 224 217
205 223 217
205 223 212
205 224 220
204 223 215
205 224 223
203 221 214
206 224 221
210 227 236
205 224 220
205 224 221
203 222 218
207 225 230
205 224 223
206 224 221
206 224 223
205 224 220
205 223 221
207 225 228
208 226 230
205 223 218
209 227 233
207 225 233
206 224 221
209 227 234
211 228 237
211 228 236
206 224 221
207 226 228
204 223 215
206 224 226
207 226 233
206 224 223
208 225 228
207 225 224
209 226 230
208 225 224
207 225 227
209 226 227
205 224 220
210 227 234
203 221 218
205 223 218
201 220 199
208 225 224
209 226 226
202 221 209
204 222 214
207 225 224
200 219 198
203 221 209
202 220 203
204 222 212
201 220 199
204 222 209
202 221 203
202 221 211
196 215 192
196 215 202
188 207 199
180 199 202
169 189 195
162 182 203
151 172 196
149 170 195
143 164 190
129 152 181
126 149 187
116 141 178
104 130 161
115 138 172
97 124 161
84 114 168
96 123 171
89 119 161
92 120 160
85 115 161
83 113 161
76 108 159
74 107 163
63 98 156
80 111 156
70 103 155
69 103 158
70 103 149
71 104 157
69 103 150
61 96 160
63 97 158
63 99 159
63 98 157
66 101 150
61 97 153
61 98 161
63 98 156
61 97 157
65 99 155
60 96 160
60 96 158
63 98 160
60 96 153
61 97 159
60 96 161
61 97 160
61 97 163
62 99 170
60 95 157
61 97 162
61 97 154
61 97 161
61 97 160
60 96 159
61 97 165
62 98 161
61 97 162
62 98 169
61 97 161
61 97 164
61 97 161
62 98 166
62 98 163
61 97 154
62 98 162
61 97 162
62 98 165
62 98 167
61 98 164
62 98 162
61 97 160
61 97 159
61 98 164
61 97 160
61 97 164
61 97 160
62 98 163
62 98 161
62 99 165
61 97 159
61 97 157
61 97 163
61 97 155
62 98 163
62 98 159
61 98 167
61 98 163
62 97 157
62 98 160
61 97 160
61 97 155
62 99 168
62 98 167
62 98 162
61 97 157
61 97 155
62 98 163
61 97 159
62 98 163
61 97 163
62 99 167
61 97 158
62 98 166
62 99 170
62 98 164
63 99 165
61 98 162
61 97 155
62 98 168
61 97 156
62 98 158
62 98 164
62 98 158
61 97 157
62 98 162
62 97 160
62 98 160
62 98 160
62 98 159
62 98 162
62 98 163
63 99 165
62 98 158
61 98 165
62 98 160
62 98 161
62 98 163
63 99 171
62 98 155
63 99 167
63 99 170
61 97 154
63 99 164
62 98 163
61 97 156
61 97 153
61 97 157
62 97 158
62 97 151
61 97 159
63 99 163
62 98 163
61 97 149
60 96 149
61 97 157
62 98 156
62 98 164
61 97 151
62 98 161
61 96 150
62 98 161
62 97 158
62 98 159
61 97 154
63 99 163
61 97 155
62 98 161
61 97 153
62 98 155
61 97 153
61 96 149
61 96 148
61 97 151
60 95 142
61 97 158
62 98 157
61 97 154
61 97 151
61 96 145
62 97 150
61 97 148
62 97 150
61 97 145
60 95 141
61 96 148
61 97 153
62 97 152
60 95 138
59 93 129
61 96 147
59 93 136
60 94 141
60 95 139
61 95 143
60 94 141
61 95 145
59 93 133
60 93 136
68 94 122
89 98 85
102 105 59
112 111 36
113 110 8
104 102 0
106 102 0
108 104 0
107 101 0
105 100 0
93 89 0
105 100 0
113 107 0
111 105 0
109 105 0
97 91 0
105 99 0
111 104 0
104 100 8
106 99 0
110 107 0
111 108 0
108 102 0
116 110 0
115 111 0
116 111 0
110 105 0
111 106 0
117 112 0
119 114 0
129 122 0
129 123 0
132 126 0
129 125 0
119 113 0
127 121 0
122 118 0
125 118 0
133 128 0
127 122 0
128 124 0
123 118 0
127 122 0
131 125 0
136 130 0
127 122 0
130 125 0
129 124 0
139 133 0
133 127 0
132 127 0
135 129 0
139 134 0
135 130 0
146 139 0
143 138 0
138 133 0
137 133 0
144 137 0
140 134 0
138 135 0
142 137 0
138 132 0
143 136 0
143 139 0
141 135 0
138 132 0
141 136 0
142 136 0
143 139 0
139 136 0
143 137 0
141 134 0
135 130 0
141 135 0
140 133 0
148 142 0
141 135 0
143 137 0
145 138 0
140 134 0
139 133 0
143 135 0
140 132 0
138 134 0
140 134 0
135 128 0
128 121 0
141 134 0
142 137 0
140 135 0
136 129 0
135 133 0
142 138 0
142 140 0
139 137 0
143 142 0
137 137 0
146 148 0
150 152 0
143 143 0
152 156 0
154 161 0
152 158 0
151 160 0
153 161 0
160 171 0
155 166 0
159 168 0
163 176 0
164 177 0
160 172 0
166 182 0
162 176 0
165 180 0
167 182 0
165 179 0
164 180 0
166 182 0
162 176 0
168 184 0
164 180 0
168 184 0
166 182 0
163 178 0
165 182 0
169 185 0
163 178 0
167 185 0
170 187 0
167 183 0
168 184 0
167 184 0
167 185 0
167 185 0
167 184 0
168 187 0
166 183 0
194 213 175
197 216 191
197 216 189
201 220 203
199 218 191
198 217 188
202 221 204
199 217 194
199 218 199
203 221 207
196 216 186
205 224 220
200 219 206
205 223 218
204 222 220
202 221 218
203 222 214
201 219 204
201 220 211
200 219 209
206 224 220
208 226 233
205 223 220
208 226 234
209 227 234
204 223 223
206 225 223
204 222 215
205 223 220
206 224 223
210 228 237
208 226 228
206 224 223
207 225 227
208 225 228
206 224 226
206 224 226
210 227 228
207 225 226
208 226 234
208 226 231
209 226 230
209 226 234
210 227 236
203 222 217
207 225 228
209 226 231
207 225 224
209 227 231
210 227 234
206 223 221
209 226 233
210 227 230
211 228 238
209 226 231
208 226 231
204 222 217
206 225 224
208 226 231
209 226 228
207 225 226
206 224 221
208 226 226
208 226 228
204 223 214
203 221 209
205 222 217
205 223 212
202 220 207
204 222 214
205 223 214
206 224 217
203 221 206
204 222 209
197 215 212
179 198 194
185 204 211
174 192 215
159 179 205
158 177 209
153 173 199
153 174 192
137 159 189
135 157 183
119 143 172
125 148 185
108 133 185
97 125 165
110 135 174
102 130 166
87 117 177
79 110 165
89 118 158
89 118 165
83 113 163
69 103 159
77 109 168
83 113 160
76 108 163
78 108 156
72 104 156
72 105 157
72 104 153
71 104 160
68 102 161
59 95 150
67 101 154
62 97 157
62 98 156
63 98 154
61 98 164
61 97 158
64 99 164
63 98 158
64 99 158
63 98 156
62 98 162
60 96 158
61 97 159
60 96 159
60 95 149
61 97 160
61 97 157
62 98 162
60 97 161
61 97 160
61 97 160
61 97 158
61 97 157
61 97 165
61 97 158
61 97 153
61 97 159
61 97 160
62 98 163
61 97 159
61 97 153
62 98 163
61 98 164
62 98 164
61 97 165
61 97 157
62 98 165
60 96 155
61 97 163
62 98 165
62 98 164
62 98 168
61 97 161
62 98 167
61 97 157
61 97 164
61 97 156
62 98 162
62 98 164
62 98 159
61 97 160
62 98 164
62 98 164
62 98 161
61 97 162
61 98 163
63 99 163
61 97 160
60 97 158
62 98 161
62 98 164
61 97 162
61 97 160
61 97 156
62 98 160
62 98 164
62 98 160
62 98 159
62 98 161
61 97 158
62 98 161
62 98 159
61 97 161
63 99 166
62 98 163
62 98 159
62 99 164
62 98 159
62 98 163
61 98 167
62 98 164
62 98 165
62 98 161
62 98 162
62 97 156
61 97 152
62 98 157
62 97 154
61 98 160
62 97 154
62 98 158
60 96 149
61 97 161
61 97 154
61 96 143
62 98 164
61 98 162
62 98 160
60 96 153
62 99 169
62 97 155
61 97 157
61 97 152
62 98 160
62 98 159
62 98 160
61 97 157
61 97 164
61 97 156
62 98 157
62 97 158
61 96 152
61 97 151
61 96 151
61 97 156
61 97 155
62 97 153
62 98 156
62 97 151
62 98 156
61 96 149
62 98 159
63 99 162
62 98 157
61 96 144
63 99 165
62 98 159
60 96 153
60 96 147
61 96 144
62 98 156
61 97 150
61 97 144
62 98 155
62 97 154
62 97 159
61 97 150
62 98 161
61 97 152
61 97 154
62 97 151
62 97 157
61 96 148
61 96 146
61 96 149
62 97 152
62 97 151
60 95 144
61 95 147
60 95 143
61 96 145
59 93 134
60 94 141
60 94 143
59 92 128
60 93 138
68 91 119
90 101 96
100 102 66
100 98 28
104 103 0
111 108 0
110 107 0
99 95 0
111 109 0
103 98 0
108 102 0
103 99 0
101 95 0
94 91 0
105 98 0
100 95 8
117 111 0
109 102 0
109 103 0
107 102 0
114 108 0
120 115 0
113 106 8
115 108 0
108 103 0
118 112 0
119 114 0
119 113 0
110 106 0
124 118 0
123 117 0
132 125 0
129 123 0
130 125 0
125 118 0
122 117 0
123 119 0
121 117 0
128 124 0
125 122 0
125 119 0
127 122 0
124 119 0
130 125 0
133 128 0
123 119 0
136 131 0
132 127 0
131 127 0
137 132 0
129 126 0
135 128 0
139 134 0
135 132 0
138 133 0
141 134 0
129 124 0
138 132 0
144 139 0
142 134 0
129 124 0
143 138 0
139 133 0
136 131 0
140 134 0
140 133 0
146 140 0
142 137 0
144 138 0
141 135 0
135 129 0
139 134 0
136 129 0
138 132 0
142 137 0
144 138 0
142 136 0
137 130 0
138 132 0
137 132 0
140 134 0
137 129 0
139 134 0
135 129 0
139 134 0
139 133 0
135 129 0
139 133 0
141 135 0
137 130 0
139 133 0
139 136 0
141 139 0
138 139 0
135 131 0
140 138 0
145 147 0
143 147 0
142 146 0
142 148 0
146 150 0
140 144 0
152 160 0
152 160 0
157 164 0
149 159 0
162 174 0
156 164 0
161 173 0
166 180 0
163 175 0
163 177 0
162 177 0
165 177 0
164 178 0
160 173 0
163 179 0
167 181 0
168 183 0
167 183 0
166 182 0
166 184 0
167 184 0
166 183 0
167 184 0
167 182 0
164 181 0
170 187 0
168 185 0
169 185 0
171 187 0
167 182 0
166 184 0
168 186 0
168 186 0
166 185 0
171 191 0
166 182 0
202 220 207
196 215 181
197 216 186
198 217 189
200 219 196
202 221 212
206 223 217
203 221 207
203 221 212
204 222 209
206 224 218
205 223 215
200 219 203
207 225 221
202 221 206
204 222 217
207 225 226
204 223 215
203 221 206
206 224 223
205 223 220
208 226 226
207 225 228
205 223 215
207 225 226
208 226 230
206 224 221
208 226 234
207 225 230
210 227 234
208 225 234
209 227 234
209 227 236
209 226 231
209 227 231
210 227 234
210 227 234
210 227 236
211 228 236
210 227 231
207 225 228
209 226 231
211 228 236
208 226 231
207 225 227
209 226 230
210 227 237
211 228 238
212 230 245
208 226 230
207 225 227
207 225 223
207 225 233
209 226 226
212 229 237
209 227 236
206 224 220
206 223 223
210 228 236
209 226 231
204 222 218
205 223 220
209 226 227
206 224 226
204 222 215
208 225 227
203 222 209
208 226 233
205 223 217
204 223 212
204 222 211
201 219 203
200 219 200
204 222 220
190 209 211
189 207 222
184 201 225
165 185 203
172 191 223
171 189 218
154 174 209
145 166 203
144 165 204
135 157 191
124 147 191
120 145 191
102 128 175
120 144 186
95 123 165
101 128 178
99 127 177
86 116 172
85 115 160
91 120 168
83 113 164
83 113 163
74 107 157
78 110 163
75 107 167
64 100 168
69 103 161
69 103 160
72 104 152
68 102 154
58 93 142
62 97 159
67 101 158
61 97 159
62 97 150
61 97 159
61 97 159
61 97 156
61 97 156
60 96 161
61 97 163
61 97 162
63 98 157
61 97 160
61 97 160
61 96 158
60 96 157
62 97 160
61 97 163
61 97 165
61 97 162
63 99 171
61 97 164
60 95 151
61 97 162
61 97 160
61 97 161
61 97 164
61 97 163
61 97 158
61 97 158
60 96 155
61 97 163
62 98 163
61 98 163
61 97 156
62 98 169
62 98 159
62 98 166
62 98 167
62 98 165
62 97 157
61 97 162
60 96 150
61 97 163
61 97 159
62 98 160
61 96 150
62 98 163
61 98 166
62 98 159
62 98 158
62 98 164
62 98 164
61 96 158
62 99 165
62 98 157
62 98 164
62 98 165
61 97 162
62 98 157
61 97 156
62 98 164
62 98 162
61 97 157
62 98 163
62 98 161
62 98 162
62 98 160
62 98 163
62 98 161
62 98 163
61 97 161
62 98 167
62 98 160
62 98 160
62 99 164
60 97 154
62 98 161
61 97 158
62 98 161
61 97 162
61 97 159
60 96 157
61 97 156
62 98 166
61 96 155
62 99 167
62 99 165
62 97 157
62 98 161
62 98 165
62 98 163
61 97 158
62 99 166
61 96 150
62 98 160
63 99 160
61 97 152
62 97 156
62 98 165
61 97 156
62 98 155
61 97 154
60 96 148
61 97 157
61 97 158
62 98 162
61 97 155
62 98 161
62 97 151
61 97 152
61 96 150
62 98 159
61 96 152
62 98 163
62 98 163
63 98 157
62 98 157
61 97 152
61 97 152
61 97 157
61 97 151
61 97 159
62 98 158
62 98 155
61 96 152
62 98 160
63 98 157
62 98 153
62 98 159
61 96 151
63 99 159
63 99 159
63 98 162
62 97 160
61 96 143
62 97 158
61 96 150
62 97 153
61 96 154
61 96 150
62 97 149
61 97 150
61 97 152
61 95 143
61 95 145
61 97 145
60 95 142
60 95 145
62 97 154
61 96 139
60 94 135
61 96 147
59 92 134
60 95 139
60 94 142
64 91 120
73 94 110
91 102 94
104 110 54
109 107 0
106 105 0
109 107 0
98 94 0
115 113 0
107 102 0
101 96 0
105 99 0
99 95 0
99 95 0
95 90 0
106 98 0
100 92 0
109 101 0
106 99 0
109 104 0
102 98 0
102 97 0
108 102 0
106 101 0
117 111 0
115 111 0
118 112 0
109 103 0
110 105 0
118 112 0
119 113 0
118 113 0
121 116 0
121 115 0
116 110 0
120 114 0
120 114 0
129 122 0
122 115 0
133 128 0
130 123 0
125 117 0
137 131 0
130 122 0
136 130 0
120 116 0
132 126 0
137 130 0
138 132 0
134 130 0
127 121 0
137 131 0
130 125 0
128 122 0
138 132 0
135 128 0
133 127 0
134 130 0
140 133 0
139 133 0
132 126 0
135 131 0
138 132 0
134 129 0
140 134 0
136 132 0
137 131 0
137 132 0
133 126 0
143 136 0
141 135 0
138 133 0
139 131 0
140 132 0
139 132 0
134 128 0
139 134 0
140 134 0
138 133 0
143 138 0
130 124 0
135 129 0
135 129 0
135 130 0
137 130 0
135 128 0
139 134 0
137 131 0
141 136 0
137 132 0
132 128 0
142 140 0
138 136 0
140 138 0
141 139 0
142 140 0
148 147 0
147 149 0
138 142 0
142 145 0
149 151 0
150 153 0
153 158 0
160 167 0
152 159 0
153 161 0
160 171 0
161 171 0
166 181 0
162 174 0
161 172 0
162 176 0
164 179 0
165 180 0
165 179 0
171 186 0
167 181 0
166 182 0
164 179 0
167 181 0
162 178 0
166 182 0
161 177 0
170 185 0
167 184 0
169 186 0
165 180 0
168 184 0
168 182 0
168 184 0
168 184 0
167 182 0
166 184 0
171 187 0
166 182 0
166 183 0
165 184 0
170 189 0
167 185 0
199 218 193
198 217 184
202 220 207
202 221 207
202 220 206
198 217 196
204 223 217
200 220 203
204 222 214
206 224 221
203 221 207
203 222 214
203 222 214
201 220 207
205 223 218
206 225 227
208 226 231
204 222 209
206 224 221
207 224 227
205 223 221
211 228 238
206 224 224
210 227 236
210 227 234
207 225 228
208 226 233
210 227 236
208 226 231
209 227 237
210 228 237
210 227 233
211 228 236
209 227 230
214 231 246
207 225 228
210 227 237
209 226 230
209 227 236
205 223 220
210 227 237
212 229 241
208 225 228
206 224 221
205 223 218
209 226 233
209 226 227
210 228 240
211 228 234
210 227 238
209 226 236
207 224 220
208 226 234
208 225 227
210 227 230
206 224 218
209 227 228
210 227 236
203 222 214
210 228 234
208 226 226
210 227 233
208 226 233
207 224 228
207 225 226
209 226 228
211 228 233
207 225 223
207 225 230
205 223 221
205 222 218
207 224 218
204 222 218
199 217 208
196 214 220
197 214 226
182 200 223
156 176 206
175 194 220
164 184 217
159 178 212
145 166 199
146 166 208
140 162 201
119 142 188
126 150 193
126 149 189
110 135 183
110 135 180
108 133 174
109 134 178
96 124 176
85 115 163
83 113 167
78 110 163
87 117 161
86 116 170
81 112 168
76 108 166
79 109 157
73 106 160
72 105 159
74 106 162
70 103 152
70 103 166
65 100 153
68 102 165
61 97 157
69 103 157
67 102 160
61 96 159
65 99 158
61 96 164
61 97 163
63 99 161
61 97 162
62 98 161
63 98 158
60 96 155
62 98 152
61 97 166
60 96 162
61 96 160
61 97 160
62 98 165
61 97 168
60 96 156
61 97 163
62 97 161
62 98 164
62 98 162
61 97 155
61 97 160
62 98 170
61 97 160
61 97 166
61 97 162
61 97 159
61 97 158
62 98 165
61 97 161
63 99 169
62 98 165
61 97 152
62 98 164
62 99 165
62 98 164
62 98 164
62 98 161
62 98 158
61 97 156
62 98 165
61 97 161
62 99 166
61 97 158
62 98 161
61 98 168
61 96 152
61 98 160
61 96 153
62 98 163
62 98 167
62 98 160
62 98 160
61 98 167
61 97 155
61 97 161
62 98 159
62 98 162
62 98 157
61 97 162
61 97 158
62 98 165
62 98 160
62 97 160
63 99 166
61 97 160
61 97 152
61 96 157
62 98 157
62 98 165
60 96 155
62 97 163
63 99 171
63 99 168
62 98 162
61 98 161
62 98 162
62 98 159
62 98 165
62 98 156
61 97 159
61 97 159
62 98 163
61 96 152
62 97 154
62 98 161
62 98 164
62 98 159
61 96 153
62 98 158
61 97 156
61 97 159
61 98 163
62 97 157
62 98 156
61 97 154
61 97 156
62 98 153
62 98 158
62 97 158
62 98 163
61 97 151
62 98 154
61 97 159
62 97 152
61 97 157
62 97 157
62 97 157
63 98 160
62 97 154
61 97 157
61 97 159
61 97 154
62 98 160
61 97 149
63 99 164
61 96 148
62 98 157
61 97 155
61 97 149
62 98 161
61 97 148
62 97 156
62 98 154
61 96 149
61 96 145
60 96 151
60 96 151
61 97 153
61 96 151
61 96 145
60 95 146
62 98 154
62 97 153
61 96 145
60 95 147
61 96 149
60 95 147
60 95 140
61 96 147
61 96 148
60 94 135
61 95 150
62 96 156
59 92 128
60 95 145
60 94 136
59 92 124
59 92 127
59 93 131
60 92 133
78 99 113
85 96 97
110 111 42
113 114 0
106 105 0
108 107 0
121 116 0
106 104 0
106 104 0
103 97 0
109 105 0
110 109 0
104 100 0
105 99 0
115 111 0
105 99 0
92 90 0
103 98 0
104 97 0
109 104 0
96 93 0
114 106 0
117 113 0
105 99 0
111 106 0
116 108 0
121 113 0
101 97 0
113 109 0
126 118 0
114 109 0
121 116 0
118 111 0
122 115 0
119 113 0
120 113 0
120 114 0
127 122 0
127 121 0
121 116 0
127 123 0
130 124 0
129 123 0
129 123 0
124 120 0
119 112 0
121 117 0
122 117 0
140 133 0
131 127 0
134 128 0
135 128 0
131 126 0
132 126 0
131 127 0
132 126 0
141 135 0
139 134 0
135 130 0
143 136 0
143 137 0
139 132 0
136 129 0
135 130 0
141 135 0
139 132 0
138 133 0
142 137 0
141 133 0
141 134 0
137 131 0
137 132 0
143 136 0
139 132 0
140 132 0
137 131 0
141 134 0
132 125 0
135 128 0
141 133 0
135 127 0
134 127 0
134 126 0
134 130 0
134 128 0
140 133 0
132 127 0
135 128 0
139 134 0
150 147 0
143 143 0
138 136 0
140 135 0
140 141 0
142 144 0
138 140 0
148 150 0
141 144 0
152 156 0
146 154 0
152 159 0
155 165 0
154 162 0
150 158 0
157 164 0
158 165 0
159 172 0
160 170 0
158 169 0
165 179 0
162 176 0
165 181 0
167 181 0
165 178 0
167 181 0
165 182 0
165 181 0
167 182 0
164 181 0
168 184 0
169 185 0
162 178 0
167 184 0
167 183 0
168 184 0
168 184 0
164 181 0
168 185 0
169 187 0
168 185 0
166 183 0
170 188 0
168 183 0
167 185 0
167 182 0
170 189 0
172 191 0
170 189 0
200 220 201
202 221 203
201 220 207
206 224 221
201 220 204
205 223 221
205 224 220
203 222 209
203 221 206
205 224 220
204 223 218
203 222 215
204 222 215
205 223 218
209 226 231
208 226 227
205 224 221
207 225 226
209 226 230
208 226 238
207 226 230
207 224 224
210 227 233
210 228 241
209 227 236
209 227 234
206 223 221
211 228 234
207 225 228
211 228 237
210 227 231
204 222 217
208 225 223
208 225 227
204 222 220
207 224 223
205 223 220
210 227 231
210 228 236
207 225 230
211 228 236
208 226 230
206 224 220
206 223 218
208 225 233
210 228 238
205 223 224
207 225 227
210 227 236
207 225 228
202 220 217
210 227 234
206 224 224
203 222 215
207 224 224
210 227 237
207 224 224
206 224 223
211 228 238
209 226 233
210 227 233
211 228 231
211 228 237
209 226 230
210 227 230
209 226 231
208 225 226
208 225 226
208 225 221
209 226 230
209 226 227
205 223 224
202 220 211
204 221 232
203 220 228
186 204 227
182 200 225
181 199 228
173 192 220
164 183 214
158 177 211
148 169 206
146 167 206
132 154 202
139 160 201
130 153 199
116 140 190
123 146 186
103 130 185
100 127 185
112 137 185
100 127 175
80 111 169
86 116 181
77 109 165
68 102 169
81 112 165
82 112 169
75 107 169
76 107 158
75 107 163
72 105 168
79 110 167
70 103 160
65 99 158
60 96 161
69 102 159
66 100 162
64 99 156
60 96 160
62 97 162
61 96 155
63 98 158
62 98 157
62 97 156
61 97 153
61 97 159
63 98 157
61 97 155
59 95 150
61 96 153
60 96 154
61 97 159
61 96 158
60 96 158
61 97 165
61 97 153
61 97 166
60 95 153
61 97 161
61 97 158
61 97 163
62 98 162
61 97 159
62 98 169
61 98 166
61 97 155
61 97 163
61 98 165
61 97 166
62 98 167
61 97 163
61 97 152
62 98 160
60 97 155
61 97 162
62 98 158
61 97 159
61 97 160
62 98 164
61 97 161
62 98 164
62 98 163
62 98 162
61 97 160
62 98 164
61 97 160
62 98 161
62 98 162
61 97 156
61 98 164
62 97 156
62 98 165
62 98 161
62 98 161
62 99 166
63 99 164
62 98 161
62 98 160
62 98 162
61 97 158
62 98 168
61 97 159
62 98 165
62 97 160
62 98 164
62 98 155
62 98 165
62 98 160
62 98 163
63 99 166
62 98 162
62 97 157
61 96 145
61 98 159
62 98 162
61 97 159
61 97 160
61 97 161
62 98 163
62 98 160
63 99 165
62 98 160
62 98 158
61 97 159
62 98 154
61 97 160
63 99 162
61 97 157
62 97 154
62 98 161
62 98 162
62 98 157
61 97 160
62 98 160
63 100 168
61 97 153
61 97 156
62 98 160
60 96 150
62 98 162
61 97 156
61 97 159
61 97 158
61 97 158
62 98 163
60 96 150
61 96 145
60 96 153
61 97 154
62 97 153
62 97 153
62 98 160
62 97 154
62 97 154
61 96 147
61 97 157
62 98 158
62 97 152
62 97 150
62 97 157
61 96 143
60 96 145
60 96 148
62 97 149
61 96 145
61 96 149
62 98 157
60 95 144
62 97 154
61 96 144
60 96 145
61 96 152
61 97 150
62 97 152
61 95 148
60 96 156
61 95 142
61 96 149
62 97 148
62 97 151
61 96 140
61 96 145
60 95 142
61 96 143
60 95 140
58 93 132
59 93 136
60 94 138
59 93 140
57 90 130
64 94 128
82 100 103
97 107 84
99 106 41
106 106 0
110 110 0
112 112 0
102 99 0
115 113 0
115 113 0
106 106 0
102 96 0
105 101 0
109 103 0
93 91 0
106 101 0
102 96 0
108 103 0
103 97 0
108 103 0
117 111 0
103 98 0
101 93 0
118 111 0
111 105 0
110 104 0
113 108 0
106 99 0
118 109 0
117 112 0
116 109 0
115 111 0
108 104 0
114 107 0
126 120 0
121 115 0
117 109 0
122 116 0
125 120 0
126 122 0
126 119 0
131 126 0
133 126 0
132 126 0
126 121 0
132 127 0
131 124 0
132 126 0
133 126 0
126 120 0
127 120 0
135 129 0
125 118 0
136 131 0
134 128 0
133 128 0
133 127 0
133 129 0
132 125 0
138 132 0
134 128 0
139 131 0
131 126 0
137 131 0
132 125 0
141 134 0
134 129 0
139 132 0
136 129 0
137 131 0
137 129 0
131 124 0
136 128 0
137 131 0
139 132 0
139 132 0
137 129 0
137 130 0
131 121 0
140 134 0
133 127 0
134 129 0
137 130 0
134 125 0
138 131 0
138 132 0
137 132 0
130 128 0
135 131 0
139 139 0
141 140 0
139 136 0
138 137 0
144 145 0
147 146 0
145 148 0
144 147 0
152 155 0
147 152 0
149 154 0
156 162 0
146 153 0
153 165 0
155 162 0
153 160 0
158 168 0
163 175 0
155 165 0
163 175 0
165 178 0
163 176 0
164 177 0
164 177 0
163 174 0
167 180 0
166 180 0
162 174 0
164 179 0
165 178 0
165 177 0
164 179 0
165 181 0
167 184 0
162 176 0
166 182 0
164 179 0
167 183 0
166 179 0
167 183 0
169 186 0
168 184 0
167 185 0
168 186 0
164 178 0
165 182 0
168 185 0
167 184 0
170 187 0
170 189 0
202 221 206
204 222 214
205 224 223
202 221 209
203 222 212
204 223 215
204 222 217
203 221 207
205 223 218
206 224 221
205 224 224
205 223 220
208 226 231
208 225 230
211 228 237
205 223 220
207 225 227
206 224 220
210 227 234
208 226 230
206 224 224
210 227 228
204 222 221
208 226 231
206 224 228
208 226 231
209 227 230
209 227 233
206 224 224
208 226 227
208 225 226
209 227 234
205 223 221
208 225 223
208 226 230
205 223 220
207 225 221
203 221 211
204 222 220
209 227 234
208 226 230
203 221 215
208 225 224
204 222 212
205 223 224
207 224 226
202 220 212
208 225 226
206 224 224
203 221 215
202 221 209
204 222 214
208 225 228
206 224 220
206 223 221
208 226 224
206 225 223
205 222 217
207 224 224
207 225 224
210 227 238
207 224 226
210 226 233
208 225 220
207 225 224
206 224 223
210 228 238
209 227 231
209 226 228
207 225 221
208 225 228
207 225 229
206 224 226
197 215 217
192 211 221
179 198 211
170 189 210
177 195 226
176 195 226
150 171 206
164 183 219
157 177 211
146 167 207
149 170 208
147 168 207
132 155 201
119 143 194
114 139 194
122 145 196
118 142 188
95 123 179
106 132 184
101 128 180
92 121 174
85 116 163
86 116 170
87 116 163
75 108 170
76 109 162
79 110 173
78 110 161
64 100 167
63 98 157
71 105 158
71 104 161
67 102 164
63 99 161
65 100 166
70 102 157
66 100 156
63 98 163
70 104 153
65 100 165
61 97 163
62 97 153
61 97 155
59 95 156
62 98 152
61 97 159
63 99 163
61 96 158
60 96 158
60 95 152
59 95 160
61 96 157
61 97 159
60 96 158
60 97 160
62 97 160
62 98 161
60 96 156
60 96 153
60 95 152
61 97 154
62 98 165
62 98 164
61 97 157
62 98 165
62 98 159
62 98 158
60 96 158
61 98 164
60 96 162
61 97 156
62 98 162
61 97 165
61 97 158
62 98 161
61 97 158
61 97 157
62 97 157
62 98 163
62 98 166
61 97 156
61 97 159
61 97 159
62 98 164
62 98 161
61 98 163
61 97 163
61 97 157
62 98 157
61 97 159
63 99 171
62 98 169
61 97 161
62 98 162
61 97 157
61 97 155
61 97 163
62 98 161
62 98 162
62 98 158
61 97 153
63 99 167
61 97 158
62 98 168
62 98 160
62 98 162
62 98 155
61 97 158
62 98 161
62 97 154
60 96 150
62 97 156
62 97 156
62 98 159
61 97 151
61 96 150
61 97 156
61 97 157
62 98 160
63 99 163
61 97 158
61 97 157
63 100 168
62 97 158
61 97 160
62 98 161
61 97 163
62 97 156
61 97 160
62 98 156
62 98 162
62 98 163
61 96 152
62 98 165
60 96 154
61 97 155
62 98 154
62 98 156
62 97 155
62 98 164
61 97 148
61 97 148
62 98 160
61 96 152
61 96 148
60 96 147
61 97 148
62 98 159
62 98 159
62 98 156
61 96 149
62 97 153
60 96 149
61 96 141
61 97 153
62 98 155
61 97 154
62 98 159
61 97 148
61 96 149
62 97 145
62 98 149
62 97 155
61 96 154
60 96 142
62 98 154
60 95 148
61 96 148
61 96 142
62 97 153
61 96 150
61 97 148
61 96 147
61 97 148
60 95 140
60 95 140
61 96 151
60 95 144
60 95 146
61 96 142
62 96 147
60 95 139
61 95 146
60 94 139
59 93 137
60 93 132
59 92 132
59 92 130
69 95 123
86 97 91
98 105 69
118 120 25
114 113 0
118 118 0
115 115 0
114 111 0
117 117 0
112 108 0
107 106 0
114 110 0
108 101 0
111 107 0
111 107 0
102 99 0
101 95 0
109 104 0
106 102 0
103 97 0
104 100 0
109 101 0
117 111 0
106 98 0
111 106 0
111 105 0
124 116 0
109 103 0
116 108 0
114 108 0
111 106 0
117 110 0
119 112 0
118 110 0
106 100 0
106 101 0
122 115 0
119 114 0
125 117 0
130 123 0
121 114 0
124 118 0
125 117 0
125 116 0
127 119 0
125 120 0
124 119 0
131 126 0
125 120 0
127 121 0
131 126 0
140 133 0
140 134 0
135 128 0
134 127 0
131 124 0
140 132 0
137 131 0
133 127 0
126 118 0
130 124 0
137 130 0
138 131 0
141 132 0
140 133 0
137 131 0
130 123 0
132 126 0
140 133 0
137 129 0
135 128 0
138 131 0
132 126 0
137 129 0
128 122 0
134 127 0
139 130 0
129 123 0
129 123 0
135 130 0
137 131 0
130 123 0
134 130 0
130 125 0
138 133 0
132 127 0
136 132 0
142 137 0
138 136 0
138 134 0
137 137 0
141 139 0
136 135 0
144 145 0
143 144 0
152 155 0
147 152 0
147 153 0
148 154 0
152 159 0
150 158 0
156 167 0
155 162 0
157 166 0
157 168 0
148 159 0
165 178 0
159 170 0
158 166 0
160 170 0
165 180 0
162 174 0
162 173 0
167 180 0
164 179 0
163 176 0
165 178 0
167 179 0
162 178 0
163 177 0
163 177 0
168 184 0
165 179 0
166 182 0
166 182 0
166 182 0
170 188 0
166 181 0
170 186 0
166 182 0
168 183 0
170 189 0
167 183 0
169 188 0
169 188 0
169 187 0
167 184 0
169 186 0
170 188 0
203 221 206
203 221 207
202 221 206
204 222 215
204 223 218
206 224 221
205 223 221
203 222 215
206 224 218
207 225 227
208 226 227
206 224 221
208 225 226
209 226 230
208 225 224
207 225 230
210 227 236
209 227 230
209 227 231
210 227 237
204 223 220
209 226 228
209 226 228
210 227 230
207 225 227
205 223 227
209 226 226
206 224 217
204 223 218
206 224 228
205 223 220
201 220 204
205 224 218
203 222 214
202 220 203
207 225 227
204 222 215
197 216 193
201 221 207
198 217 196
204 222 212
203 221 206
202 221 209
202 220 203
200 219 204
203 221 214
200 218 201
202 220 209
202 221 209
205 223 217
204 222 217
200 220 201
207 225 224
203 222 214
201 220 207
200 219 201
206 223 224
203 222 215
204 222 218
203 221 214
209 227 228
204 222 215
209 226 230
200 218 203
206 224 220
202 220 212
209 226 234
205 222 221
209 226 230
210 227 236
207 225 223
208 225 227
206 223 232
204 221 237
190 208 226
183 201 226
179 197 221
172 192 220
151 172 207
175 193 225
156 176 211
147 168 213
152 173 207
138 159 198
131 154 194
130 153 198
136 158 205
125 149 195
123 146 193
123 146 193
110 135 187
84 115 171
92 120 178
87 116 171
95 123 182
87 116 176
80 111 169
79 111 169
78 110 158
71 104 164
73 106 162
69 102 159
86 116 163
71 104 161
69 103 167
66 100 157
71 104 164
68 101 156
66 101 163
69 103 169
67 101 160
65 100 156
62 97 158
60 95 150
61 97 155
67 101 158
63 98 159
60 96 153
60 96 161
60 95 157
61 96 158
62 97 151
60 95 155
60 96 151
60 96 156
61 97 161
60 95 152
59 95 154
60 96 154
61 98 163
61 97 159
61 97 156
61 97 153
61 97 162
61 97 150
62 98 169
61 97 153
61 98 164
61 97 160
61 96 156
61 96 151
61 97 163
60 96 153
61 97 158
61 97 161
62 98 161
60 96 154
61 98 163
62 98 165
62 98 157
61 97 156
61 97 156
60 96 159
61 97 159
62 99 165
60 96 155
61 97 162
62 98 159
61 97 159
61 97 158
61 97 162
63 99 168
62 98 156
62 98 158
62 98 161
62 98 163
63 98 159
61 97 162
61 97 162
61 97 150
62 98 163
61 97 155
61 97 159
62 98 156
62 98 168
61 97 158
61 97 158
62 99 164
63 99 169
61 97 156
61 97 156
62 98 156
63 99 164
61 97 152
61 97 160
61 97 156
62 98 161
62 98 161
61 96 149
62 97 153
60 96 148
62 98 160
62 98 162
61 97 155
61 97 155
60 96 149
62 98 156
61 97 160
62 98 158
61 97 153
61 97 156
62 98 157
62 98 164
61 97 158
62 98 164
62 97 153
62 98 166
61 97 153
61 96 145
62 98 156
62 97 158
62 98 161
62 98 157
61 96 146
61 96 156
62 97 153
62 98 155
62 97 156
62 97 156
61 97 153
61 97 151
62 98 156
62 98 159
62 98 161
62 98 156
61 97 151
61 96 140
62 98 155
61 96 147
62 98 158
61 97 155
62 98 156
62 98 154
62 98 157
61 97 155
61 96 145
60 96 144
62 97 156
62 98 153
61 96 147
61 97 144
61 96 143
61 97 150
61 97 148
61 96 141
61 96 148
60 95 136
62 98 155
61 96 144
62 96 147
61 96 139
60 95 143
60 95 141
59 93 138
61 96 142
59 93 123
61 94 135
58 91 122
59 93 133
59 93 132
58 91 121
69 96 120
92 106 87
103 108 50
114 118 31
111 111 0
115 116 0
90 87 0
105 106 0
105 108 0
109 106 0
104 102 0
99 97 0
112 113 0
93 90 0
98 94 0
102 97 0
101 95 0
99 94 0
106 100 0
105 97 0
108 101 0
104 99 0
100 92 0
100 95 0
101 94 0
112 106 0
110 104 0
109 102 0
104 98 0
105 99 0
109 103 0
124 116 0
122 115 0
114 108 0
108 103 0
109 101 0
118 111 0
120 114 0
122 115 0
114 106 0
119 112 0
129 122 0
120 112 0
117 112 0
119 114 0
124 118 0
121 115 0
125 120 0
124 118 0
135 127 0
129 123 0
131 124 0
127 120 0
133 126 0
129 123 0
129 123 0
138 131 0
128 121 0
121 115 0
135 126 0
132 125 0
133 127 0
138 131 0
123 116 0
142 135 0
134 126 0
132 123 0
136 129 0
136 127 0
133 126 0
135 128 0
136 129 0
123 115 0
138 128 0
131 124 0
137 129 0
132 126 0
141 133 0
125 117 0
138 133 0
127 120 0
129 124 0
138 133 0
138 133 0
138 131 0
137 133 0
135 132 0
139 136 0
135 133 0
140 139 0
146 147 0
144 144 0
145 146 0
147 149 0
144 146 0
146 147 0
146 150 0
146 152 0
156 163 0
148 153 0
157 166 0
156 165 0
158 167 0
155 165 0
160 173 0
156 167 0
164 176 0
166 178 0
162 175 0
163 173 0
161 175 0
163 175 0
167 182 0
163 177 0
162 173 0
166 182 0
167 181 0
168 184 0
168 183 0
167 181 0
165 181 0
164 176 0
169 186 0
167 183 0
165 180 0
163 177 0
168 184 0
168 184 0
167 182 0
166 182 0
165 181 0
168 186 0
167 182 0
169 184 0
163 179 0
168 186 0
168 187 0
168 185 0
172 191 0
203 222 209
199 219 198
205 223 214
204 222 214
207 225 226
205 223 221
204 222 218
200 219 207
208 226 228
206 224 221
208 226 224
209 227 233
211 228 236
211 227 228
204 221 228
210 227 233
206 224 226
210 227 233
208 226 226
206 224 223
205 223 221
207 225 227
206 224 221
207 225 224
204 222 211
205 223 221
201 219 204
204 221 218
202 220 217
203 221 214
196 216 193
203 221 212
201 219 201
203 221 211
198 218 194
198 217 199
201 221 212
193 214 193
197 216 194
200 218 207
197 217 196
196 216 193
200 218 206
198 217 188
198 218 194
199 217 194
199 218 199
197 217 201
201 220 207
197 216 201
200 219 203
198 217 194
201 220 203
197 216 188
199 218 198
199 218 201
199 218 193
204 223 218
198 217 193
204 222 212
203 222 211
202 221 207
207 224 221
202 220 204
203 221 209
202 221 203
202 220 209
206 224 218
208 225 220
207 225 220
205 223 226
206 223 223
203 221 226
199 216 228
193 210 223
180 199 223
180 199 223
167 186 215
175 194 224
166 186 217
155 175 209
148 169 203
143 165 205
137 159 199
131 154 195
139 161 207
135 158 200
114 139 188
112 137 189
122 145 198
117 141 187
114 139 188
121 145 192
98 125 183
98 125 181
87 117 172
74 107 171
70 103 170
82 113 169
70 103 165
67 102 164
79 110 165
77 109 170
76 108 165
82 112 166
65 100 163
69 103 158
60 96 155
65 101 162
68 102 158
68 102 163
63 99 162
63 99 165
65 100 157
62 98 157
62 98 159
62 97 150
61 97 159
64 99 155
61 97 164
62 98 158
65 101 161
61 97 155
59 94 150
60 96 157
60 96 156
61 97 159
60 96 159
62 98 161
62 97 162
61 97 159
60 96 149
61 97 162
60 95 151
61 96 153
60 96 159
61 97 165
61 98 161
62 98 164
61 97 161
61 97 160
60 96 162
61 97 154
61 96 153
61 97 158
60 96 162
61 97 157
62 98 164
62 98 161
61 97 160
62 98 163
62 98 162
62 98 162
60 97 161
61 97 157
60 96 150
61 97 158
61 96 151
61 97 160
62 98 168
61 97 162
61 97 157
61 98 160
61 97 155
61 97 156
62 98 162
61 97 158
62 98 161
61 97 157
62 98 161
62 98 167
62 97 159
61 97 156
62 98 161
61 96 150
62 98 161
61 98 159
62 98 157
62 98 160
62 98 167
61 98 159
62 97 156
60 96 148
61 97 155
62 98 157
62 98 160
63 99 166
62 98 163
62 98 156
61 97 159
62 98 155
61 97 159
61 98 159
62 98 159
61 97 155
62 98 161
61 97 159
62 99 164
62 98 159
62 98 160
63 99 168
61 96 153
62 97 156
62 98 163
61 97 151
62 97 154
61 97 161
61 98 161
62 98 159
61 96 152
61 97 155
61 97 158
62 98 158
60 96 151
62 98 164
62 98 160
61 96 152
63 99 160
61 97 152
62 98 158
62 97 153
62 98 155
62 98 161
62 97 151
62 98 159
62 97 156
61 97 156
61 97 151
62 97 147
61 97 152
62 97 148
62 98 156
61 96 145
61 97 147
61 97 152
62 97 151
62 98 158
61 96 148
61 97 152
61 96 149
61 97 152
62 97 154
61 95 143
62 98 150
62 97 154
61 96 147
62 97 151
61 96 147
59 93 133
62 97 151
60 94 139
60 94 130
60 94 132
61 96 149
60 95 141
60 94 133
62 97 149
60 93 135
59 93 132
58 90 122
58 90 123
83 101 98
101 113 87
104 109 57
110 113 25
111 111 0
114 115 0
110 110 0
100 99 0
100 98 0
108 107 0
114 113 0
109 107 0
108 103 0
111 110 0
107 107 0
109 102 0
109 104 0
110 104 0
100 96 0
105 101 0
106 101 0
98 93 0
112 106 0
115 108 0
106 100 0
117 107 0
105 98 0
114 109 0
108 103 0
109 102 0
109 105 0
107 102 0
106 102 0
112 104 0
117 108 0
119 110 0
120 111 0
120 113 0
123 115 0
116 110 0
110 104 0
122 114 0
118 111 0
126 120 0
119 110 0
127 120 0
124 116 0
126 119 0
131 124 0
122 115 0
124 117 0
133 126 0
130 123 0
129 121 0
138 131 0
123 114 0
133 126 0
129 122 0
134 127 0
132 124 0
129 120 0
130 125 0
135 128 0
132 125 0
133 126 0
137 129 0
129 122 0
137 130 0
122 115 0
128 119 0
133 127 0
130 122 0
134 126 0
129 121 0
139 131 0
137 130 0
132 125 0
131 125 0
140 132 0
140 135 0
131 125 0
145 140 0
136 132 0
135 129 0
131 124 0
130 125 0
132 131 0
139 137 0
140 140 0
143 144 0
138 137 0
147 150 0
143 146 0
154 159 0
151 153 0
147 152 0
147 150 0
152 157 0
155 163 0
153 163 0
155 162 0
157 164 0
163 173 0
158 167 0
162 174 0
158 170 0
163 174 0
166 180 0
166 180 0
160 173 0
160 172 0
161 174 0
164 178 0
160 173 0
163 175 0
166 181 0
165 180 0
165 180 0
163 178 0
168 181 0
166 181 0
169 185 0
163 177 0
165 179 0
165 181 0
166 181 0
167 184 0
167 184 0
166 180 0
165 181 0
165 181 0
168 186 0
170 189 0
170 188 0
168 185 0
165 183 0
167 184 0
168 187 0
171 189 0
209 226 233
205 223 218
207 225 223
207 225 224
209 226 233
209 226 228
208 225 230
205 223 218
207 225 226
208 226 228
209 226 230
207 224 230
208 226 228
208 226 230
207 225 226
204 222 217
206 225 228
209 227 234
209 226 231
207 225 220
206 224 218
203 222 214
205 223 226
204 222 217
207 225 218
204 223 215
201 219 207
201 220 206
199 218 196
199 218 206
199 218 196
196 215 199
199 219 196
197 216 194
203 221 209
200 219 199
196 215 186
195 214 184
188 209 163
196 216 188
194 213 182
191 212 169
197 217 191
199 217 188
195 214 186
196 216 186
196 216 191
196 216 182
193 213 179
202 220 203
196 216 184
196 216 188
196 215 193
201 220 201
198 217 194
200 219 206
195 215 182
198 216 188
201 220 206
199 217 194
201 220 203
202 221 206
194 214 184
200 219 196
204 222 206
203 221 211
200 219 204
202 220 207
206 223 220
205 223 220
206 223 223
204 221 228
194 212 209
181 200 212
187 205 223
184 202 223
162 181 203
163 183 209
162 182 217
165 184 217
143 164 204
155 176 214
153 174 206
141 163 199
140 162 203
132 155 203
136 159 199
127 150 195
126 150 202
115 140 186
105 131 184
108 133 183
101 128 181
108 134 185
89 118 180
84 114 175
87 116 177
71 105 166
77 109 170
85 114 171
79 110 166
73 105 160
65 100 164
67 101 163
75 107 161
70 103 165
73 105 157
63 99 163
71 103 154
67 100 161
67 101 165
63 98 158
72 105 167
65 100 163
60 96 159
65 100 163
61 96 159
60 96 156
63 98 154
62 98 159
61 95 141
61 97 159
60 96 160
62 97 156
60 96 160
60 96 155
61 97 158
61 98 163
62 98 159
60 96 154
60 95 149
61 96 151
61 97 158
61 97 160
61 97 158
61 97 160
60 96 147
61 97 161
61 96 154
61 97 154
62 97 154
60 96 151
61 97 159
62 98 163
61 97 158
61 96 158
61 98 162
61 97 164
61 97 159
60 97 155
61 96 155
62 98 165
62 98 164
61 97 156
61 97 155
61 97 159
62 98 158
62 97 162
62 97 158
62 98 157
61 97 155
61 97 156
62 98 162
61 97 157
62 97 155
63 98 159
62 98 162
61 96 155
61 97 152
61 97 162
61 97 153
62 97 156
62 98 158
61 97 150
62 98 160
63 98 164
61 97 153
62 98 161
60 96 157
61 97 154
61 96 154
62 98 159
61 97 156
61 97 157
62 97 154
61 97 157
61 97 157
61 97 155
61 97 153
61 97 155
62 98 160
61 97 154
61 97 157
61 97 153
61 97 157
62 98 162
62 97 155
61 97 156
61 97 153
63 98 160
62 97 153
62 98 156
62 98 159
61 97 152
61 97 155
61 97 158
62 98 161
62 98 160
62 98 161
61 97 152
61 97 150
62 97 154
61 97 154
62 98 162
61 97 155
61 97 152
62 98 161
61 96 148
62 97 155
62 97 145
61 96 148
61 97 151
62 97 150
60 96 151
61 97 154
62 97 154
61 96 150
61 96 147
61 97 152
62 97 158
62 97 152
63 98 154
60 95 137
61 97 152
62 98 158
61 97 152
62 98 157
62 97 153
62 97 149
61 97 150
61 97 150
60 95 139
59 94 136
61 97 148
61 96 146
60 95 145
60 94 141
60 95 141
61 96 146
61 96 148
60 95 146
61 96 148
61 96 141
61 96 147
60 94 139
60 94 143
60 95 138
60 94 139
59 92 133
59 93 134
60 90 120
79 97 105
102 114 76
116 118 36
111 115 18
117 120 0
113 116 0
112 111 0
120 122 0
113 115 0
110 112 0
105 104 0
118 114 0
107 105 0
106 106 0
103 102 0
108 106 0
97 95 0
109 105 0
111 105 0
105 98 0
102 97 0
101 97 0
106 100 0
108 103 0
114 108 0
106 100 0
107 100 0
110 105 0
100 93 0
110 101 0
117 111 0
115 109 0
112 106 0
115 107 0
109 104 0
117 109 0
114 108 0
118 111 0
124 118 0
115 108 0
120 111 0
125 115 0
116 109 0
117 109 0
124 118 0
118 109 0
119 110 0
128 120 0
122 115 0
126 118 0
130 122 0
129 123 0
127 122 0
130 122 0
120 114 0
131 124 0
129 122 0
124 117 0
126 120 0
123 115 0
126 119 0
133 126 0
128 122 0
129 121 0
128 122 0
134 127 0
125 120 0
128 120 0
127 119 0
134 126 0
137 129 0
127 119 0
128 121 0
129 121 0
123 117 0
131 123 0
131 124 0
128 121 0
134 128 0
131 125 0
136 131 0
136 132 0
132 128 0
132 129 0
138 134 0
133 131 0
134 133 0
143 142 0
135 135 0
142 144 0
142 143 0
139 144 0
149 150 0
151 155 0
153 161 0
149 153 0
149 155 0
150 159 0
157 163 0
158 166 0
157 165 0
156 163 0
156 163 0
160 171 0
164 176 0
165 178 0
161 173 0
163 174 0
162 173 0
163 177 0
164 177 0
162 173 0
163 177 0
162 176 0
163 175 0
162 175 0
167 182 0
169 183 0
164 179 0
163 176 0
162 176 0
168 184 0
165 179 0
166 180 0
162 175 0
158 172 0
164 180 0
168 185 0
170 188 0
169 185 0
168 185 0
170 187 0
164 179 0
170 186 0
169 188 0
164 183 0
168 183 0
171 191 0
168 185 0
206 224 218
207 225 226
207 225 223
203 221 212
209 226 228
211 228 237
207 225 227
207 225 227
209 226 233
205 223 228
208 226 228
209 226 224
203 222 220
203 222 217
203 221 211
208 225 227
205 223 214
200 219 211
198 217 196
203 221 214
203 221 211
200 219 204
200 219 206
202 221 203
196 216 182
199 218 199
198 218 199
197 217 191
197 216 194
196 216 193
196 215 189
194 214 189
196 215 182
194 214 182
191 211 171
194 214 182
194 213 189
196 216 188
190 211 167
190 211 169
187 209 153
190 212 169
188 209 163
197 216 184
187 207 159
191 212 169
187 208 163
194 214 179
197 216 191
192 212 173
191 211 167
187 207 153
194 214 179
192 213 169
196 215 186
195 214 184
195 215 184
195 214 186
189 210 165
192 211 181
197 217 193
198 217 193
200 219 203
195 214 191
204 222 211
201 220 201
200 219 198
204 223 214
199 217 194
201 220 208
200 218 214
195 213 205
199 216 223
182 201 211
179 198 223
184 202 221
163 183 211
159 179 212
160 180 208
168 187 216
155 175 214
148 170 207
145 166 200
151 172 205
129 152 190
134 157 197
142 164 207
121 145 194
121 145 190
110 135 185
115 140 193
109 134 193
113 138 191
100 128 188
100 127 185
84 114 173
84 114 169
78 110 176
97 124 178
81 112 177
82 113 164
74 106 167
68 103 175
70 104 174
85 114 161
67 100 152
71 104 162
65 100 156
72 104 150
63 98 165
65 100 156
66 100 151
64 99 154
66 100 157
65 99 146
64 98 154
67 101 160
60 96 156
61 97 156
65 100 161
63 98 152
61 96 157
61 97 158
60 96 157
60 96 156
60 96 155
62 98 161
61 97 160
62 98 164
61 97 163
61 96 154
61 97 160
61 97 160
60 96 155
60 95 157
60 95 149
61 97 161
61 97 158
61 97 156
60 96 154
60 96 155
61 97 161
61 97 159
62 98 162
61 97 161
60 96 151
61 97 159
62 98 164
61 97 153
61 97 162
61 98 160
61 96 153
61 97 153
62 98 158
62 98 155
61 97 157
61 97 158
62 98 158
61 97 162
61 96 155
61 97 159
61 97 161
61 98 161
61 96 160
61 96 158
61 97 156
62 98 167
62 98 160
62 98 159
61 97 154
62 98 159
61 96 150
62 98 158
60 96 155
62 97 154
61 97 150
62 98 164
62 98 166
62 98 159
62 97 150
62 98 157
62 97 152
61 97 152
61 97 159
60 96 149
62 98 156
62 98 156
62 97 156
61 97 154
61 97 157
61 97 156
61 97 154
61 97 159
61 97 154
61 98 158
61 97 155
62 98 164
62 97 155
61 97 158
61 97 150
61 97 159
61 97 156
61 96 150
61 97 154
62 98 156
61 96 152
61 96 147
62 97 153
61 97 154
61 97 155
62 98 156
62 98 158
61 96 153
61 96 145
62 97 151
62 97 157
61 97 153
61 97 156
62 98 161
63 99 163
61 97 155
62 97 149
61 96 148
62 98 158
62 98 153
61 96 144
62 98 154
61 97 156
62 98 157
62 98 158
61 96 149
61 96 149
60 96 144
61 97 152
62 97 152
60 95 141
60 95 150
61 96 152
62 97 152
61 96 144
61 97 150
60 96 142
60 95 135
62 97 156
62 97 155
60 95 142
61 96 147
61 96 149
61 96 148
60 94 140
60 95 137
60 94 142
60 95 146
61 96 139
61 96 142
61 96 136
60 93 129
59 94 132
59 93 133
60 93 131
64 92 123
91 107 96
99 110 77
117 122 34
121 126 0
111 110 0
113 114 0
115 119 0
119 121 0
113 114 0
115 115 0
107 105 0
113 110 0
106 107 0
99 98 0
109 106 0
104 99 0
109 106 0
103 98 0
97 94 0
112 109 0
99 94 0
106 99 0
103 97 0
109 102 0
102 94 0
106 102 0
111 104 0
101 95 0
104 97 0
110 104 0
107 102 0
106 99 0
103 97 0
115 108 0
115 107 0
113 106 0
115 109 0
122 112 0
115 107 0
116 109 0
120 112 0
121 113 0
119 111 0
120 112 0
115 110 0
121 113 0
113 106 0
122 113 0
117 110 0
122 115 0
127 118 0
129 119 0
127 119 0
119 113 0
119 113 0
133 125 0
130 123 0
126 118 0
129 120 0
117 106 0
128 120 0
121 113 0
117 109 0
127 120 0
132 124 0
129 121 0
125 116 0
127 119 0
127 118 0
133 128 0
134 127 0
128 123 0
129 122 0
132 123 0
136 129 0
132 124 0
135 128 0
129 122 0
137 131 0
134 131 0
142 140 0
136 133 0
138 134 0
136 137 0
141 143 0
133 132 0
139 135 0
142 141 0
142 144 0
147 151 0
145 149 0
149 155 0
144 145 0
148 150 0
150 155 0
152 159 0
148 152 0
153 161 0
158 165 0
156 163 0
161 171 0
161 173 0
162 171 0
160 171 0
164 177 0
163 174 0
158 166 0
162 173 0
162 172 0
163 174 0
162 172 0
162 176 0
161 174 0
163 173 0
161 174 0
164 179 0
166 179 0
167 181 0
163 176 0
166 183 0
165 180 0
166 178 0
161 177 0
163 178 0
166 183 0
163 177 0
166 181 0
165 181 0
164 180 0
165 182 0
168 185 0
169 187 0
166 183 0
167 184 0
166 182 0
166 184 0
166 183 0
168 185 0
168 186 0
208 225 223
207 225 223
207 225 221
209 226 230
209 227 228
207 226 228
207 225 228
210 226 228
207 224 223
208 225 228
208 226 228
206 224 218
205 223 218
204 223 215
204 222 212
201 221 209
201 220 204
201 220 199
202 220 212
200 219 204
195 215 189
200 219 209
196 215 188
197 216 186
198 217 199
198 218 199
194 213 177
194 214 181
196 215 188
192 212 177
192 212 169
191 211 165
194 214 177
194 215 191
193 213 181
193 214 182
186 208 149
193 213 177
190 211 163
190 211 159
187 208 144
189 211 167
192 212 171
188 210 149
187 208 157
193 212 171
189 210 161
188 210 155
189 210 157
188 208 157
190 211 161
187 208 155
192 213 169
189 210 159
188 209 173
194 214 181
194 214 179
187 209 149
184 206 147
194 214 175
195 216 182
192 212 167
195 215 182
190 210 179
196 216 189
194 214 177
197 216 188
191 211 173
198 217 193
198 216 200
191 210 200
192 210 204
189 208 220
185 204 220
170 189 207
162 181 200
167 186 211
161 181 212
162 182 210
156 176 207
143 165 206
151 172 205
132 155 187
138 160 202
143 165 202
139 161 194
136 158 199
126 149 194
113 138 180
117 141 192
112 137 192
107 133 182
106 133 182
95 123 178
97 125 179
94 122 184
89 119 181
88 117 177
89 118 173
78 109 166
73 105 168
74 106 168
75 107 165
67 101 160
69 104 168
72 106 161
67 101 159
74 106 166
70 103 150
66 99 156
70 103 160
63 98 153
66 100 159
63 99 163
67 101 158
60 96 152
61 97 153
65 100 155
66 100 159
60 95 153
60 96 157
60 95 152
61 97 160
61 97 156
61 97 161
62 97 155
63 98 161
61 96 153
61 97 160
62 98 163
61 97 164
61 97 151
60 96 156
61 97 161
62 97 165
61 98 164
60 96 151
60 96 154
61 97 156
61 97 153
60 96 152
63 99 166
60 95 156
62 99 167
62 97 161
60 96 156
61 97 158
62 98 162
62 98 164
60 96 156
62 98 168
61 96 159
62 98 163
62 98 165
61 97 155
61 97 161
62 98 159
61 97 156
60 95 147
61 97 155
61 97 156
61 97 157
62 98 160
62 98 163
62 98 157
61 97 159
61 97 159
61 97 148
61 97 156
61 96 155
62 98 160
62 98 158
62 98 161
61 97 155
63 99 167
62 98 159
60 96 154
61 96 148
61 97 153
62 98 162
61 97 156
62 98 158
62 98 162
63 99 162
62 98 161
62 98 156
61 97 157
62 98 159
61 97 159
62 98 156
61 96 155
61 97 150
61 97 158
62 98 163
63 99 160
60 95 148
62 99 166
61 97 156
61 97 154
62 98 159
62 98 161
61 97 153
62 98 158
61 97 155
62 98 157
61 97 149
62 98 157
61 96 152
62 97 157
60 96 153
61 96 143
60 96 152
60 95 145
63 98 155
62 98 157
63 99 161
61 97 151
62 98 154
61 97 150
62 97 157
62 98 158
61 96 147
61 97 151
62 98 162
61 96 150
61 97 154
61 96 149
63 98 163
62 97 153
61 96 149
60 96 149
62 97 152
62 97 157
61 97 149
61 96 153
60 96 154
62 98 156
61 96 149
60 96 148
62 97 146
61 96 144
62 98 152
61 96 149
60 96 145
60 95 137
61 96 143
61 96 142
60 95 143
61 96 141
60 96 142
59 94 133
61 96 143
62 97 151
59 94 131
60 95 139
60 94 137
59 93 127
60 95 140
60 94 141
58 91 127
70 96 118
84 100 87
112 119 57
127 135 36
117 119 0
121 121 0
119 119 0
109 111 0
107 109 0
119 121 0
124 125 0
110 110 0
106 103 0
108 104 0
113 108 0
109 107 0
106 103 0
106 102 0
99 99 0
103 98 0
101 95 0
117 116 0
113 109 0
94 89 0
105 102 0
109 104 0
112 106 0
109 105 0
103 97 0
111 104 0
113 105 0
115 108 0
114 107 0
102 95 0
106 99 0
110 103 0
112 104 0
122 115 0
116 108 0
116 107 0
112 105 0
103 97 0
107 100 0
111 101 0
118 112 0
119 110 0
114 109 0
120 111 0
127 118 0
120 112 0
123 115 0
130 122 0
124 116 0
125 116 0
127 121 0
115 107 0
136 128 0
115 106 0
124 117 0
127 118 0
127 121 0
131 123 0
131 123 0
129 122 0
133 125 0
127 120 0
124 116 0
130 121 0
123 114 0
131 122 0
127 121 0
131 126 0
136 131 0
137 132 0
130 124 0
134 127 0
134 128 0
128 126 0
133 130 0
135 132 0
130 123 0
133 128 0
136 135 0
132 129 0
146 147 0
136 135 0
139 137 0
140 138 0
135 136 0
137 138 0
143 142 0
150 153 0
148 153 0
141 145 0
148 151 0
152 158 0
157 164 0
154 160 0
153 156 0
157 167 0
155 164 0
159 170 0
160 169 0
163 173 0
160 169 0
162 174 0
161 173 0
164 174 0
163 175 0
163 174 0
163 176 0
165 178 0
161 174 0
162 177 0
163 176 0
166 178 0
162 174 0
164 179 0
164 178 0
165 177 0
164 178 0
166 181 0
167 180 0
164 180 0
165 181 0
162 176 0
169 185 0
168 184 0
168 185 0
168 183 0
168 185 0
165 179 0
167 184 0
169 183 0
167 185 0
168 184 0
167 184 0
168 187 0
168 186 0
167 184 0
210 227 233
206 224 221
210 227 228
208 226 227
209 226 227
208 226 230
209 226 228
207 225 227
206 224 223
205 223 218
208 226 224
204 222 218
203 222 217
205 224 226
205 223 218
199 218 194
200 218 207
198 216 196
190 211 165
193 214 173
196 215 188
199 219 198
189 210 169
199 218 194
196 215 186
196 216 186
189 210 155
188 209 153
191 211 167
190 211 163
187 208 155
191 211 167
191 211 169
190 211 165
190 210 151
186 208 144
184 205 135
186 208 151
187 209 151
186 207 147
185 207 140
182 205 133
185 207 149
191 212 161
186 207 144
189 210 144
182 204 135
186 208 153
176 199 120
187 208 147
187 207 140
184 206 153
186 207 144
180 203 133
187 208 137
189 210 153
188 210 159
186 207 149
189 210 163
190 210 161
189 210 163
191 211 169
189 210 157
193 212 177
192 211 169
193 213 181
192 212 169
191 211 165
188 208 159
192 212 188
194 213 186
185 204 195
178 198 199
185 203 220
180 199 216
158 178 199
163 183 211
158 178 206
149 170 203
152 173 203
137 159 193
143 165 198
139 161 199
131 154 190
141 162 203
122 146 194
120 144 188
117 141 194
119 144 193
119 143 195
120 144 193
112 138 188
97 124 183
93 122 183
105 132 185
96 124 181
104 130 187
104 131 190
91 120 181
83 114 175
84 115 177
88 117 174
70 104 168
70 103 171
78 110 159
68 102 162
66 100 160
72 105 168
69 102 158
64 100 169
65 100 150
63 99 164
62 98 165
61 97 160
62 97 159
65 99 159
61 97 151
62 98 155
62 97 153
61 96 151
60 96 153
60 95 154
60 96 158
61 97 160
62 97 153
59 95 151
61 97 157
60 95 150
66 100 152
62 98 162
61 96 154
63 99 170
61 97 154
61 97 162
61 96 155
61 97 159
60 96 159
61 97 152
61 96 151
60 96 155
60 96 154
62 99 165
61 97 159
61 97 157
61 96 155
61 97 155
60 96 157
59 95 155
61 96 152
61 97 159
61 97 156
60 96 152
61 97 155
60 96 151
60 96 155
61 97 162
61 97 162
63 99 163
61 97 164
61 97 156
61 97 154
62 98 163
62 98 158
62 97 155
62 98 158
61 97 156
62 98 161
62 98 160
61 97 160
61 96 150
61 97 160
62 98 159
61 97 159
62 97 161
61 96 151
61 97 154
61 97 157
61 97 156
62 98 158
62 98 159
61 97 158
63 99 162
61 96 149
61 97 153
60 96 152
61 96 150
62 99 165
61 97 157
61 97 156
60 96 148
62 97 152
62 98 159
61 96 150
61 97 153
62 97 156
62 99 165
61 97 151
61 96 150
61 97 156
61 96 149
62 98 153
62 98 160
62 97 158
61 97 152
62 97 150
63 98 158
61 97 155
61 96 151
61 97 157
62 97 155
62 97 156
61 97 154
61 97 154
60 95 143
61 97 151
61 97 152
61 97 153
62 97 151
61 96 149
61 97 150
62 97 151
61 97 153
61 96 150
61 97 142
61 97 151
62 98 156
60 96 144
62 98 157
62 98 156
61 96 152
60 96 145
61 96 152
61 97 154
61 96 150
62 98 154
60 95 142
61 97 150
62 97 152
61 96 143
61 96 148
62 98 156
62 98 155
60 95 140
60 95 136
60 96 145
62 97 152
61 97 147
61 96 152
59 93 132
62 97 143
61 96 142
60 95 136
59 94 137
60 94 142
60 94 142
61 96 142
59 93 133
59 93 129
59 92 125
61 93 128
74 100 123
85 102 101
109 119 57
116 119 18
117 120 0
124 129 0
117 119 0
119 122 0
107 110 0
118 120 0
118 116 0
105 107 0
111 110 0
116 118 0
113 116 0
97 95 0
93 93 0
107 106 0
98 94 0
102 98 0
97 94 0
107 102 0
112 107 0
110 110 0
112 108 0
108 102 0
108 102 0
108 102 0
110 100 0
110 106 0
104 99 0
112 104 0
109 105 0
108 105 0
119 113 0
108 99 0
115 107 0
112 105 0
112 106 0
115 109 0
114 106 0
116 108 0
121 114 0
116 110 0
119 108 0
113 104 0
114 107 0
119 109 0
125 115 0
117 110 0
114 105 0
122 113 0
128 120 0
126 116 0
123 114 0
124 116 0
126 118 0
124 116 0
122 115 0
124 115 0
121 114 0
119 111 0
120 109 0
123 114 0
122 112 0
129 121 0
131 124 0
114 108 0
123 116 0
131 127 0
133 127 0
131 125 0
141 138 0
131 126 0
129 125 0
129 126 0
136 129 0
134 130 0
130 128 0
138 133 0
135 132 0
134 132 0
146 146 0
134 134 0
140 140 0
135 132 0
136 136 0
143 146 0
149 153 0
150 153 0
146 151 0
149 156 0
143 146 0
149 154 0
153 160 0
154 162 0
153 157 0
157 164 0
154 164 0
158 167 0
158 168 0
163 174 0
160 172 0
162 173 0
156 164 0
160 171 0
162 173 0
155 163 0
160 172 0
165 179 0
164 176 0
160 172 0
169 182 0
166 178 0
164 180 0
165 180 0
164 179 0
164 179 0
164 179 0
161 174 0
167 179 0
166 180 0
165 181 0
162 178 0
170 187 0
163 177 0
166 183 0
168 184 0
164 176 0
165 179 0
166 181 0
170 186 0
171 188 0
167 182 0
166 185 0
168 184 0
170 186 0
166 181 0
166 185 0
166 184 0
209 227 230
207 225 221
205 223 220
208 226 226
206 223 218
207 225 228
208 225 226
207 225 221
206 224 215
203 221 214
197 216 199
203 221 211
197 217 194
198 217 198
199 219 198
197 216 184
199 218 196
196 216 189
192 212 169
192 213 173
195 215 181
194 214 177
190 210 159
192 211 165
189 210 165
193 214 177
192 212 167
190 210 163
191 212 167
188 209 155
186 207 149
181 203 114
185 207 149
187 208 140
188 210 153
185 207 142
182 204 135
185 207 130
183 204 127
184 205 137
184 205 130
186 207 135
179 202 130
185 207 135
183 205 125
185 207 133
181 204 125
182 204 127
181 203 135
183 206 127
182 204 125
182 203 133
183 204 135
186 208 149
187 207 133
183 205 122
185 206 137
183 204 122
186 208 144
186 207 142
184 205 142
186 208 142
187 208 140
187 208 161
184 205 133
185 206 142
190 210 169
192 212 173
183 204 155
185 205 167
173 194 162
174 194 199
179 199 204
154 174 191
158 179 188
158 178 198
164 183 199
150 171 193
135 157 194
142 164 201
143 165 199
143 165 204
144 165 201
146 167 202
133 155 199
140 162 203
122 146 193
119 143 188
133 156 194
129 153 195
123 147 190
114 140 194
115 140 195
94 123 181
99 126 183
100 128 188
103 130 186
86 115 173
99 127 185
82 113 175
88 117 177
68 102 166
71 105 170
73 106 166
64 99 166
64 99 163
72 105 165
75 107 161
72 105 165
62 98 159
65 100 155
64 99 160
76 108 159
63 97 150
63 98 164
62 97 158
67 101 154
62 96 147
64 98 145
63 98 158
61 97 153
62 98 162
59 95 151
61 97 161
63 97 153
60 96 156
60 96 154
59 95 146
60 95 154
60 96 153
61 96 155
61 97 165
60 95 156
60 95 146
60 95 151
60 95 145
61 97 165
62 97 165
61 96 153
62 97 158
61 97 151
62 98 168
61 97 157
61 97 151
60 96 162
62 97 155
61 98 161
62 98 164
60 97 159
60 95 149
60 96 154
62 98 155
62 97 160
61 97 160
61 96 158
62 98 160
62 98 162
61 96 151
61 97 157
62 98 163
62 97 153
62 97 159
61 97 155
61 97 156
61 96 156
61 97 155
62 98 165
61 97 160
62 98 158
62 98 158
61 96 155
61 97 153
61 97 153
62 98 159
62 98 168
62 98 162
62 98 162
62 97 158
61 97 161
61 97 149
62 98 157
62 98 161
62 98 164
61 97 158
63 99 169
61 97 155
62 97 156
61 96 151
61 97 154
62 98 159
61 96 157
61 97 155
62 97 158
61 97 151
61 96 152
62 97 155
61 97 153
61 97 154
61 97 154
62 98 157
61 96 143
61 97 154
62 98 154
61 97 150
62 97 157
61 97 151
61 97 148
61 96 158
61 97 155
62 98 154
62 97 150
62 98 154
62 98 155
61 97 152
61 97 153
60 96 150
60 96 153
61 97 155
61 97 152
61 97 148
62 98 158
60 95 147
61 96 153
62 97 150
61 96 145
62 97 153
61 96 147
62 97 152
61 96 150
60 96 143
61 96 148
61 97 150
62 97 153
62 97 152
60 95 140
61 96 145
61 97 150
60 95 143
61 96 148
62 97 152
61 97 145
62 97 156
61 96 148
61 96 144
61 97 150
61 96 142
60 94 141
60 95 140
61 96 142
60 94 139
61 96 152
61 95 142
61 96 142
59 94 138
59 93 134
59 93 138
59 93 133
58 92 127
61 95 135
62 93 127
78 99 110
104 117 84
120 127 36
118 120 0
123 128 0
116 117 0
114 115 0
116 118 0
114 115 0
109 110 0
118 121 0
109 112 0
123 123 0
108 109 0
114 116 0
110 109 0
105 102 0
100 97 0
113 109 0
111 112 0
106 105 0
98 91 0
98 95 0
100 95 0
101 99 0
107 102 0
104 99 0
104 99 0
95 90 0
95 92 0
111 103 0
107 99 0
99 94 0
112 107 0
119 112 0
104 97 0
106 98 0
114 108 0
104 97 0
108 101 0
107 99 0
113 106 0
113 104 0
114 108 0
113 107 0
110 104 0
119 109 0
118 113 0
120 114 0
122 114 0
126 120 0
121 113 0
121 113 0
117 109 0
107 100 0
120 112 0
121 113 0
122 115 0
126 121 0
123 117 0
127 119 0
117 111 0
124 117 0
125 116 0
121 113 0
132 123 0
128 122 0
121 113 0
122 114 0
120 111 0
126 119 0
122 115 0
129 123 0
123 117 0
132 127 0
132 127 0
128 122 0
126 121 0
128 124 0
137 134 0
142 140 0
139 138 0
131 131 0
131 130 0
137 137 0
142 144 0
144 148 0
148 149 0
147 148 0
143 147 0
155 161 0
153 156 0
151 157 0
148 151 0
159 168 0
156 163 0
153 161 0
151 157 0
153 156 0
157 166 0
153 160 0
166 179 0
156 166 0
160 172 0
160 170 0
163 176 0
163 176 0
165 179 0
160 171 0
160 172 0
165 178 0
162 174 0
165 180 0
163 177 0
162 174 0
166 180 0
158 170 0
165 178 0
164 178 0
167 182 0
165 178 0
167 182 0
166 182 0
164 181 0
167 183 0
167 180 0
167 183 0
169 187 0
161 176 0
168 185 0
163 175 0
166 182 0
169 187 0
164 182 0
171 189 0
169 185 0
165 182 0
165 183 0
167 185 0
169 186 0
209 226 230
211 228 236
201 220 206
211 227 233
206 224 220
208 226 227
206 224 218
200 218 198
204 222 212
199 218 198
196 216 191
196 215 186
197 217 193
198 218 194
200 219 203
196 216 194
192 212 175
195 215 184
192 213 181
196 215 184
194 213 165
193 214 177
191 211 159
191 212 163
185 207 142
188 209 151
188 209 147
183 205 122
185 206 133
184 206 137
183 205 120
183 205 127
185 207 133
184 205 133
178 201 105
181 203 122
179 202 102
181 204 114
179 201 111
184 205 140
180 202 111
180 203 114
179 202 111
175 198 76
183 205 117
181 202 120
184 205 130
178 200 114
179 201 99
176 199 92
178 201 105
180 202 92
181 204 127
181 204 130
180 202 99
185 206 135
177 200 102
176 199 92
181 203 133
181 203 122
179 201 122
182 204 140
185 206 140
184 205 135
188 208 149
180 202 122
190 211 165
189 210 161
189 210 165
176 197 154
174 194 172
164 184 175
162 183 181
156 177 196
153 173 199
159 179 201
153 174 200
146 167 194
139 160 184
136 159 185
144 165 199
133 155 198
129 153 190
145 166 198
128 151 191
121 145 184
114 139 181
134 157 202
132 155 198
112 137 185
115 140 193
100 127 181
107 133 190
100 127 176
91 120 176
99 126 181
109 135 189
94 122 183
93 121 182
95 123 180
85 115 177
77 109 176
84 114 171
71 104 166
76 108 171
68 102 166
80 112 173
70 104 164
74 107 162
77 109 165
83 113 159
72 104 162
65 99 157
64 99 151
63 98 160
60 96 162
69 102 154
66 100 147
62 97 153
61 96 155
60 95 155
65 99 150
63 98 155
64 99 160
61 95 142
60 95 151
63 97 153
61 97 155
61 96 156
62 98 156
60 95 151
61 97 162
61 96 154
60 96 154
60 96 161
59 95 148
62 98 157
62 98 162
61 97 155
60 97 155
60 95 146
62 98 158
60 96 155
61 97 155
61 97 160
61 98 159
62 98 162
61 96 153
62 98 157
60 96 150
61 97 157
61 97 159
61 96 148
61 97 155
61 96 155
62 98 163
61 97 155
61 96 152
61 96 154
62 98 159
63 99 168
60 96 148
61 96 148
61 97 161
62 97 156
63 98 159
62 97 154
61 97 154
60 95 148
62 98 161
62 98 159
62 98 159
61 97 158
62 97 154
61 98 163
63 98 159
60 96 155
60 96 151
61 97 150
62 98 162
62 98 163
61 97 157
60 95 139
60 96 154
62 97 160
62 97 158
61 97 151
62 98 157
61 96 150
61 96 152
63 98 160
61 97 154
61 97 150
62 98 163
61 98 162
61 97 153
62 98 155
62 98 154
62 99 165
61 97 158
62 97 147
61 97 152
61 97 152
62 98 157
61 97 155
61 97 155
61 97 154
60 96 145
60 95 144
61 97 156
61 97 150
61 97 153
61 97 149
61 96 148
61 96 151
61 96 148
62 97 150
61 97 156
61 97 150
61 96 151
61 96 149
61 96 139
62 98 152
63 98 151
61 97 150
61 96 147
60 95 136
61 97 149
61 96 145
61 97 149
61 96 142
62 97 156
62 97 153
61 97 149
61 97 150
60 96 145
61 96 145
59 94 136
61 97 152
62 97 145
62 97 154
62 98 159
61 96 144
60 95 140
61 97 150
60 95 143
62 97 158
60 94 133
60 94 143
61 95 140
60 94 137
60 94 136
60 95 132
60 95 141
60 95 140
60 94 143
60 94 138
60 94 125
59 92 132
60 89 118
83 104 103
101 113 71
122 128 40
113 117 0
126 132 0
125 129 0
126 131 0
115 119 0
111 116 0
120 123 0
110 114 0
125 125 0
110 109 0
104 100 0
113 113 0
113 113 0
111 113 0
100 101 0
110 106 0
100 97 0
116 115 0
109 105 0
110 107 0
93 89 0
110 105 0
95 90 0
97 89 0
112 107 0
112 105 0
112 104 0
104 98 0
110 107 0
114 109 0
108 102 0
107 98 0
108 100 0
115 108 0
103 95 0
111 108 0
120 112 0
106 96 0
108 104 0
108 103 0
107 101 0
119 115 0
113 105 0
107 99 0
115 108 0
119 112 0
122 113 0
127 121 0
119 112 0
133 124 0
117 109 0
121 114 0
125 117 0
122 115 0
120 113 0
118 110 0
126 120 0
119 114 0
126 119 0
130 123 0
136 128 0
128 121 0
124 116 0
124 114 0
126 121 0
129 124 0
133 129 0
127 122 0
125 122 0
129 123 0
131 123 0
134 129 0
134 132 0
143 141 0
132 129 0
138 136 0
137 137 0
131 131 0
145 145 0
143 143 0
141 143 0
146 147 0
137 138 0
146 146 0
141 144 0
150 152 0
148 152 0
155 160 0
148 149 0
149 153 0
145 149 0
153 162 0
157 165 0
148 152 0
152 157 0
159 170 0
158 165 0
159 167 0
161 172 0
155 165 0
164 175 0
160 172 0
161 172 0
162 174 0
163 175 0
161 174 0
165 178 0
158 167 0
160 172 0
160 173 0
164 178 0
163 177 0
162 175 0
162 176 0
165 180 0
165 180 0
163 175 0
167 183 0
166 183 0
162 176 0
167 182 0
164 179 0
167 185 0
168 186 0
169 184 0
168 184 0
166 181 0
163 180 0
165 179 0
168 186 0
168 183 0
165 182 0
170 188 0
169 188 0
172 190 0
166 184 0
167 184 0
208 226 228
204 222 214
204 222 215
202 220 203
203 222 211
205 222 218
200 218 204
199 218 193
200 219 211
200 219 198
200 219 207
195 215 189
193 214 173
191 212 165
193 213 177
188 208 153
190 210 167
190 211 161
189 210 167
192 213 167
188 209 153
188 209 147
189 210 163
185 207 140
183 205 117
184 205 140
185 206 144
186 207 137
184 205 130
184 206 125
183 206 130
182 204 117
180 202 111
174 196 84
178 201 117
178 201 102
179 201 99
182 205 111
178 200 99
180 203 99
176 199 99
178 202 120
175 198 76
175 197 84
177 199 102
182 205 125
176 199 88
173 197 72
178 200 88
177 200 105
174 197 84
175 198 76
176 199 84
174 198 99
179 202 125
177 199 84
180 203 114
179 201 117
178 201 102
181 203 117
181 203 108
182 203 117
181 203 120
180 203 114
184 206 130
183 205 127
184 206 135
180 202 134
180 201 150
175 197 140
159 182 154
163 185 155
146 169 173
144 166 186
144 167 183
141 163 187
130 153 181
147 168 188
145 167 190
134 156 190
148 169 199
131 154 178
126 150 182
128 152 194
132 155 192
123 147 189
125 150 189
109 135 179
110 136 178
111 136 190
96 124 180
108 134 188
113 138 193
95 124 180
95 124 184
91 119 178
94 122 184
102 129 182
96 124 181
96 124 188
88 117 179
81 111 174
77 108 175
74 106 171
82 113 175
70 104 173
63 99 161
78 109 168
66 101 158
71 104 166
75 108 164
74 106 160
64 98 154
71 104 158
71 103 160
66 100 155
67 101 158
65 99 155
62 97 150
63 98 159
63 98 156
61 96 157
60 95 141
60 96 153
61 96 154
60 96 150
65 100 157
60 96 156
59 94 152
64 98 147
59 94 146
62 97 161
63 98 153
60 96 153
60 96 157
59 95 144
61 97 164
60 95 148
60 96 154
60 96 155
60 96 150
61 96 155
61 96 158
61 97 165
60 96 152
61 97 158
61 98 161
61 97 157
61 97 158
60 96 155
61 97 161
62 97 155
61 97 158
61 97 151
62 98 164
61 97 158
61 96 150
61 97 155
62 98 161
62 98 157
61 97 156
60 96 155
62 98 163
62 98 157
61 97 156
61 97 155
61 96 148
60 95 149
61 97 156
61 96 154
62 97 154
61 97 161
61 97 158
60 95 145
62 98 161
60 96 147
61 96 152
60 96 153
61 97 155
61 96 149
62 98 161
62 98 161
62 97 157
60 96 147
62 98 159
61 96 150
62 98 159
62 98 160
61 96 151
60 95 145
60 96 148
61 97 153
61 97 160
60 96 151
61 96 147
62 98 158
62 97 158
61 97 152
62 97 152
61 97 153
62 98 156
61 96 149
62 97 155
61 97 149
61 97 153
61 97 153
62 97 154
61 97 153
63 99 161
62 98 158
62 98 157
62 98 157
62 98 152
61 96 148
62 97 153
62 98 154
60 96 149
61 97 148
61 97 151
61 96 144
61 97 148
61 97 150
62 97 150
61 96 147
61 97 153
61 97 147
61 96 151
61 97 149
61 97 152
61 97 156
61 96 147
61 96 150
61 95 148
61 96 147
61 97 145
62 98 161
61 96 151
61 96 144
61 96 143
62 96 147
61 96 150
61 96 148
60 95 139
61 96 143
60 95 140
61 95 143
61 96 147
60 95 141
61 96 147
60 95 140
60 95 139
60 94 134
61 96 137
60 94 142
59 94 139
60 94 141
61 94 138
60 93 129
60 93 136
65 93 120
88 102 84
100 109 68
113 119 31
118 122 0
116 122 0
120 124 0
114 118 0
104 103 0
115 119 0
117 120 0
121 123 0
107 108 0
115 114 0
109 110 0
112 114 0
113 111 0
110 112 0
117 118 0
107 104 0
107 105 0
114 110 0
102 101 0
98 96 0
107 104 0
107 104 0
106 104 0
109 104 0
104 99 0
102 98 0
105 100 0
112 107 0
116 112 0
96 90 0
98 89 0
106 96 0
110 103 0
109 103 0
121 114 0
106 99 0
116 108 0
110 103 0
106 99 0
107 100 0
104 98 0
120 115 0
107 99 0
118 113 0
117 110 0
105 96 0
116 107 0
115 108 0
125 117 0
117 109 0
123 120 0
127 122 0
117 110 0
112 105 0
118 109 0
120 115 0
119 113 0
127 121 0
130 123 0
118 111 0
123 118 0
125 121 0
124 117 0
115 108 0
116 112 0
129 123 0
128 126 0
122 116 0
130 126 0
126 122 0
134 132 0
119 112 0
127 121 0
131 128 0
138 137 0
133 129 0
126 125 0
140 139 0
136 134 0
135 137 0
145 148 0
141 142 0
141 142 0
146 148 0
146 149 0
146 149 0
147 150 0
148 154 0
145 148 0
151 159 0
157 164 0
150 156 0
158 164 0
156 162 0
155 165 0
156 162 0
155 164 0
162 171 0
157 165 0
157 165 0
160 170 0
163 174 0
164 174 0
158 168 0
158 170 0
162 172 0
164 176 0
153 163 0
160 173 0
162 173 0
162 175 0
164 177 0
164 178 0
164 178 0
165 179 0
163 175 0
165 180 0
165 181 0
163 177 0
168 183 0
166 183 0
162 177 0
163 178 0
165 181 0
165 181 0
170 187 0
167 184 0
168 184 0
164 183 0
166 182 0
169 186 0
169 186 0
170 187 0
164 183 0
167 186 0
166 182 0
165 182 0
204 222 206
206 224 217
200 219 201
205 223 214
200 219 203
201 219 203
199 218 198
196 215 186
197 216 191
193 213 179
196 215 184
192 212 181
190 210 163
193 213 182
193 212 173
188 209 147
185 206 149
185 207 140
187 208 144
184 205 127
185 207 142
184 206 133
184 205 125
185 207 135
183 205 127
178 201 108
178 201 111
181 202 114
180 202 92
179 202 114
177 201 102
175 197 84
180 202 95
176 199 80
177 200 108
178 202 102
178 201 99
179 201 102
176 199 84
175 198 102
175 198 88
176 199 88
173 197 67
173 197 92
176 199 72
172 195 67
172 195 84
177 200 84
178 200 99
178 200 99
178 201 84
175 198 88
175 198 76
173 196 76
176 199 76
176 199 80
175 197 95
173 197 92
175 199 88
177 200 84
179 201 102
179 202 105
178 202 111
183 204 122
173 194 99
180 202 120
181 203 120
183 204 145
176 197 134
171 193 144
166 188 141
155 178 165
142 164 178
144 167 190
136 159 183
146 169 184
140 162 178
144 166 172
132 155 185
132 156 188
127 151 186
133 156 192
117 141 179
122 147 177
114 140 181
116 141 181
124 148 194
123 147 191
117 142 191
107 133 177
109 134 182
106 132 181
99 127 180
97 125 182
94 123 183
97 125 184
102 129 186
102 128 187
78 110 170
95 123 182
97 125 181
88 117 173
76 108 173
82 113 178
80 111 179
72 104 162
81 112 172
68 102 171
83 112 171
77 108 165
75 107 171
72 105 161
62 97 151
72 104 160
64 99 162
69 102 158
67 101 161
63 97 151
59 95 153
61 96 148
70 103 156
64 97 149
62 97 157
61 96 156
61 95 143
63 98 158
60 96 156
59 94 147
61 97 158
60 96 158
61 97 157
59 94 144
60 96 152
60 96 157
61 96 156
61 97 159
60 95 151
61 97 159
60 96 153
61 97 158
61 97 155
61 97 159
60 96 153
60 96 156
61 97 158
62 98 166
61 97 157
62 98 156
61 97 162
61 96 154
61 97 155
61 96 158
61 97 156
61 97 155
61 96 150
62 98 156
62 98 158
61 97 159
61 96 153
60 96 148
61 97 155
61 97 157
60 96 151
61 97 152
62 97 152
61 97 155
60 96 151
61 97 156
61 96 153
62 97 155
62 98 161
61 96 153
61 97 156
61 96 154
61 97 152
62 98 160
60 96 147
61 96 147
61 97 159
62 99 167
62 98 160
62 98 156
62 97 151
62 98 160
61 96 151
61 97 151
62 98 165
62 98 158
60 96 147
62 97 154
62 97 153
62 98 156
62 98 160
62 97 153
61 97 149
61 96 149
62 97 155
61 97 157
61 96 151
61 97 153
61 97 153
62 98 154
61 97 150
61 97 149
62 98 162
62 97 156
61 97 155
61 97 155
61 97 156
61 96 147
61 97 150
61 97 155
62 97 151
61 96 145
61 97 158
61 97 159
61 97 154
60 96 145
61 97 156
62 97 154
61 96 150
61 96 140
60 96 148
62 97 151
62 97 156
62 97 149
61 97 152
61 96 150
61 97 149
61 96 148
61 96 143
61 97 142
63 98 156
61 96 149
60 96 141
62 97 149
61 96 147
61 96 150
61 96 149
62 97 155
61 96 142
60 95 148
61 96 148
61 96 142
61 95 145
60 95 139
61 96 148
60 95 138
60 95 138
60 94 135
60 94 138
60 94 137
61 96 139
60 94 130
60 94 134
60 94 139
59 92 123
58 92 117
58 89 123
81 101 116
100 115 87
114 124 51
119 126 0
124 129 0
114 120 0
119 124 0
118 122 0
124 126 0
117 123 0
121 123 0
120 124 0
108 111 0
112 110 0
105 106 0
113 113 0
104 105 0
115 116 0
106 104 0
114 114 0
116 116 0
103 99 0
120 120 0
121 121 0
99 96 0
106 100 0
105 101 0
99 97 0
100 94 0
98 94 0
108 104 0
110 108 0
112 106 0
97 92 0
105 99 0
104 100 0
109 103 0
105 101 0
108 105 0
104 97 0
114 109 0
115 109 0
117 110 0
119 113 0
104 99 0
118 113 0
104 95 0
118 112 0
111 103 0
117 108 0
120 113 0
109 103 0
112 105 0
116 110 0
117 113 0
130 123 0
123 115 0
118 112 0
123 117 0
120 114 0
124 119 0
117 111 0
119 113 0
125 118 0
123 115 0
122 113 0
125 121 0
132 125 0
131 123 0
127 121 0
131 125 0
130 127 0
129 125 0
134 134 0
134 129 0
136 135 0
133 132 0
142 139 0
139 136 0
127 124 0
134 132 0
137 139 0
138 138 0
147 150 0
140 139 0
142 143 0
148 152 0
145 150 0
151 157 0
149 154 0
152 160 0
149 155 0
150 156 0
155 163 0
155 161 0
160 170 0
157 164 0
156 165 0
160 170 0
161 170 0
158 167 0
164 173 0
157 165 0
157 166 0
161 174 0
159 169 0
166 179 0
161 173 0
163 172 0
160 169 0
158 169 0
164 178 0
163 175 0
162 174 0
165 178 0
166 180 0
167 180 0
160 170 0
167 181 0
162 176 0
166 178 0
164 178 0
163 179 0
164 179 0
164 179 0
164 180 0
167 183 0
163 178 0
169 184 0
166 183 0
166 181 0
170 186 0
164 182 0
170 187 0
164 182 0
166 183 0
165 183 0
171 190 0
167 185 0
171 189 0
167 184 0
205 224 217
199 218 194
202 221 207
200 219 194
198 218 193
197 217 188
192 213 173
192 212 173
193 213 181
193 212 175
190 210 171
190 210 165
192 212 169
192 211 165
182 204 122
188 209 149
182 204 133
180 202 147
188 209 149
181 203 120
181 203 133
181 203 108
183 205 130
179 201 105
179 201 99
181 203 105
178 200 102
177 200 88
179 201 102
174 197 80
175 197 95
177 199 105
174 197 72
177 201 95
177 199 76
178 201 72
175 199 88
175 199 92
175 199 80
171 195 88
175 198 76
175 199 76
177 200 92
178 201 88
176 200 105
175 199 80
174 198 57
173 197 88
174 197 76
173 196 80
176 199 76
172 195 62
177 199 84
172 195 51
175 198 76
175 198 76
175 199 84
177 200 92
174 197 76
176 200 67
175 198 84
175 197 80
175 198 84
177 200 80
181 202 105
178 200 95
172 195 72
174 197 84
174 197 105
161 184 131
159 182 134
148 171 144
138 161 174
127 151 170
122 146 174
129 153 174
126 150 176
124 149 181
137 160 182
122 146 168
127 151 185
116 141 174
114 139 181
118 143 185
116 141 189
108 134 174
111 137 181
124 148 189
107 133 183
97 125 177
107 134 181
99 126 176
102 128 182
91 120 177
103 130 185
100 127 179
101 128 185
96 124 181
101 127 181
100 127 184
87 116 180
86 116 174
87 116 174
79 111 176
71 105 175
66 101 172
77 109 165
65 101 171
63 98 161
71 105 173
77 109 175
61 97 160
67 101 161
74 106 165
64 99 166
64 99 159
68 102 160
64 99 166
64 99 160
58 94 148
65 99 155
61 97 162
64 99 159
60 96 154
64 98 145
61 97 154
62 97 156
64 98 150
61 97 159
59 94 153
61 96 153
60 95 152
60 95 156
61 96 151
60 95 146
61 97 154
61 96 152
61 96 150
60 95 151
61 97 160
61 96 148
60 96 154
61 96 154
61 96 152
61 97 157
60 96 151
61 97 155
60 96 150
63 99 167
62 98 161
61 98 161
60 96 145
61 97 157
60 96 157
61 96 153
62 98 166
61 96 151
61 97 151
60 96 154
61 96 153
62 98 158
62 98 158
61 97 157
62 98 161
61 96 151
61 97 159
62 99 162
60 96 148
61 96 148
61 97 154
61 97 152
61 97 151
61 97 156
61 97 162
61 97 151
62 97 154
61 97 155
61 96 150
61 97 158
62 98 161
61 97 160
61 96 152
62 98 156
61 97 156
60 96 152
61 97 155
62 97 150
61 96 155
60 96 148
62 98 160
61 97 151
61 96 142
61 97 154
62 97 155
61 97 145
61 96 148
62 97 157
63 98 159
60 96 151
62 98 159
61 97 153
61 97 154
61 97 151
61 97 145
62 98 160
61 97 154
61 95 144
61 96 153
62 97 157
62 98 152
61 96 147
61 97 151
63 98 156
62 97 156
60 96 154
61 97 151
62 98 155
61 97 153
62 97 149
61 97 153
61 95 143
62 97 155
62 98 157
62 97 155
62 97 152
61 97 149
61 96 143
61 97 144
63 98 157
62 97 154
62 97 152
60 95 144
60 95 139
63 98 162
61 97 151
61 96 137
61 96 144
61 96 147
59 94 137
60 95 140
60 95 147
60 95 138
60 95 139
59 94 137
61 96 137
59 94 133
60 95 140
61 95 140
59 93 128
61 96 145
61 95 140
60 95 131
60 94 137
60 95 135
60 93 133
61 95 145
58 90 120
58 90 123
67 96 119
82 103 101
99 113 72
113 121 40
117 123 18
127 131 0
114 120 0
115 118 0
125 131 0
130 134 0
108 110 0
127 130 0
121 125 0
110 115 0
115 119 0
113 114 0
125 126 0
108 109 0
104 104 0
109 108 0
111 112 0
105 104 0
110 109 0
116 116 0
106 102 0
101 99 0
105 103 0
108 102 0
110 110 0
107 106 0
100 100 0
117 111 0
101 97 0
106 101 0
118 117 0
106 104 0
95 92 0
110 107 0
116 112 0
116 111 0
112 108 0
106 99 0
113 110 0
111 105 0
114 110 0
111 108 0
110 107 0
119 112 0
122 116 0
117 112 0
116 110 0
117 111 0
117 111 0
121 116 0
114 108 0
118 112 0
122 116 0
115 108 0
117 110 0
115 111 0
119 114 0
118 113 0
108 101 0
114 105 0
130 126 0
126 120 0
127 126 0
128 125 0
124 120 0
128 123 0
125 117 0
125 118 0
142 139 0
132 129 0
134 133 0
135 130 0
128 126 0
143 143 0
132 130 0
133 133 0
141 143 0
132 133 0
144 146 0
132 134 0
144 145 0
146 148 0
151 153 0
148 151 0
145 149 0
143 148 0
146 150 0
154 162 0
152 156 0
150 155 0
151 158 0
149 157 0
157 163 0
157 162 0
155 164 0
155 161 0
159 170 0
158 168 0
159 166 0
163 173 0
158 169 0
163 174 0
158 169 0
163 175 0
161 172 0
159 172 0
160 170 0
164 177 0
155 165 0
165 178 0
164 176 0
161 171 0
164 178 0
164 177 0
162 174 0
159 171 0
165 180 0
164 176 0
168 182 0
162 177 0
169 187 0
166 181 0
162 174 0
166 185 0
170 185 0
167 179 0
165 179 0
164 180 0
163 178 0
165 180 0
169 186 0
163 178 0
170 186 0
169 186 0
167 184 0
167 184 0
168 185 0
169 185 0
202 220 201
195 215 196
196 216 186
200 220 201
197 217 189
192 212 173
190 210 169
188 210 161
190 210 161
188 209 153
187 208 144
187 208 157
185 206 147
183 206 133
183 204 137
182 204 122
187 207 133
180 202 125
181 203 117
180 203 108
178 201 105
174 197 80
178 200 84
178 200 92
177 200 105
177 201 95
177 200 80
175 198 80
177 200 92
177 200 76
175 198 76
173 197 62
173 196 84
175 198 76
175 197 57
173 196 80
175 199 80
175 198 76
175 199 72
173 196 62
172 196 51
172 196 67
169 193 80
173 196 67
173 197 80
175 198 57
172 195 72
172 196 84
172 195 62
171 195 51
173 198 76
171 194 44
174 198 76
173 197 76
174 198 88
172 196 76
175 198 80
176 199 95
175 198 92
175 199 57
172 195 67
177 200 62
174 198 76
175 198 72
176 198 84
175 198 80
175 198 76
173 196 74
167 190 90
164 187 113
162 185 133
137 161 134
123 147 157
118 143 164
119 143 165
118 143 170
125 149 162
118 143 164
120 144 169
125 149 187
110 136 175
121 145 178
125 148 176
112 137 172
106 132 176
97 125 171
99 127 178
110 135 178
105 132 176
94 123 174
109 136 184
106 133 179
98 127 177
106 132 187
89 118 174
100 128 175
100 127 177
92 121 178
91 120 178
97 124 181
84 115 181
87 116 176
84 114 176
76 108 172
84 114 175
87 116 174
72 105 176
68 102 169
62 98 166
72 104 164
68 102 166
64 99 163
64 99 160
69 103 154
65 100 161
64 98 164
68 101 158
64 98 147
65 100 161
60 95 151
61 96 154
62 96 142
60 95 151
63 98 151
60 95 154
62 96 151
62 96 147
61 96 159
63 98 156
60 96 150
59 95 156
62 98 155
61 96 152
64 98 154
60 96 149
60 96 156
61 97 158
61 97 160
61 96 156
61 97 159
59 95 145
61 96 158
61 97 153
62 98 159
62 98 161
60 96 154
61 97 151
62 98 159
61 96 149
60 96 149
60 95 147
61 97 155
61 97 154
61 97 155
62 97 154
62 98 157
60 96 161
62 98 159
61 96 149
62 98 162
62 98 158
61 97 161
61 96 142
63 99 160
62 98 156
61 97 153
62 97 158
61 96 150
60 96 155
61 97 153
60 96 147
61 97 153
62 98 153
62 98 159
60 95 149
62 97 153
60 95 144
59 95 145
62 97 156
61 97 152
62 97 157
61 97 150
61 96 154
60 96 149
61 96 152
61 97 150
61 97 155
63 99 163
62 98 157
62 98 159
62 97 157
60 96 149
61 96 144
60 96 148
62 97 149
61 96 152
62 98 155
61 97 154
62 97 154
62 98 160
62 98 154
62 97 154
61 97 151
61 96 149
60 95 145
60 95 148
62 98 155
62 98 154
61 97 149
62 97 153
61 97 151
61 96 149
62 98 157
61 96 149
61 96 145
61 97 147
62 97 144
61 97 152
62 97 150
61 97 147
62 97 149
61 96 150
62 98 153
61 96 151
61 96 149
61 97 148
61 96 143
62 97 149
61 96 145
62 97 151
62 97 145
61 96 151
61 96 147
62 97 153
60 95 145
61 96 149
60 96 144
60 95 141
61 96 148
60 95 136
60 95 147
61 96 147
61 96 147
61 96 145
60 94 140
60 95 141
60 94 135
61 96 144
60 94 137
59 93 131
60 94 126
60 95 135
59 93 127
60 94 137
60 93 125
60 93 132
59 93 125
59 92 133
70 98 113
87 105 80
103 113 48
113 121 45
109 114 0
123 129 0
126 130 0
118 126 0
121 125 0
120 126 0
119 121 0
124 127 0
113 116 0
125 127 0
120 122 0
113 116 0
118 123 0
106 109 0
106 107 0
105 106 0
114 115 0
101 101 0
124 126 0
123 125 0
102 101 0
103 102 0
111 109 0
102 101 0
104 104 0
109 106 0
102 100 0
109 106 0
112 108 0
114 113 0
107 105 0
108 104 0
106 102 0
117 112 0
108 105 0
113 108 0
110 104 0
115 110 0
105 100 0
112 106 0
115 112 0
115 108 0
119 113 0
112 105 0
118 113 0
118 114 0
116 112 0
124 120 0
113 109 0
117 109 0
118 111 0
120 110 0
120 114 0
118 111 0
124 120 0
125 123 0
129 129 0
135 129 0
120 117 0
128 124 0
122 115 0
130 124 0
124 116 0
125 119 0
130 126 0
127 125 0
131 127 0
135 132 0
133 130 0
129 126 0
133 130 0
131 132 0
138 136 0
137 137 0
144 143 0
140 142 0
140 139 0
142 145 0
141 145 0
142 142 0
139 140 0
142 147 0
147 152 0
150 154 0
147 151 0
155 160 0
153 160 0
156 163 0
154 162 0
158 167 0
157 163 0
156 163 0
162 173 0
154 161 0
159 170 0
159 167 0
162 172 0
155 162 0
160 173 0
157 165 0
153 163 0
160 170 0
161 171 0
163 175 0
165 178 0
158 167 0
162 174 0
164 177 0
163 173 0
164 175 0
162 175 0
163 177 0
160 173 0
165 179 0
161 175 0
162 176 0
164 178 0
161 175 0
164 178 0
165 181 0
161 173 0
163 176 0
166 183 0
168 185 0
165 180 0
164 179 0
169 187 0
162 176 0
165 182 0
166 183 0
166 181 0
166 182 0
165 180 0
168 184 0
169 185 0
168 186 0
167 184 0
168 186 0
198 217 189
193 213 175
198 218 188
196 216 188
186 207 157
193 213 171
192 212 179
189 210 161
190 210 147
183 204 127
187 209 153
184 205 140
184 206 117
180 203 127
185 206 127
182 204 120
179 201 99
180 202 108
183 204 117
178 201 92
176 199 88
175 197 76
177 200 95
173 196 80
175 200 80
179 202 95
179 202 102
176 199 84
175 198 67
173 197 80
173 196 76
173 197 62
172 196 67
173 197 88
174 198 80
174 198 80
174 198 62
174 197 76
174 198 76
172 196 51
171 195 72
173 197 84
171 195 80
172 196 62
174 198 84
174 198 92
174 198 80
175 198 80
175 199 67
175 199 84
172 196 62
175 198 72
174 197 84
172 196 84
171 195 76
172 196 44
170 193 44
173 197 80
172 195 36
175 199 92
174 197 76
175 199 72
176 199 76
172 196 67
173 197 67
175 199 72
175 198 74
174 197 100
161 185 67
164 188 100
151 175 117
135 158 133
131 155 157
106 132 156
121 145 154
106 132 163
106 132 161
123 148 177
118 142 168
116 140 173
126 150 175
119 143 174
110 136 170
109 136 168
97 124 170
118 143 184
97 125 164
106 133 182
106 132 170
91 121 168
89 118 158
99 126 179
102 129 180
96 124 174
90 119 171
96 124 177
109 135 188
84 115 174
95 123 178
87 117 181
88 118 174
90 119 179
80 112 176
77 109 175
90 120 183
76 108 171
82 113 181
86 116 175
65 100 165
64 99 165
73 107 176
76 108 170
72 104 157
66 99 159
65 99 154
73 104 149
63 97 154
63 97 157
62 97 161
69 102 151
68 102 166
66 100 157
62 96 150
58 93 146
60 95 140
60 95 156
60 96 152
61 96 153
61 96 155
60 95 148
60 95 150
60 96 150
59 93 147
59 94 141
60 96 153
60 96 153
60 95 150
60 95 149
60 96 154
60 95 156
60 96 155
60 96 149
61 96 153
61 97 155
61 98 163
59 95 143
62 98 158
60 96 157
60 96 148
61 97 154
61 96 150
61 96 150
61 96 150
60 96 150
61 97 155
62 97 155
60 95 149
61 97 156
62 97 158
60 96 153
61 97 157
62 98 159
60 95 143
62 97 154
61 96 150
61 96 155
63 99 166
61 96 144
60 96 151
61 97 156
62 98 164
62 97 158
60 95 148
62 98 155
61 97 152
62 98 159
62 97 147
61 97 157
63 99 161
62 97 153
61 96 153
61 96 149
61 97 151
60 96 148
61 97 157
62 98 161
62 98 159
61 97 155
61 97 149
61 96 145
61 97 149
62 98 162
62 98 155
61 97 153
61 97 155
62 98 150
61 97 153
62 98 155
61 97 148
61 97 156
62 98 160
62 97 153
61 96 143
61 97 153
63 99 162
61 96 149
62 97 152
61 97 150
62 97 151
61 97 149
60 96 144
61 96 148
61 96 147
61 96 147
61 96 144
61 97 154
61 97 151
61 97 152
62 98 153
61 96 147
61 97 152
61 97 149
62 97 147
60 96 150
60 95 141
60 95 147
61 96 148
62 98 153
62 97 145
61 97 150
60 95 145
61 96 141
60 96 142
61 96 142
61 97 148
60 95 152
62 97 153
60 96 145
62 97 153
61 96 145
60 95 139
60 95 137
61 96 146
61 96 142
61 95 137
60 95 136
59 93 139
60 95 143
60 94 133
61 95 135
60 93 133
60 95 136
60 94 129
60 94 134
60 94 133
60 93 134
58 91 121
59 92 128
74 96 99
96 112 82
113 123 41
109 115 0
123 126 0
125 133 0
118 122 0
112 118 0
124 130 0
124 128 0
115 120 0
112 116 0
127 130 0
120 122 0
127 133 0
126 130 0
113 115 0
114 116 0
113 118 0
117 118 0
123 124 0
111 111 0
100 99 0
103 103 0
109 110 0
112 112 0
107 103 0
96 96 0
102 101 0
107 106 0
114 110 0
109 106 0
113 110 0
121 120 0
106 104 0
114 113 0
107 103 0
111 108 0
117 114 0
115 112 0
116 111 0
113 108 0
114 109 0
118 112 0
123 120 0
116 113 0
109 105 0
112 107 0
115 109 0
109 103 0
122 118 0
118 113 0
126 122 0
109 105 0
113 108 0
125 122 0
117 112 0
124 121 0
119 111 0
117 111 0
126 124 0
124 119 0
125 121 0
133 130 0
124 120 0
130 125 0
124 122 0
125 119 0
129 125 0
133 134 0
129 126 0
133 129 0
132 131 0
136 138 0
134 134 0
137 142 0
141 144 0
143 142 0
139 139 0
140 142 0
136 138 0
143 146 0
141 142 0
150 155 0
156 161 0
148 152 0
151 153 0
156 164 0
150 152 0
152 157 0
161 169 0
147 150 0
154 162 0
155 163 0
155 163 0
155 162 0
157 166 0
160 169 0
153 161 0
156 164 0
156 162 0
157 166 0
159 170 0
158 167 0
163 174 0
161 170 0
156 167 0
160 173 0
164 175 0
160 171 0
162 173 0
162 173 0
162 174 0
162 173 0
164 178 0
164 180 0
163 177 0
164 180 0
163 179 0
165 179 0
165 178 0
165 179 0
164 180 0
163 178 0
165 182 0
161 175 0
168 182 0
166 180 0
163 180 0
160 175 0
166 180 0
166 183 0
168 181 0
168 184 0
166 185 0
170 187 0
168 185 0
166 184 0
165 181 0
165 183 0
169 187 0
169 186 0
199 218 196
197 216 184
192 212 175
190 211 161
188 209 155
184 206 135
182 203 142
186 207 149
185 206 125
182 203 125
184 205 114
178 201 120
180 203 111
182 203 105
181 203 105
182 204 117
180 202 108
181 203 95
177 200 80
174 198 76
179 202 92
175 197 57
174 197 76
174 198 88
177 200 80
175 198 67
173 196 67
176 199 92
172 196 57
175 198 72
173 196 51
173 196 67
173 197 76
175 198 62
172 197 88
173 197 76
173 196 76
174 198 67
174 197 67
173 197 76
174 198 62
174 196 62
173 197 72
172 196 62
170 193 80
175 199 72
172 195 67
172 196 88
171 195 72
174 197 80
173 197 72
170 194 72
171 195 72
172 196 62
173 197 76
172 196 51
173 197 62
171 195 62
173 196 67
175 197 80
174 199 88
172 195 57
175 199 67
170 194 62
171 195 72
173 196 57
173 195 76
174 197 88
165 188 94
151 175 82
156 180 107
140 164 117
120 145 141
107 134 150
102 129 138
114 140 164
107 134 159
110 136 161
114 140 175
102 128 155
112 138 174
102 129 168
117 142 172
95 123 159
117 143 169
110 136 165
112 138 168
117 143 179
106 133 170
91 120 174
100 127 168
89 118 170
95 124 177
105 132 175
93 122 175
93 122 178
88 117 176
86 116 172
88 118 175
78 109 175
76 108 172
84 114 169
91 120 179
71 104 167
84 114 174
81 112 175
84 115 178
80 111 173
71 104 170
70 104 169
62 98 166
67 101 164
76 108 169
78 108 162
67 101 161
70 103 163
72 104 151
63 98 156
65 99 152
66 101 168
70 104 168
67 101 153
64 99 159
64 99 161
61 97 161
62 98 151
62 97 149
61 96 153
61 97 159
60 95 143
62 97 157
61 96 154
59 94 143
61 96 147
60 96 153
62 96 148
59 95 150
60 95 151
61 96 156
60 96 151
61 96 150
60 96 151
59 94 150
61 97 155
61 96 158
62 98 154
61 97 153
60 95 151
60 95 145
61 97 154
61 97 155
61 97 157
61 96 148
61 97 159
60 95 149
60 96 150
61 96 150
61 96 150
61 97 152
61 97 160
61 96 147
61 97 154
60 96 152
61 96 147
61 96 148
61 97 151
61 97 155
62 98 157
60 96 143
61 96 155
61 96 156
62 98 157
61 96 148
60 96 149
61 96 148
61 97 153
61 97 149
60 96 143
61 97 154
61 97 153
62 98 159
61 96 148
61 97 152
61 97 157
62 98 155
61 96 152
62 97 155
60 96 148
61 97 154
60 96 147
61 97 153
61 96 154
61 97 153
61 97 152
62 97 154
61 97 153
61 97 155
61 97 148
61 97 147
61 96 151
62 98 154
61 97 151
61 97 156
62 97 152
61 96 151
61 96 149
62 97 150
62 97 150
61 96 147
60 96 144
62 97 153
61 96 148
61 96 147
61 97 152
61 97 152
61 96 145
61 97 152
61 96 147
62 97 153
60 95 144
61 97 150
61 96 142
62 97 150
62 97 152
60 95 143
60 95 135
61 96 148
61 96 147
62 97 152
60 95 142
61 97 145
60 95 139
61 96 147
60 95 137
62 97 152
61 96 151
61 96 145
59 93 129
61 96 137
61 97 141
60 95 141
60 95 142
60 95 140
59 94 140
61 96 149
60 94 141
60 95 141
59 93 129
60 95 139
59 94 126
58 92 120
60 95 139
59 94 128
60 94 138
57 91 117
58 92 121
59 91 125
69 98 128
85 107 103
95 108 60
113 120 40
122 131 0
125 131 0
118 123 0
121 128 0
113 118 0
116 121 0
117 123 0
116 120 0
113 116 0
126 130 0
121 125 0
120 124 0
113 115 0
114 118 0
113 117 0
116 118 0
114 116 0
127 130 0
105 107 0
118 118 0
117 119 0
118 121 0
112 112 0
104 105 0
107 110 0
118 119 0
114 116 0
104 103 0
116 116 0
114 111 0
115 115 0
111 108 0
112 109 0
115 111 0
111 109 0
115 112 0
113 111 0
108 105 0
113 106 0
113 108 0
110 107 0
112 106 0
116 111 0
121 119 0
112 108 0
119 113 0
116 108 0
120 116 0
132 130 0
126 122 0
126 123 0
115 114 0
120 115 0
121 115 0
117 116 0
121 118 0
137 131 0
128 125 0
127 125 0
129 128 0
129 126 0
127 127 0
134 130 0
129 125 0
124 122 0
128 127 0
130 127 0
135 132 0
142 143 0
136 138 0
132 128 0
138 135 0
138 138 0
144 142 0
138 137 0
130 131 0
147 148 0
144 145 0
145 145 0
152 158 0
145 145 0
134 136 0
145 151 0
148 151 0
149 155 0
152 157 0
154 160 0
155 164 0
157 166 0
156 164 0
147 152 0
156 164 0
155 162 0
152 158 0
158 167 0
158 166 0
160 170 0
153 164 0
155 163 0
163 173 0
158 167 0
156 167 0
164 176 0
162 176 0
167 181 0
163 174 0
163 176 0
163 173 0
160 175 0
159 171 0
165 177 0
161 172 0
161 175 0
160 174 0
159 170 0
159 173 0
164 178 0
166 181 0
160 172 0
164 180 0
164 179 0
165 180 0
165 180 0
166 183 0
162 178 0
163 179 0
168 183 0
169 185 0
166 181 0
166 182 0
169 185 0
163 178 0
168 185 0
167 182 0
167 185 0
167 183 0
168 187 0
165 183 0
164 182 0
191 212 163
188 209 153
192 212 169
188 209 167
184 206 137
186 208 135
186 207 151
185 206 142
179 202 117
182 204 114
183 205 122
184 205 125
180 202 111
179 202 102
180 203 95
181 203 111
176 199 95
175 199 80
176 200 72
176 199 92
173 197 92
173 198 67
176 200 88
170 193 44
170 194 67
173 197 76
170 194 57
171 195 72
170 194 76
174 198 76
175 199 72
175 199 67
175 198 72
175 197 67
172 196 76
175 199 57
173 197 84
175 198 80
170 193 76
175 198 72
173 196 51
175 199 80
171 195 57
173 197 72
171 195 62
168 192 67
172 196 72
174 197 72
172 196 57
174 197 67
172 195 62
170 194 67
172 196 67
172 196 51
173 196 95
170 193 51
172 197 80
174 198 88
173 196 92
173 196 76
173 197 84
173 197 76
175 198 72
174 197 72
173 197 62
171 195 67
173 197 62
169 192 78
167 191 74
156 181 92
150 174 120
140 164 118
129 154 130
108 134 147
96 124 143
106 133 162
91 119 135
115 141 151
91 120 156
110 136 160
112 137 161
107 134 161
103 129 161
104 130 163
115 141 168
103 130 165
102 129 165
108 134 161
105 131 162
97 125 163
85 115 174
105 132 170
91 120 162
85 115 168
86 116 161
95 123 166
94 122 176
85 115 174
88 118 175
83 114 180
78 110 178
72 105 161
71 104 169
64 100 165
82 113 173
72 105 167
82 113 174
76 108 165
79 111 172
68 102 171
68 102 166
68 102 169
67 101 163
73 105 161
69 102 158
67 102 171
64 99 162
70 103 161
65 99 153
66 100 157
66 99 156
71 104 154
69 103 156
67 101 150
59 95 152
60 94 148
60 95 148
61 96 148
60 95 152
66 100 155
61 97 157
59 94 145
64 99 160
61 97 156
62 98 160
59 95 150
60 95 148
61 97 153
60 95 148
59 94 143
60 96 151
61 96 155
61 97 159
59 94 148
61 97 153
61 96 150
60 96 151
60 96 151
61 97 158
62 98 157
61 97 153
60 95 150
61 96 149
61 98 162
61 97 155
60 96 151
61 97 152
60 96 149
61 96 151
60 96 147
61 97 151
62 98 162
60 96 149
62 98 160
62 97 156
62 98 154
60 96 142
61 96 147
61 96 149
60 95 142
62 98 159
61 97 156
60 96 150
62 98 157
62 98 158
61 96 147
60 95 145
60 95 148
61 97 149
61 97 153
61 97 151
61 96 156
61 96 151
61 97 154
61 96 153
62 97 157
62 97 152
61 96 145
62 97 156
62 98 156
62 98 155
62 97 153
61 97 151
61 96 150
60 96 144
61 97 154
61 97 149
61 96 150
62 97 150
61 97 155
61 97 148
61 96 143
62 98 158
63 98 155
62 98 155
61 96 149
62 97 155
61 96 141
61 97 147
60 95 148
60 95 141
62 98 156
62 97 148
61 97 150
61 97 156
61 96 147
61 97 153
61 95 136
60 96 142
61 96 142
61 96 141
60 95 140
61 96 139
61 96 148
61 96 144
60 95 139
60 95 135
60 95 137
61 96 148
61 96 150
61 96 136
61 96 142
62 97 147
61 95 141
61 95 143
61 97 144
60 95 140
59 93 133
60 95 143
60 94 141
60 94 134
61 96 143
61 96 145
60 94 136
60 95 130
60 95 134
60 94 137
61 95 140
61 95 136
60 95 136
59 93 134
59 93 124
60 94 127
60 94 138
58 92 126
60 94 134
61 94 125
66 96 113
88 104 82
102 114 65
125 135 31
111 118 0
120 127 0
118 127 0
119 127 0
115 118 0
110 115 0
118 121 0
111 113 0
118 124 0
122 126 0
109 115 0
114 117 0
113 116 0
121 123 0
122 124 0
114 116 0
113 113 0
114 117 0
121 124 0
114 114 0
121 124 0
104 106 0
120 122 0
114 115 0
125 125 0
121 123 0
109 112 0
109 105 0
103 100 0
119 119 0
101 99 0
122 122 0
111 108 0
98 94 0
113 111 0
111 107 0
115 114 0
116 117 0
111 109 0
111 107 0
112 109 0
111 109 0
119 117 0
114 106 0
122 119 0
122 120 0
116 114 0
114 113 0
118 114 0
114 112 0
117 113 0
120 114 0
119 118 0
118 112 0
117 116 0
117 114 0
122 117 0
121 116 0
128 127 0
125 122 0
132 130 0
122 118 0
124 123 0
121 117 0
126 123 0
134 133 0
125 122 0
131 129 0
138 139 0
130 130 0
132 130 0
140 145 0
137 137 0
135 137 0
140 141 0
148 153 0
155 161 0
144 146 0
146 151 0
146 150 0
142 145 0
150 154 0
151 157 0
142 143 0
153 156 0
153 160 0
145 152 0
155 162 0
157 165 0
147 151 0
154 161 0
155 164 0
155 161 0
159 170 0
158 165 0
158 168 0
155 162 0
156 165 0
156 166 0
164 177 0
162 175 0
161 173 0
159 168 0
159 172 0
158 171 0
158 169 0
158 168 0
158 169 0
162 172 0
161 172 0
162 174 0
169 181 0
165 181 0
165 178 0
162 177 0
163 178 0
160 173 0
163 177 0
164 180 0
162 177 0
161 176 0
165 181 0
163 178 0
164 180 0
165 179 0
162 178 0
167 183 0
165 181 0
166 181 0
167 183 0
167 183 0
166 184 0
167 185 0
166 183 0
166 185 0
169 187 0
167 182 0
166 184 0
168 186 0
189 209 157
188 209 157
183 205 133
185 207 142
186 208 140
184 206 135
182 205 117
182 204 135
182 203 114
179 202 102
180 203 120
177 200 95
177 200 92
176 199 99
174 197 88
175 198 62
175 199 88
173 198 76
172 195 80
172 196 80
173 196 62
173 196 76
174 197 72
170 194 57
174 198 84
173 197 67
173 197 84
170 194 51
173 198 99
175 198 36
176 199 102
175 198 80
173 197 88
173 197 80
172 197 67
172 196 67
174 198 62
171 195 62
172 194 57
176 199 88
172 196 72
171 195 67
172 196 57
172 195 67
171 195 67
171 195 57
171 195 72
173 197 80
170 193 36
174 197 84
172 196 76
173 197 84
169 193 62
171 196 57
171 194 67
173 197 72
173 197 84
172 195 62
173 197 76
172 195 80
173 196 62
173 197 88
170 193 76
172 195 44
173 196 67
167 191 57
167 191 62
171 194 72
165 188 80
158 182 103
152 177 102
142 167 122
132 157 139
105 132 147
104 132 159
97 125 143
98 126 145
94 122 152
85 114 158
98 126 160
98 125 154
105 131 149
114 140 169
111 138 174
113 139 159
104 130 157
97 125 171
95 123 164
98 126 156
105 131 163
104 131 168
109 135 178
91 120 171
80 111 168
101 129 176
76 108 168
74 107 163
101 128 172
85 115 175
91 120 174
80 112 164
87 117 182
78 110 175
77 109 172
81 111 168
90 119 179
77 108 166
84 114 178
79 110 175
75 107 166
65 100 165
78 109 166
73 106 175
70 103 166
67 102 167
68 102 163
67 100 153
63 98 159
63 99 164
73 105 156
65 99 159
64 98 147
61 97 157
61 96 154
65 100 153
63 98 156
59 95 149
61 96 151
60 95 150
61 97 157
61 97 156
59 95 151
61 96 157
60 96 155
61 97 157
62 98 157
60 95 153
60 95 139
61 96 150
60 95 147
61 96 148
58 93 142
61 96 153
60 96 155
61 97 156
59 95 147
60 94 144
61 97 158
61 97 159
61 97 155
61 96 152
61 97 157
60 96 153
61 97 150
61 96 154
60 95 153
61 96 150
61 96 152
62 98 158
60 96 151
61 96 154
61 96 148
60 95 151
61 96 145
60 96 151
61 97 151
60 96 150
61 97 161
61 96 147
61 97 154
61 97 154
61 97 151
61 96 152
60 96 151
61 96 148
61 97 150
60 95 140
61 97 151
60 96 150
60 95 141
60 96 148
61 96 148
62 97 155
61 96 154
61 96 152
61 96 152
61 97 157
61 97 152
61 97 149
61 96 148
61 97 154
62 98 156
61 97 158
61 96 142
61 97 151
62 98 162
62 98 161
62 97 151
61 97 153
61 97 153
61 97 149
60 96 148
60 96 149
63 99 164
61 97 155
62 98 154
60 96 145
62 97 156
63 99 158
60 96 142
62 98 155
61 97 154
62 97 148
61 97 144
60 95 142
61 96 148
61 97 149
61 96 147
61 97 152
61 97 148
61 96 141
60 95 141
61 97 147
62 97 148
62 98 157
60 96 145
62 97 145
61 96 147
61 97 150
60 96 144
60 95 143
60 95 144
60 95 143
61 95 147
61 97 145
60 94 136
61 95 143
60 94 136
62 97 145
60 95 145
61 96 143
61 96 148
60 95 139
59 94 136
60 95 145
59 93 132
59 93 131
60 94 132
60 94 135
61 95 137
59 93 128
59 94 130
60 94 134
59 92 126
58 90 123
59 93 126
65 96 124
74 98 115
99 116 88
122 133 40
120 127 25
115 121 0
126 133 0
135 142 0
116 122 0
118 125 0
122 128 0
122 128 0
120 125 0
120 127 0
120 126 0
111 118 0
113 117 0
120 126 0
114 115 0
109 114 0
119 124 0
119 120 0
115 120 0
120 124 0
120 124 0
117 119 0
120 121 0
113 116 0
114 118 0
118 121 0
107 108 0
124 125 0
111 112 0
113 114 0
118 117 0
118 120 0
122 124 0
113 108 0
113 110 0
118 116 0
113 110 0
114 112 0
123 120 0
118 115 0
104 104 0
111 108 0
120 116 0
125 123 0
116 114 0
113 110 0
122 118 0
119 114 0
110 108 0
117 115 0
125 124 0
120 117 0
123 122 0
123 119 0
115 114 0
131 130 0
129 130 0
134 132 0
123 120 0
117 114 0
134 132 0
128 126 0
128 127 0
129 125 0
130 128 0
143 145 0
138 137 0
142 144 0
137 137 0
138 136 0
134 133 0
139 140 0
130 130 0
143 145 0
145 147 0
139 140 0
140 141 0
145 150 0
145 148 0
144 150 0
149 152 0
150 157 0
146 147 0
148 155 0
155 161 0
157 163 0
145 148 0
150 155 0
157 165 0
156 161 0
159 167 0
158 166 0
154 165 0
158 168 0
158 167 0
153 163 0
155 163 0
160 170 0
155 165 0
158 170 0
157 165 0
159 169 0
163 175 0
160 172 0
159 169 0
164 176 0
158 169 0
159 169 0
160 173 0
164 176 0
163 176 0
163 176 0
161 172 0
161 174 0
161 175 0
168 181 0
162 175 0
166 181 0
166 182 0
163 176 0
163 177 0
168 185 0
165 181 0
167 182 0
165 182 0
169 187 0
169 185 0
166 182 0
164 179 0
167 182 0
170 188 0
167 186 0
167 184 0
168 184 0
166 181 0
167 183 0
166 182 0
165 182 0
167 184 0
167 184 0
187 208 142
186 207 144
184 205 140
186 207 135
182 205 133
180 201 102
179 203 122
179 202 105
179 202 99
175 198 80
173 197 80
174 198 95
178 200 88
173 196 57
175 199 95
173 197 57
176 200 84
173 197 67
172 195 67
173 197 57
174 198 72
172 197 72
174 198 67
173 197 80
173 197 67
173 196 72
175 198 72
171 194 76
173 197 76
174 197 62
173 197 67
172 196 67
174 198 72
171 195 80
171 194 44
174 198 72
174 198 76
174 198 84
172 196 72
175 197 80
173 195 62
172 196 80
172 195 72
172 196 62
172 196 67
175 198 88
169 192 67
171 195 76
171 195 76
176 199 72
173 197 95
174 198 57
169 192 62
171 196 102
172 195 51
173 195 95
167 191 51
171 194 62
173 197 72
175 198 84
173 196 67
174 197 67
174 197 67
171 195 67
167 191 44
171 195 72
170 193 57
170 193 67
167 191 60
167 190 76
156 180 108
139 164 114
130 155 127
113 140 139
93 121 150
91 119 148
95 123 150
94 123 153
104 132 155
86 116 155
108 134 159
103 129 139
101 128 150
106 133 156
96 125 170
106 133 153
96 124 162
103 131 158
99 127 163
91 120 166
110 136 156
101 128 163
94 123 169
83 113 167
77 109 164
83 114 167
91 120 171
92 121 170
86 116 174
72 105 170
92 121 175
85 116 173
80 111 171
67 102 169
84 115 175
76 108 175
89 117 174
76 108 165
70 104 168
70 103 165
74 107 170
76 108 167
70 104 168
74 107 173
70 103 163
77 108 167
76 107 165
64 99 162
67 101 159
67 100 154
69 101 159
62 97 159
67 101 162
70 103 156
61 96 154
61 95 152
61 96 152
62 96 142
62 96 149
59 94 146
60 95 147
64 98 154
60 96 149
61 95 143
60 96 157
60 95 139
60 95 151
61 96 150
59 94 151
60 96 147
58 93 144
59 94 139
60 96 149
61 97 151
60 96 149
60 95 148
61 97 157
59 95 146
60 95 150
61 96 146
60 95 142
61 96 150
59 94 137
60 96 144
61 97 156
59 94 140
62 98 158
62 98 154
61 97 156
61 96 153
61 96 153
61 97 152
61 97 150
61 97 147
62 98 159
60 96 149
61 96 149
62 98 160
62 98 159
61 96 147
61 97 150
60 96 148
62 97 150
62 97 154
60 95 143
60 96 141
61 97 159
62 97 157
61 96 149
61 96 149
62 97 152
62 98 157
60 95 142
61 96 151
61 97 157
61 96 151
61 97 151
61 96 147
62 97 150
61 97 153
62 97 153
61 97 148
61 97 151
61 97 149
61 97 152
62 98 158
62 97 154
61 97 157
61 96 148
61 96 149
61 96 144
61 97 147
60 94 142
60 96 155
60 95 148
60 95 144
61 96 144
60 95 135
61 96 147
61 96 142
59 95 135
61 96 149
61 96 147
60 95 140
61 96 141
62 98 158
60 95 144
61 96 144
60 95 143
61 97 150
62 97 150
60 95 131
61 96 140
60 95 141
61 96 144
62 97 147
61 96 150
61 96 143
60 95 135
61 96 148
60 95 139
61 97 151
61 96 147
61 95 135
61 95 136
62 96 141
59 93 129
60 95 139
60 95 136
61 96 149
59 94 130
60 94 133
59 92 127
59 93 124
60 94 139
60 95 139
59 94 137
61 95 134
60 94 136
60 94 135
60 94 135
59 93 123
59 93 120
60 94 135
58 92 125
58 91 126
68 94 113
92 110 94
98 111 67
119 129 31
118 125 0
126 132 0
113 122 0
129 138 0
115 123 0
127 136 0
124 128 0
110 116 0
121 127 0
116 126 0
118 125 0
106 109 0
129 134 0
118 123 0
125 130 0
114 118 0
122 125 0
124 128 0
124 127 0
120 125 0
124 129 0
113 117 0
110 111 0
121 128 0
114 114 0
116 120 0
118 122 0
120 124 0
122 124 0
111 112 0
112 114 0
109 109 0
110 109 0
122 123 0
112 111 0
111 109 0
119 117 0
117 118 0
121 120 0
107 104 0
111 110 0
121 123 0
117 116 0
125 121 0
119 117 0
123 122 0
125 125 0
113 110 0
120 118 0
125 122 0
119 119 0
116 113 0
127 127 0
124 123 0
128 127 0
119 115 0
127 124 0
127 124 0
126 125 0
129 127 0
132 131 0
124 124 0
129 129 0
134 134 0
129 127 0
132 132 0
137 139 0
141 141 0
141 142 0
137 138 0
139 143 0
143 142 0
146 148 0
140 142 0
142 149 0
144 147 0
144 147 0
146 152 0
142 145 0
142 148 0
150 154 0
149 153 0
152 159 0
149 156 0
146 150 0
157 164 0
160 168 0
150 155 0
150 155 0
152 159 0
156 163 0
153 159 0
154 159 0
154 163 0
160 169 0
156 165 0
157 167 0
152 159 0
153 161 0
161 172 0
163 174 0
153 163 0
161 171 0
165 179 0
161 175 0
161 173 0
161 171 0
165 178 0
162 176 0
160 172 0
160 173 0
161 173 0
165 178 0
163 174 0
165 181 0
164 177 0
167 183 0
166 182 0
162 174 0
166 181 0
162 174 0
164 179 0
164 180 0
164 180 0
164 179 0
162 175 0
165 181 0
166 181 0
163 177 0
167 183 0
162 178 0
164 181 0
166 183 0
165 182 0
165 180 0
165 182 0
168 184 0
169 185 0
170 186 0
165 182 0
185 207 130
179 202 117
182 204 133
181 203 125
180 202 102
179 201 95
178 201 105
175 198 105
179 202 95
171 196 62
176 199 84
177 200 72
172 195 80
175 199 88
173 197 67
171 194 62
174 197 62
172 195 72
174 197 76
174 197 62
174 198 57
172 195 72
173 197 57
171 195 62
172 196 62
172 198 92
172 197 62
173 196 67
175 198 62
174 198 92
167 191 62
175 199 80
172 195 62
170 192 62
174 198 67
172 196 67
176 199 62
175 198 72
171 195 62
171 194 51
174 197 62
171 195 72
173 196 76
172 196 76
173 196 72
173 197 76
172 195 62
171 194 62
168 192 84
171 194 51
172 195 80
169 193 57
170 194 72
173 196 67
170 193 62
174 199 99
172 195 44
172 196 72
173 197 88
170 193 67
171 195 76
174 196 67
170 194 51
170 194 44
171 195 62
169 192 84
172 196 67
170 193 51
167 190 70
167 190 102
154 177 110
147 171 107
142 166 111
120 146 141
100 128 154
100 128 151
104 131 150
111 138 152
105 132 152
104 130 153
89 118 151
81 111 152
99 126 150
102 130 162
97 125 151
92 121 156
107 133 155
105 132 162
97 125 166
90 120 150
89 119 165
83 112 157
94 122 149
90 119 159
104 131 171
92 121 162
102 129 169
82 114 171
73 105 157
92 121 167
81 111 166
81 113 175
75 108 173
87 117 175
91 120 171
65 100 157
73 106 161
73 106 173
79 110 173
77 109 167
74 106 172
67 101 169
74 106 168
64 99 159
84 114 170
77 108 169
77 109 166
67 101 161
70 103 151
63 98 156
68 102 161
59 94 148
61 96 154
65 99 156
63 98 158
61 97 160
61 96 150
62 97 153
62 97 145
60 95 144
60 96 149
59 94 144
59 94 148
60 95 155
61 97 150
59 94 144
59 95 153
59 94 138
61 97 156
61 97 153
58 93 147
59 94 144
61 96 147
60 96 150
60 96 156
60 95 142
60 96 159
60 95 144
61 96 148
61 97 155
60 95 152
61 97 151
59 94 145
60 96 151
61 97 150
62 97 152
60 96 151
62 98 161
62 98 160
61 97 153
60 95 143
61 97 152
61 96 149
61 97 149
61 97 156
60 95 144
60 95 147
60 95 146
62 98 158
61 97 151
63 98 161
62 97 150
61 97 153
61 96 153
61 96 155
60 95 144
61 97 149
61 96 149
60 96 147
62 98 157
61 97 154
61 96 150
61 97 156
61 97 152
60 95 144
61 97 149
61 96 150
61 97 152
60 96 150
61 97 151
61 96 151
61 96 148
62 98 151
61 97 150
60 95 142
61 96 143
60 96 147
61 96 143
61 96 149
61 96 145
61 96 145
60 96 147
60 96 147
62 97 156
62 97 151
60 95 144
62 97 148
62 97 149
62 98 152
62 98 153
60 95 140
62 97 149
61 97 149
62 97 147
62 97 152
62 98 156
61 96 139
61 96 147
61 97 151
61 96 144
61 97 150
61 96 139
61 96 144
62 97 144
60 95 141
60 95 147
61 96 142
61 96 145
62 97 151
61 96 143
60 96 142
61 96 148
60 95 141
62 97 147
60 94 135
61 96 145
60 94 127
60 95 142
60 95 136
60 95 136
61 96 147
59 94 134
61 96 135
61 95 139
60 94 131
60 95 140
61 96 143
60 95 134
62 96 145
60 94 141
59 92 122
60 94 137
59 93 136
59 92 121
57 90 124
59 91 122
83 107 106
105 121 86
108 118 54
126 137 18
119 127 0
120 130 0
117 126 0
117 125 0
124 130 0
113 121 0
115 123 0
119 126 0
119 127 0
129 135 0
126 132 0
120 128 0
115 121 0
117 121 0
117 119 0
117 122 0
121 127 0
117 120 0
122 124 0
121 124 0
116 119 0
116 119 0
130 134 0
118 118 0
115 121 0
114 117 0
114 116 0
120 122 0
116 117 0
121 119 0
123 125 0
108 109 0
120 119 0
114 113 0
123 125 0
108 105 0
127 127 0
114 114 0
129 129 0
124 122 0
115 111 0
114 112 0
109 107 0
119 121 0
124 123 0
121 119 0
123 121 0
117 113 0
124 123 0
122 122 0
124 122 0
118 114 0
127 127 0
124 122 0
126 127 0
120 119 0
121 122 0
132 129 0
129 129 0
127 125 0
132 136 0
132 131 0
139 143 0
137 141 0
136 136 0
135 137 0
134 134 0
137 136 0
139 138 0
139 138 0
139 141 0
145 148 0
144 146 0
141 143 0
138 139 0
141 146 0
142 145 0
144 144 0
149 154 0
152 158 0
148 154 0
149 153 0
144 149 0
144 148 0
152 159 0
156 164 0
147 151 0
154 163 0
156 164 0
156 164 0
155 164 0
153 159 0
155 161 0
152 159 0
160 167 0
160 170 0
160 170 0
158 167 0
150 158 0
164 175 0
159 170 0
158 167 0
158 169 0
157 168 0
160 172 0
161 173 0
159 168 0
165 179 0
163 174 0
158 171 0
166 178 0
158 171 0
162 175 0
159 172 0
164 177 0
166 179 0
166 179 0
170 186 0
157 172 0
162 175 0
165 181 0
162 177 0
157 167 0
164 180 0
169 183 0
166 181 0
165 181 0
169 185 0
164 179 0
164 178 0
165 181 0
165 182 0
168 184 0
169 184 0
165 181 0
167 186 0
168 186 0
166 182 0
168 186 0
169 189 0
183 205 137
185 206 135
183 205 120
178 200 108
183 205 117
174 198 92
181 203 102
175 199 80
174 197 72
173 197 62
173 197 84
175 198 84
176 199 67
172 196 51
174 196 62
174 197 84
174 198 62
174 198 92
174 198 84
172 196 67
171 194 57
172 196 72
173 197 95
172 196 84
174 198 88
176 200 95
171 195 67
176 200 72
173 197 76
175 199 76
170 194 57
173 197 80
173 196 76
172 197 80
173 196 62
171 195 67
173 197 72
173 197 67
173 196 80
173 196 62
171 196 99
168 192 95
173 197 88
172 196 76
169 193 57
169 193 76
171 195 76
170 194 67
172 197 76
172 197 80
173 196 62
173 196 62
169 192 80
169 192 44
171 195 72
168 191 57
170 193 62
172 194 25
171 194 76
168 192 57
172 195 72
170 193 80
173 197 84
171 193 36
171 194 76
176 199 72
167 190 67
173 197 84
172 194 90
168 192 88
162 185 82
153 177 99
145 169 114
125 149 126
102 130 144
88 117 146
96 124 150
101 128 151
91 121 156
97 124 148
98 126 158
96 125 156
93 121 158
92 122 151
97 125 164
112 138 170
99 127 157
96 124 158
108 134 163
89 119 158
97 124 161
86 116 161
98 126 164
105 132 169
77 108 159
98 126 159
99 127 174
85 116 164
87 116 165
85 115 166
95 124 173
86 115 162
80 112 170
78 110 174
91 120 171
78 110 168
77 109 171
73 106 171
73 105 165
80 111 169
79 111 171
72 105 174
63 99 164
79 110 169
64 99 161
67 101 164
65 100 153
66 100 163
67 101 159
73 105 159
66 100 153
66 99 150
65 99 149
61 97 160
60 95 150
60 96 157
69 102 156
68 101 144
59 95 144
62 97 150
60 95 149
60 95 150
62 97 155
61 97 151
60 94 135
60 96 150
58 93 143
59 94 144
59 95 149
60 96 150
59 94 143
60 95 155
59 95 146
61 96 144
60 95 149
60 95 144
60 96 151
60 95 142
61 97 152
60 95 150
60 95 147
61 96 148
59 94 145
59 94 138
60 95 142
61 96 154
60 96 148
59 94 139
61 97 158
60 95 149
61 96 154
62 98 157
61 97 150
61 96 150
61 96 150
61 96 150
61 96 150
61 97 149
61 97 156
61 97 150
61 97 156
60 96 153
60 95 148
61 97 150
62 98 155
63 99 164
60 96 148
62 98 163
61 96 149
61 96 142
61 96 143
61 96 153
61 97 155
61 96 149
62 97 154
61 97 144
61 96 153
60 96 149
61 97 151
61 97 155
62 97 149
61 96 142
61 96 148
60 96 145
61 97 150
61 96 151
62 98 154
62 98 158
62 97 149
61 96 149
61 96 147
61 97 151
61 96 148
60 94 139
61 96 140
61 96 150
60 95 136
62 97 149
63 98 155
61 96 144
61 96 144
61 96 149
62 97 151
61 96 150
61 97 149
61 96 145
61 95 147
61 97 150
61 97 147
61 96 140
61 97 147
59 94 140
60 95 140
61 96 140
60 95 143
62 98 155
61 96 147
62 98 150
59 94 130
61 97 152
61 96 145
61 96 143
60 95 137
61 96 143
60 95 141
61 96 142
60 94 137
59 94 134
59 93 130
60 95 135
60 95 143
60 95 137
60 95 139
60 94 130
60 94 142
59 94 132
60 95 136
60 95 136
61 96 139
60 95 138
58 92 115
59 93 129
59 93 129
58 92 116
58 91 126
68 93 102
83 103 90
96 109 75
113 125 47
126 135 18
127 135 0
124 130 0
115 119 0
112 119 0
117 123 0
122 132 0
122 126 0
121 128 0
123 127 0
119 124 0
115 121 0
122 127 0
113 117 0
124 130 0
112 114 0
122 127 0
114 120 0
127 134 0
120 124 0
123 129 0
123 128 0
124 130 0
118 121 0
117 118 0
118 122 0
116 115 0
126 130 0
121 125 0
122 121 0
111 115 0
112 112 0
124 123 0
117 118 0
119 121 0
114 116 0
115 114 0
134 134 0
124 125 0
112 112 0
119 118 0
109 108 0
114 113 0
120 119 0
120 125 0
125 126 0
128 128 0
129 127 0
129 129 0
122 123 0
119 119 0
126 124 0
127 126 0
131 128 0
132 133 0
120 118 0
134 139 0
126 124 0
132 135 0
132 132 0
137 138 0
140 143 0
133 135 0
139 141 0
140 140 0
143 145 0
136 139 0
137 138 0
136 137 0
140 145 0
131 130 0
136 137 0
136 135 0
144 148 0
136 136 0
145 149 0
150 154 0
143 148 0
145 146 0
154 161 0
148 152 0
150 158 0
149 152 0
155 158 0
146 152 0
147 152 0
155 163 0
156 162 0
150 159 0
156 162 0
156 163 0
157 166 0
158 166 0
158 170 0
159 168 0
161 172 0
157 169 0
159 168 0
157 168 0
160 170 0
159 169 0
157 166 0
160 171 0
160 172 0
159 170 0
159 168 0
162 174 0
158 171 0
160 171 0
167 182 0
160 174 0
165 179 0
165 178 0
164 178 0
165 180 0
164 177 0
163 178 0
160 174 0
168 183 0
163 178 0
166 181 0
164 178 0
165 183 0
171 185 0
165 181 0
164 180 0
165 180 0
166 182 0
168 183 0
166 183 0
165 179 0
167 183 0
167 185 0
166 182 0
163 181 0
164 180 0
167 187 0
166 184 0
169 188 0
167 186 0
169 187 0
179 202 95
176 200 105
180 202 111
179 202 99
179 202 111
173 197 76
179 201 88
175 198 99
171 194 51
173 196 51
175 199 62
175 199 67
170 193 72
173 197 44
173 197 72
174 198 57
172 195 76
171 195 62
172 197 67
174 198 84
172 196 62
173 196 51
174 198 88
175 198 57
173 196 88
173 197 67
176 199 76
178 201 72
172 195 76
173 196 80
173 196 57
171 195 88
172 196 62
173 196 67
175 198 80
169 193 51
168 191 62
167 192 80
171 195 62
174 198 72
170 195 92
168 191 57
168 191 67
170 194 84
174 197 72
170 193 57
169 194 84
173 196 51
171 194 72
171 195 67
169 194 76
173 197 76
171 194 88
170 193 80
175 198 84
174 197 84
172 195 62
168 192 80
171 195 92
171 195 67
173 195 57
170 194 84
174 198 72
171 193 95
170 193 76
173 197 67
172 195 88
169 193 62
174 197 62
167 190 76
168 191 70
151 175 82
137 162 105
134 159 127
111 138 133
105 132 151
97 125 149
86 116 157
91 119 131
96 123 140
85 115 154
87 116 149
97 126 157
101 128 153
94 121 147
100 127 148
99 126 158
107 133 156
96 125 157
94 122 153
91 120 161
98 125 159
93 121 148
83 113 159
104 131 158
102 130 156
94 122 164
102 129 169
94 122 169
97 125 170
86 116 169
89 119 168
88 118 167
81 112 169
81 112 171
74 106 168
82 113 170
81 112 173
70 104 162
78 110 175
76 109 165
65 101 166
73 106 168
70 103 164
61 97 164
76 108 162
74 106 169
69 102 147
66 101 157
72 105 166
77 108 158
76 106 161
60 96 157
65 100 156
60 96 154
62 96 153
60 95 151
62 97 150
64 98 154
61 96 141
60 95 141
61 97 156
60 95 149
61 97 157
61 96 141
64 98 142
60 95 150
63 97 148
62 96 146
60 96 151
59 94 139
61 97 148
59 94 146
60 95 144
60 96 159
61 96 155
61 97 155
61 97 151
60 95 148
61 96 143
60 95 145
61 97 152
61 96 155
62 97 155
61 96 157
60 95 147
61 97 155
60 95 142
61 97 155
59 94 148
61 96 145
61 97 158
62 97 155
61 96 142
60 95 145
61 97 157
61 97 148
62 98 157
61 97 153
59 94 141
61 97 151
61 97 151
62 98 155
61 96 148
60 96 144
61 97 159
61 96 150
61 96 149
61 97 148
61 97 160
61 97 153
62 98 154
61 96 148
59 94 139
62 97 152
61 97 150
61 97 152
61 97 156
61 96 145
61 96 149
60 95 144
61 97 151
61 97 151
61 97 145
61 96 151
61 96 149
61 96 145
61 97 144
62 98 155
61 97 145
61 96 143
61 96 143
60 95 134
61 96 145
61 97 158
61 96 142
60 95 136
60 95 139
61 97 152
60 96 141
60 95 135
61 97 143
61 96 143
61 96 149
61 96 151
61 96 150
60 96 143
60 96 143
61 96 142
61 97 150
61 96 142
61 96 148
61 96 143
59 94 135
62 97 147
61 96 150
62 97 148
61 96 140
62 97 151
58 92 129
60 95 139
61 96 145
62 97 144
62 97 157
61 96 142
61 96 145
60 96 142
60 95 135
59 94 130
61 96 144
61 96 140
60 95 135
60 94 134
60 94 130
60 95 136
59 94 135
60 94 139
58 92 130
60 94 138
60 94 129
59 93 130
60 93 128
58 91 121
59 91 122
59 91 127
67 94 101
95 112 91
108 120 47
118 128 36
119 127 0
115 124 0
119 127 0
121 129 0
114 123 0
117 125 0
120 129 0
115 121 0
116 119 0
116 124 0
124 132 0
119 123 0
115 121 0
131 134 0
117 122 0
126 132 0
119 123 0
114 120 0
115 121 0
117 125 0
122 128 0
123 130 0
123 129 0
121 125 0
113 117 0
116 120 0
120 123 0
116 118 0
121 127 0
129 132 0
134 139 0
120 123 0
123 126 0
122 126 0
119 121 0
111 111 0
127 129 0
121 124 0
120 121 0
128 128 0
131 133 0
134 137 0
117 118 0
126 129 0
121 123 0
137 137 0
124 123 0
113 111 0
122 121 0
134 137 0
137 140 0
125 128 0
142 142 0
127 128 0
137 142 0
122 120 0
125 122 0
128 131 0
131 134 0
133 134 0
130 132 0
137 139 0
139 140 0
141 145 0
136 139 0
141 143 0
135 136 0
143 147 0
141 146 0
142 143 0
141 146 0
147 149 0
145 149 0
150 158 0
145 148 0
150 154 0
139 142 0
145 151 0
143 147 0
148 153 0
146 153 0
143 146 0
151 157 0
156 163 0
158 164 0
154 162 0
157 164 0
152 157 0
154 159 0
155 163 0
157 166 0
155 163 0
158 168 0
158 164 0
163 173 0
162 172 0
156 166 0
157 168 0
157 166 0
161 173 0
155 164 0
163 171 0
160 170 0
163 175 0
155 165 0
155 164 0
160 173 0
165 177 0
162 174 0
162 176 0
160 171 0
158 170 0
168 183 0
163 173 0
165 179 0
166 178 0
157 169 0
167 182 0
163 177 0
164 178 0
166 181 0
164 177 0
166 181 0
164 177 0
165 182 0
165 181 0
168 186 0
168 183 0
164 182 0
164 181 0
161 179 0
162 179 0
165 182 0
165 181 0
168 183 0
167 186 0
167 185 0
167 183 0
167 186 0
166 183 0
169 186 0
178 201 92
175 199 76
173 196 99
175 198 76
173 196 67
174 198 57
173 197 72
171 196 84
171 195 57
175 198 51
171 195 62
171 195 67
173 197 62
174 197 76
175 199 67
173 197 80
176 200 80
172 197 80
171 195 51
173 196 76
175 198 80
172 196 76
174 199 67
174 197 57
174 197 76
174 198 92
175 199 67
175 199 88
171 193 36
169 193 92
171 196 92
169 193 62
173 197 51
173 198 72
174 197 51
171 195 80
168 192 67
175 198 62
169 192 57
168 192 76
168 191 36
171 194 80
172 196 62
173 196 76
170 193 67
173 197 72
170 194 67
166 191 76
173 196 72
169 192 72
171 196 88
168 190 51
169 193 84
170 195 76
173 195 67
171 194 72
171 195 80
168 191 84
171 194 80
168 191 57
172 196 80
170 193 84
172 196 72
174 197 80
169 193 88
173 196 67
173 197 84
170 194 51
169 192 67
169 191 36
165 188 80
165 189 86
149 173 103
133 158 118
122 147 135
101 129 150
101 129 155
98 126 148
92 121 155
91 121 154
93 122 155
90 120 159
94 123 159
101 128 157
97 125 158
96 124 162
94 122 147
98 127 151
90 120 148
94 123 163
100 127 148
103 130 154
86 116 151
100 128 160
97 125 158
81 110 147
83 113 166
92 121 156
86 116 164
88 118 166
93 122 173
89 118 162
75 108 169
81 112 166
87 117 164
90 119 168
83 114 169
83 113 169
84 114 167
71 104 164
65 100 163
74 106 168
67 102 169
74 107 171
70 103 162
67 101 159
70 103 166
74 106 161
68 102 161
72 104 155
67 100 160
66 99 151
68 101 158
63 98 154
63 98 149
59 95 153
63 98 154
64 97 144
65 99 157
60 95 152
59 94 142
59 94 143
62 97 151
60 94 144
59 94 147
60 96 152
60 95 143
60 96 154
61 96 157
59 94 140
60 94 149
60 95 140
60 95 143
58 92 136
60 96 149
60 96 148
61 96 152
60 95 147
60 96 149
60 96 150
60 96 149
61 96 144
60 96 150
60 96 147
60 95 149
61 96 155
60 95 147
60 96 149
61 97 151
61 96 149
62 98 158
61 97 154
61 96 153
60 95 145
60 95 137
61 97 152
61 97 156
60 95 147
61 96 145
60 95 142
61 96 153
61 97 155
62 97 150
61 96 150
61 97 151
59 94 148
61 97 147
61 97 155
62 97 157
61 96 150
61 96 147
61 97 150
61 96 152
62 98 151
59 94 131
60 95 139
60 95 142
61 97 154
61 97 148
61 96 145
61 97 144
61 96 149
62 98 157
62 97 149
61 96 145
62 97 151
60 95 143
61 96 148
61 96 144
62 97 150
60 96 147
61 96 142
61 96 148
62 97 151
63 98 151
62 98 156
61 96 143
61 97 150
62 98 154
61 97 144
60 95 142
60 95 134
61 97 148
60 95 142
61 96 143
61 96 145
61 96 147
62 97 149
61 96 141
61 96 145
60 95 142
61 96 139
61 96 143
60 95 134
61 96 144
61 96 140
60 95 133
61 96 145
61 96 143
60 95 136
60 95 135
60 95 144
60 95 139
60 95 133
60 95 136
61 95 148
60 94 137
61 96 149
61 95 136
60 95 133
61 96 140
61 96 139
60 94 139
59 93 127
59 94 133
61 96 148
60 95 140
60 95 135
59 92 132
60 94 137
59 93 125
60 94 131
59 93 127
58 91 128
62 93 121
81 102 106
102 114 60
114 123 8
130 137 0
123 134 0
131 142 0
115 122 0
119 130 0
120 129 0
123 132 0
120 129 0
118 122 0
116 123 0
126 135 0
116 122 0
120 124 0
134 142 0
123 129 0
130 139 0
116 120 0
125 129 0
122 125 0
121 127 0
118 125 0
123 129 0
119 121 0
128 135 0
115 118 0
126 131 0
127 128 0
125 130 0
115 116 0
127 130 0
123 127 0
128 131 0
121 122 0
119 122 0
122 125 0
125 128 0
122 127 0
120 121 0
126 127 0
132 136 0
128 129 0
121 123 0
139 143 0
124 125 0
120 122 0
121 121 0
127 128 0
129 131 0
130 129 0
134 140 0
118 120 0
135 139 0
132 130 0
136 138 0
129 133 0
130 130 0
132 132 0
135 135 0
141 141 0
130 134 0
136 139 0
141 145 0
143 147 0
136 136 0
141 142 0
132 132 0
139 143 0
138 140 0
142 142 0
145 149 0
142 145 0
153 161 0
145 147 0
149 154 0
145 148 0
151 155 0
144 149 0
144 147 0
147 150 0
147 150 0
156 166 0
155 161 0
145 149 0
149 153 0
158 165 0
157 164 0
155 161 0
152 159 0
155 164 0
152 159 0
156 166 0
153 162 0
158 166 0
156 165 0
159 170 0
150 155 0
162 172 0
160 171 0
155 166 0
157 167 0
162 173 0
159 168 0
156 167 0
159 168 0
156 166 0
158 167 0
163 176 0
159 171 0
160 174 0
161 173 0
162 174 0
163 176 0
162 175 0
162 175 0
166 181 0
161 174 0
162 177 0
166 179 0
166 182 0
165 180 0
164 177 0
166 181 0
166 180 0
164 179 0
168 185 0
162 176 0
168 185 0
165 180 0
164 181 0
166 184 0
166 183 0
166 183 0
166 183 0
163 180 0
165 182 0
164 183 0
166 182 0
165 181 0
165 182 0
170 188 0
167 185 0
168 186 0
178 201 111
177 199 80
177 200 92
177 200 114
172 195 62
173 197 80
176 199 88
176 199 72
176 199 72
172 196 67
175 199 99
173 196 67
171 195 67
174 197 72
173 196 67
172 196 80
173 197 67
173 197 88
174 198 72
171 194 84
171 195 84
176 200 84
172 196 80
174 198 80
177 201 80
173 196 62
172 196 62
173 197 88
169 194 80
173 198 95
171 195 84
174 198 80
172 196 76
168 192 80
171 195 84
172 196 92
172 196 76
166 190 57
174 198 80
174 198 67
173 197 92
172 197 99
170 194 72
173 196 80
170 195 84
166 190 67
172 196 62
174 197 102
172 195 72
169 192 92
173 195 62
169 191 84
169 193 72
172 196 44
171 195 80
168 192 67
170 194 67
169 193 57
170 193 57
171 195 84
172 196 80
166 190 76
168 190 62
165 187 67
169 192 72
167 191 72
165 189 51
171 195 62
172 195 88
168 190 62
163 186 72
158 181 86
151 174 100
138 161 95
131 156 125
111 137 140
95 123 144
102 130 155
89 117 152
100 127 155
92 120 149
105 132 155
89 119 165
103 131 157
97 125 150
98 126 154
106 132 147
94 122 147
101 128 151
93 121 153
101 128 154
107 133 149
94 122 163
87 116 159
98 125 150
101 128 157
99 127 153
100 127 157
90 119 157
95 123 164
92 120 167
89 119 166
86 115 165
88 117 165
83 113 160
80 111 172
77 108 167
79 111 173
82 112 170
78 110 169
80 111 166
80 111 178
70 104 164
71 105 172
70 104 166
65 100 163
67 101 157
66 101 172
69 102 158
71 104 163
64 98 159
73 105 163
62 97 155
60 95 152
64 98 153
66 99 153
64 98 145
67 100 151
63 98 152
67 101 150
62 96 140
62 97 144
60 95 143
62 97 151
60 95 152
60 96 151
59 94 145
61 96 153
60 95 138
59 95 151
60 96 146
59 94 145
61 96 147
61 97 152
60 95 144
60 95 144
60 95 142
61 97 150
61 97 153
61 96 143
60 95 139
60 96 150
60 96 147
60 95 148
60 95 148
61 97 151
60 96 149
60 96 147
62 98 158
60 96 147
60 95 140
60 95 142
60 96 151
61 96 150
61 96 147
61 97 150
60 95 144
61 96 149
62 98 160
60 95 144
61 96 154
61 96 145
61 97 152
61 97 157
61 96 154
61 97 151
61 96 149
62 97 150
60 95 150
61 97 150
61 96 148
61 97 148
61 97 155
61 96 145
62 97 157
61 97 152
62 97 153
62 97 151
61 97 152
60 96 144
61 96 145
62 97 147
60 96 144
62 97 148
62 97 152
61 97 150
61 96 142
62 98 153
62 98 157
60 95 142
61 96 145
62 97 157
61 96 150
62 97 149
61 96 144
62 97 148
60 96 145
60 95 137
61 96 145
60 95 141
60 96 150
60 95 140
61 96 143
61 96 136
61 96 142
61 96 152
61 96 137
61 96 145
62 97 151
60 95 133
60 94 135
61 96 142
60 94 139
61 96 139
59 94 133
62 97 150
60 95 136
62 97 151
60 95 136
60 95 141
59 94 121
61 95 141
59 94 134
60 95 140
60 95 135
61 96 142
59 94 133
61 96 141
60 95 134
59 93 134
59 93 138
60 95 130
59 93 130
60 94 134
61 95 135
58 92 120
59 94 137
59 94 127
59 92 124
60 94 132
60 94 133
58 92 122
58 91 124
61 93 117
80 104 117
97 113 82
104 117 60
122 129 18
113 121 0
121 129 0
126 133 0
122 130 0
121 129 0
122 130 0
114 125 0
111 119 0
125 134 0
122 129 0
122 131 0
119 123 0
127 136 0
127 133 0
123 129 0
133 139 0
110 115 0
125 132 0
115 120 0
118 125 0
128 136 0
120 125 0
126 130 0
126 131 0
114 118 0
128 134 0
131 137 0
119 122 0
121 125 0
125 128 0
131 135 0
131 135 0
123 126 0
133 136 0
119 120 0
125 130 0
119 120 0
135 138 0
129 129 0
124 131 0
128 132 0
121 121 0
134 141 0
131 132 0
118 120 0
127 128 0
128 133 0
126 127 0
129 133 0
130 132 0
132 133 0
126 128 0
131 132 0
134 137 0
141 144 0
138 140 0
140 143 0
127 127 0
144 149 0
134 134 0
138 140 0
136 137 0
132 133 0
141 144 0
139 143 0
146 148 0
140 141 0
143 148 0
141 145 0
142 147 0
139 140 0
143 144 0
143 146 0
146 152 0
148 153 0
149 156 0
141 147 0
145 146 0
143 147 0
150 157 0
144 150 0
149 153 0
148 153 0
153 162 0
154 163 0
153 161 0
154 161 0
157 165 0
156 163 0
153 160 0
154 163 0
156 165 0
158 167 0
157 165 0
158 169 0
161 171 0
164 174 0
160 170 0
166 177 0
156 170 0
160 171 0
159 171 0
153 164 0
156 169 0
159 171 0
159 172 0
165 177 0
157 169 0
162 176 0
159 171 0
163 176 0
157 170 0
162 176 0
160 175 0
161 173 0
162 174 0
162 176 0
162 177 0
158 171 0
169 183 0
163 178 0
167 183 0
164 179 0
164 177 0
163 177 0
163 178 0
165 180 0
159 176 0
167 183 0
166 185 0
166 181 0
163 179 0
164 181 0
165 180 0
169 185 0
166 183 0
166 183 0
165 183 0
166 183 0
164 182 0
165 183 0
168 185 0
174 198 67
175 198 72
174 198 99
176 199 80
171 195 67
173 196 51
173 197 80
171 195 67
173 197 67
175 198 80
170 194 44
170 195 72
171 195 72
171 196 76
173 196 80
176 200 88
175 199 92
170 194 62
171 195 62
170 194 62
173 197 76
172 195 76
172 197 84
172 196 88
172 196 80
174 196 67
172 196 57
172 195 62
171 195 67
174 197 80
171 196 76
170 193 62
171 195 80
173 197 76
171 194 67
168 192 72
174 198 95
171 195 76
168 192 67
171 195 84
169 192 57
173 197 76
172 196 36
171 195 72
172 195 88
174 198 88
171 195 67
172 196 84
169 194 72
170 193 57
171 195 80
169 194 95
170 195 76
167 190 67
170 194 88
170 193 72
168 191 76
166 189 72
171 195 72
172 195 95
167 192 67
166 191 62
169 194 92
173 196 84
169 192 67
169 192 72
169 192 72
169 193 84
169 192 62
168 191 67
167 190 70
166 189 88
159 182 86
142 165 102
137 162 111
110 135 129
102 129 147
89 118 155
97 125 148
98 126 154
86 115 147
95 123 136
92 121 153
89 118 145
96 124 149
92 121 145
102 129 145
85 114 156
104 130 150
99 127 150
98 126 138
92 120 157
109 136 164
103 129 152
97 125 157
84 114 160
95 124 161
106 132 156
92 121 160
95 124 167
101 128 169
87 117 168
80 111 161
83 113 161
96 124 172
81 112 163
83 114 172
76 108 163
76 108 165
77 110 175
78 110 166
77 109 169
82 112 174
78 109 172
75 108 169
76 108 166
70 103 167
64 98 163
67 101 167
61 97 165
70 102 156
67 100 160
61 97 161
66 100 154
65 98 156
60 94 143
64 98 150
66 99 150
64 97 142
61 96 147
65 98 141
58 93 139
63 98 154
61 96 144
61 97 153
61 96 150
63 98 143
60 96 151
60 95 146
58 93 148
60 95 142
60 95 146
58 92 137
60 94 141
61 96 149
59 94 147
60 95 149
60 95 145
59 94 146
60 95 148
60 95 149
61 96 146
61 96 148
61 96 150
60 95 139
59 95 147
61 96 153
63 98 157
61 96 152
61 96 145
60 95 139
60 95 143
61 96 144
60 95 141
62 97 155
61 96 147
60 95 140
60 95 144
60 96 152
60 96 145
61 97 149
61 96 147
61 97 149
61 96 145
61 96 141
60 95 144
61 97 147
60 96 151
60 95 143
60 95 143
62 98 156
60 95 139
61 97 153
60 95 145
61 97 147
61 96 152
60 96 150
62 97 149
61 97 152
61 97 144
62 97 147
61 96 147
60 95 139
60 96 148
62 97 153
62 98 152
61 96 148
60 95 143
61 96 149
60 95 139
60 96 149
61 97 151
60 95 143
61 97 144
60 95 137
61 97 147
60 96 140
61 96 141
61 97 150
62 97 148
61 96 144
61 97 143
61 97 151
59 94 137
61 96 137
60 95 139
60 95 137
61 96 145
62 97 150
60 95 140
60 96 137
61 96 147
60 95 137
60 95 137
62 97 149
60 95 133
61 96 145
62 97 153
61 96 142
60 95 139
60 96 142
61 97 145
60 95 142
60 94 142
60 94 136
59 94 129
59 93 136
59 94 130
60 94 130
60 95 134
59 94 134
61 95 140
62 97 143
59 93 127
61 96 136
60 94 135
60 94 134
60 94 131
58 91 117
59 93 126
60 94 133
59 92 130
59 92 121
64 93 118
87 107 109
88 104 72
110 122 44
119 126 0
119 127 0
121 133 0
117 129 0
120 130 0
125 137 0
121 133 0
116 125 0
124 132 0
133 140 0
122 129 0
121 129 0
120 127 0
120 126 0
124 130 0
116 124 0
117 127 0
123 129 0
115 121 0
125 130 0
123 131 0
126 132 0
117 123 0
127 132 0
122 126 0
117 124 0
127 134 0
123 131 0
129 134 0
129 134 0
117 120 0
127 132 0
127 129 0
133 138 0
126 130 0
118 122 0
123 130 0
129 130 0
132 138 0
119 121 0
131 134 0
121 126 0
122 123 0
120 121 0
128 133 0
126 132 0
127 130 0
127 132 0
133 137 0
132 138 0
127 129 0
134 137 0
138 140 0
132 139 0
133 137 0
135 140 0
140 143 0
128 129 0
131 132 0
140 144 0
131 134 0
140 144 0
142 145 0
138 144 0
144 147 0
141 145 0
141 144 0
143 149 0
143 147 0
142 145 0
148 156 0
144 148 0
140 142 0
145 151 0
143 149 0
148 154 0
146 155 0
144 150 0
150 156 0
146 151 0
145 152 0
142 148 0
154 161 0
147 151 0
148 154 0
157 164 0
159 168 0
153 158 0
155 163 0
147 151 0
158 165 0
155 162 0
156 167 0
158 167 0
154 164 0
160 170 0
161 171 0
156 165 0
158 169 0
160 172 0
158 168 0
159 172 0
158 168 0
152 162 0
158 170 0
157 170 0
162 175 0
164 175 0
159 170 0
161 175 0
162 175 0
167 181 0
163 177 0
162 175 0
159 173 0
164 179 0
163 178 0
159 170 0
163 174 0
158 169 0
166 182 0
166 180 0
167 182 0
163 178 0
166 179 0
165 180 0
166 180 0
166 184 0
165 181 0
166 183 0
162 177 0
169 186 0
168 184 0
165 181 0
166 180 0
166 184 0
165 182 0
167 184 0
167 182 0
171 189 0
166 183 0
167 185 0
165 181 0
171 196 57
177 200 88
173 197 76
174 198 62
173 197 84
175 199 67
174 197 72
169 194 51
176 199 80
173 196 76
171 194 51
173 197 62
175 199 84
173 197 84
165 190 62
173 196 72
169 194 62
175 198 72
173 198 92
176 200 114
170 195 72
173 197 72
173 196 88
171 195 76
170 194 67
171 195 76
171 195 67
176 200 99
172 196 57
170 194 51
170 194 62
175 198 80
169 194 72
171 195 80
172 195 62
170 193 84
168 193 67
165 189 44
172 196 72
173 197 95
172 196 67
169 192 67
168 192 72
172 195 76
169 192 67
171 195 88
171 195 80
169 192 62
173 196 67
169 194 88
170 194 72
171 195 88
165 188 62
169 193 88
168 192 88
169 191 51
172 195 67
165 188 44
168 192 92
172 197 72
168 192 72
169 193 84
166 189 67
167 191 95
171 194 51
172 195 57
168 192 72
167 190 80
168 192 76
171 194 67
168 191 76
167 191 74
165 188 92
153 178 113
133 158 127
123 149 131
104 131 129
87 116 149
95 124 159
91 120 153
104 130 148
94 121 145
92 121 151
97 124 154
92 120 144
106 132 147
90 119 151
85 115 156
112 139 168
96 124 150
102 129 154
97 125 159
96 123 153
98 126 160
90 118 155
96 124 154
99 126 151
101 128 167
112 138 159
88 117 162
86 116 159
88 118 158
92 121 164
91 120 156
88 117 166
76 108 164
78 110 157
82 113 165
83 114 161
77 108 163
75 107 166
70 103 161
76 108 163
92 121 181
70 104 164
64 99 160
73 105 161
68 102 163
65 100 165
75 107 163
72 105 166
60 96 154
73 104 167
70 102 157
60 95 156
59 94 148
66 99 153
59 94 136
60 95 155
68 100 144
63 97 157
61 96 154
62 97 147
60 95 146
60 96 151
62 96 143
62 96 149
60 96 155
61 95 147
59 93 141
62 97 151
58 93 139
61 96 148
59 93 145
61 96 153
60 95 145
60 95 144
60 95 145
58 93 139
60 95 145
61 97 155
60 95 151
60 95 149
59 95 153
60 95 143
62 97 159
60 96 151
59 94 137
60 95 136
60 94 139
61 96 153
60 95 144
61 96 147
61 97 148
60 96 143
60 95 147
60 95 146
60 96 151
61 96 148
61 97 154
59 94 143
61 97 145
58 93 137
62 97 148
60 95 140
61 96 153
60 95 139
61 97 153
61 96 149
61 96 142
61 96 150
60 95 136
61 96 149
61 96 142
61 96 149
61 96 143
60 95 141
59 95 139
61 96 149
61 97 150
61 96 150
61 96 154
62 97 152
60 95 141
60 95 139
62 98 156
60 95 140
61 96 149
61 96 144
60 96 148
61 97 145
60 95 139
61 96 143
60 95 142
62 97 154
61 97 145
61 96 141
62 98 153
62 97 147
61 96 143
61 95 137
60 96 148
62 97 152
61 96 148
62 97 150
61 96 143
61 96 148
60 95 133
61 96 140
61 96 149
60 95 135
60 95 143
61 96 144
60 95 135
61 96 140
61 96 136
60 95 136
60 94 134
60 95 145
60 95 139
60 95 135
60 95 140
59 93 130
61 96 145
60 95 142
60 96 139
59 93 131
62 97 145
60 95 139
59 93 126
61 95 137
61 95 137
60 94 134
59 93 126
60 94 130
60 94 131
59 92 129
59 93 126
59 93 128
59 93 125
58 90 116
58 91 121
60 92 113
75 99 103
96 114 97
96 111 60
120 132 36
133 143 0
120 133 0
117 128 0
127 135 0
118 128 0
119 132 0
123 131 0
125 135 0
117 125 0
125 133 0
117 124 0
120 127 0
116 121 0
123 131 0
125 135 0
120 127 0
125 133 0
126 135 0
120 127 0
126 134 0
127 134 0
119 127 0
125 129 0
121 130 0
124 129 0
125 132 0
123 128 0
126 129 0
121 124 0
116 124 0
129 133 0
132 140 0
115 119 0
131 137 0
128 135 0
127 130 0
132 139 0
134 137 0
110 115 0
123 126 0
131 137 0
125 130 0
117 118 0
134 139 0
125 131 0
128 133 0
137 142 0
143 146 0
141 146 0
134 137 0
128 130 0
123 129 0
137 140 0
133 136 0
133 138 0
134 138 0
126 132 0
137 139 0
142 147 0
136 139 0
137 138 0
127 128 0
137 140 0
141 146 0
136 137 0
132 135 0
145 151 0
148 152 0
146 150 0
142 146 0
142 145 0
143 151 0
142 147 0
148 154 0
145 149 0
156 165 0
151 154 0
147 153 0
152 158 0
152 160 0
150 158 0
143 150 0
147 152 0
149 157 0
147 153 0
156 163 0
151 160 0
155 162 0
159 168 0
153 162 0
159 169 0
157 165 0
154 164 0
158 169 0
159 172 0
161 171 0
161 172 0
154 165 0
161 171 0
155 166 0
157 166 0
158 167 0
159 170 0
163 177 0
160 171 0
162 176 0
163 176 0
154 165 0
162 175 0
162 174 0
161 174 0
161 177 0
166 175 0
163 176 0
161 176 0
163 177 0
167 181 0
156 171 0
166 182 0
166 181 0
163 177 0
159 172 0
163 177 0
164 180 0
162 178 0
161 177 0
169 185 0
163 178 0
171 189 0
164 182 0
168 183 0
165 181 0
164 182 0
166 184 0
167 186 0
168 185 0
169 188 0
165 183 0
167 184 0
164 182 0
164 180 0
167 186 0
168 186 0
173 196 62
176 198 67
174 198 76
174 198 92
176 199 76
172 196 62
175 198 67
172 196 88
174 198 88
170 194 76
172 196 62
171 195 72
173 197 62
174 197 92
173 197 67
175 197 67
173 198 95
171 194 67
173 196 67
172 196 72
166 189 72
172 196 57
173 197 67
170 195 62
171 196 92
172 196 88
171 194 72
171 194 51
170 194 84
170 193 25
169 194 88
170 195 95
170 195 84
170 194 44
174 198 88
171 195 72
172 195 84
169 192 51
173 196 76
170 194 51
167 190 51
173 197 84
170 195 102
169 192 62
169 193 62
170 193 62
171 194 57
169 194 88
170 194 51
169 193 76
170 195 88
170 193 62
164 188 57
167 190 92
167 192 80
170 192 72
168 192 67
167 191 62
163 187 57
168 190 51
172 195 62
166 190 67
168 191 67
167 189 67
167 191 62
165 189 67
171 195 67
167 190 57
167 191 95
166 189 72
170 193 80
166 190 70
165 188 70
147 170 107
141 165 105
117 142 108
121 148 145
100 127 147
99 127 145
92 120 153
95 123 154
100 127 144
94 123 140
92 120 149
99 127 161
105 131 151
107 134 154
91 120 153
98 125 150
98 126 158
91 119 140
91 120 153
86 115 148
92 120 148
95 123 153
99 127 151
86 116 148
91 120 156
96 125 149
89 117 147
87 117 151
96 124 158
88 117 159
103 130 167
82 112 158
89 119 162
93 121 162
86 116 173
85 114 174
92 120 166
91 120 168
74 107 160
86 115 175
84 114 170
82 113 160
78 109 173
67 102 165
75 107 161
66 100 162
73 105 166
75 106 160
67 100 153
73 104 152
71 103 159
77 107 149
64 98 144
65 99 150
62 96 152
60 95 153
64 98 151
63 98 159
61 96 148
60 96 151
62 97 147
61 97 150
60 95 149
63 98 155
58 93 138
60 95 147
64 98 144
59 94 146
61 94 137
59 94 143
60 96 150
59 94 134
60 95 149
61 96 154
60 95 143
60 95 141
60 95 150
60 96 148
60 95 145
60 95 141
60 96 147
60 95 148
60 95 143
61 96 145
61 96 145
60 96 149
60 96 142
60 95 144
59 94 141
61 96 149
60 96 151
60 96 148
60 96 148
60 95 139
60 95 143
60 96 148
60 94 135
60 95 144
60 96 145
61 97 147
60 95 136
60 96 145
59 94 141
61 96 139
61 96 145
61 96 148
62 97 144
60 94 140
61 96 150
61 97 152
61 95 139
60 96 148
60 96 143
61 97 151
60 96 142
61 97 153
61 97 149
61 96 151
61 96 149
60 96 144
61 96 152
62 97 149
60 95 141
61 97 155
60 95 139
61 96 139
60 95 139
61 96 143
60 95 140
59 94 131
61 96 148
61 96 141
59 94 126
61 97 150
60 94 140
60 95 137
61 96 147
61 97 147
60 95 141
61 96 147
62 97 143
61 96 140
59 94 139
61 96 142
60 95 139
61 97 149
60 95 140
59 94 137
60 95 141
60 95 133
62 97 143
60 95 140
61 96 140
60 94 130
61 96 141
61 97 145
61 96 143
60 94 133
60 95 136
60 94 139
59 93 135
59 93 137
59 94 134
60 95 135
61 97 145
59 93 125
62 97 144
60 94 141
61 96 135
60 95 131
59 94 139
59 94 137
60 94 137
59 93 121
60 94 137
59 94 125
58 92 121
58 91 121
58 91 113
64 93 104
94 116 100
102 118 76
122 137 57
116 128 25
117 127 0
110 121 0
119 130 0
124 136 0
129 140 0
124 134 0
124 133 0
123 132 0
124 133 0
118 128 0
131 138 0
122 131 0
126 133 0
126 135 0
131 141 0
126 133 0
116 124 0
119 126 0
117 123 0
122 133 0
131 141 0
124 132 0
116 123 0
123 132 0
126 130 0
128 136 0
139 147 0
123 127 0
127 134 0
128 133 0
133 138 0
129 132 0
131 136 0
121 126 0
118 122 0
135 141 0
123 129 0
132 136 0
137 145 0
125 128 0
131 135 0
128 133 0
133 140 0
130 133 0
130 134 0
131 137 0
130 134 0
137 143 0
135 140 0
133 138 0
133 140 0
132 137 0
130 131 0
131 136 0
128 129 0
137 139 0
135 138 0
136 138 0
132 134 0
140 145 0
138 142 0
138 141 0
146 150 0
132 136 0
138 141 0
142 145 0
139 143 0
143 149 0
135 138 0
150 158 0
145 150 0
142 148 0
142 145 0
149 156 0
147 152 0
147 154 0
148 155 0
148 155 0
149 155 0
150 155 0
144 151 0
145 150 0
150 159 0
156 167 0
154 163 0
151 157 0
149 158 0
159 168 0
152 161 0
154 163 0
156 167 0
153 162 0
156 165 0
159 168 0
160 171 0
158 169 0
155 164 0
159 171 0
163 173 0
157 168 0
155 164 0
164 176 0
155 165 0
157 169 0
161 174 0
163 177 0
157 169 0
166 181 0
161 171 0
164 176 0
164 179 0
161 173 0
157 171 0
159 174 0
162 173 0
159 172 0
159 174 0
166 179 0
164 179 0
164 178 0
168 183 0
162 174 0
163 178 0
167 185 0
164 180 0
165 183 0
166 182 0
165 180 0
159 175 0
167 185 0
166 183 0
165 181 0
165 183 0
164 181 0
164 179 0
165 182 0
166 183 0
168 185 0
166 181 0
167 185 0
166 183 0
166 184 0
165 182 0
173 197 84
174 197 62
171 195 67
175 198 72
174 197 84
175 199 84
174 198 67
173 196 62
175 199 80
175 198 84
173 196 72
173 197 76
172 196 76
171 195 80
168 192 80
174 198 76
175 199 84
168 193 76
172 195 67
173 197 67
172 196 76
172 196 84
168 192 80
174 198 84
171 195 67
169 192 67
173 196 72
172 196 76
170 194 57
176 199 80
168 192 72
171 194 51
171 195 72
171 195 62
170 194 76
174 198 88
170 193 51
170 194 67
172 195 84
169 192 57
169 193 62
168 191 72
168 192 67
173 197 62
171 194 84
168 191 76
169 193 76
171 194 62
166 190 76
174 197 67
171 194 80
167 192 88
170 194 80
168 192 72
168 192 57
169 193 62
170 193 72
171 195 72
169 193 72
169 193 88
167 191 80
167 191 57
167 191 62
170 194 67
170 195 80
170 194 76
165 187 57
168 192 57
170 194 62
167 190 57
166 189 72
167 191 62
170 194 86
162 186 102
155 179 82
137 160 100
128 153 118
108 135 160
91 119 142
80 110 141
94 123 149
101 127 133
95 122 149
94 122 149
99 125 143
95 123 155
93 122 150
95 122 144
90 119 151
92 121 155
106 133 160
109 135 154
90 119 154
97 124 150
88 117 155
92 120 148
88 116 137
96 124 163
106 134 172
96 124 158
82 113 160
101 128 157
90 119 165
101 128 165
92 121 155
101 128 164
90 119 168
89 118 159
95 123 169
84 115 161
83 114 171
79 110 166
68 101 165
81 112 168
80 110 164
70 104 163
74 106 163
70 103 158
67 101 158
62 97 157
63 97 158
65 99 161
69 102 154
76 107 158
66 99 158
62 97 149
67 100 156
65 99 153
64 98 149
62 97 153
63 97 148
63 97 153
60 95 142
68 102 151
62 97 139
60 94 135
60 95 144
62 96 148
60 95 146
63 98 150
58 93 134
59 93 137
63 97 141
59 94 140
59 95 139
61 96 148
60 95 141
60 96 151
61 96 155
60 95 140
61 96 147
61 96 158
60 95 148
60 95 147
60 95 143
60 95 143
60 94 137
59 94 136
61 96 145
60 95 140
61 96 148
60 96 142
61 97 144
60 95 143
61 96 151
61 97 153
61 97 148
62 97 152
61 97 151
61 96 150
60 95 145
60 95 145
60 95 145
60 95 137
60 95 150
60 95 141
60 95 139
59 95 136
61 96 145
60 95 136
61 97 154
61 96 154
59 94 135
60 96 146
61 96 153
62 97 151
61 96 144
61 96 137
61 96 148
60 95 139
61 96 135
60 95 137
60 95 137
61 96 147
58 93 130
62 97 151
61 96 147
62 98 152
60 95 141
60 95 140
61 96 140
60 95 141
61 96 141
60 95 145
61 96 142
60 95 135
62 97 150
60 95 140
61 96 140
60 95 136
60 96 141
61 97 145
59 94 136
60 95 133
61 97 144
61 96 142
59 93 131
61 96 140
62 97 149
60 95 139
61 97 149
60 94 131
60 95 141
60 95 141
59 94 129
60 95 130
61 95 140
61 97 144
61 96 142
61 96 144
60 95 135
60 95 142
60 95 141
60 95 136
60 94 135
60 94 137
60 95 137
60 94 133
60 95 139
59 94 131
58 91 121
60 95 137
59 93 129
59 94 132
60 95 135
59 93 124
59 92 117
58 92 124
58 92 121
59 92 120
58 92 108
61 93 121
74 100 107
93 113 82
108 121 70
119 129 37
119 130 0
122 131 0
128 137 0
120 131 0
124 135 0
121 131 0
123 132 0
124 133 0
125 133 0
128 138 0
130 142 0
124 134 0
129 138 0
123 132 0
113 119 0
124 135 0
115 123 0
121 130 0
122 131 0
115 122 0
127 135 0
122 128 0
134 142 0
122 129 0
140 147 0
122 128 0
128 132 0
129 136 0
130 138 0
127 131 0
125 129 0
126 132 0
115 121 0
131 139 0
133 141 0
126 132 0
127 133 0
128 133 0
124 127 0
132 137 0
128 132 0
130 137 0
129 137 0
134 138 0
125 128 0
131 136 0
126 132 0
136 141 0
121 126 0
138 145 0
129 133 0
131 135 0
140 147 0
134 135 0
133 136 0
138 144 0
137 140 0
137 143 0
142 146 0
141 142 0
150 157 0
138 145 0
141 146 0
137 141 0
146 154 0
144 149 0
142 146 0
146 150 0
146 151 0
146 154 0
143 149 0
147 154 0
148 159 0
152 158 0
147 154 0
145 148 0
146 150 0
141 145 0
151 158 0
153 161 0
157 167 0
153 161 0
146 153 0
149 156 0
149 156 0
151 160 0
146 154 0
150 160 0
154 163 0
159 169 0
150 157 0
152 160 0
157 168 0
153 160 0
154 163 0
153 160 0
152 161 0
154 161 0
158 168 0
161 174 0
161 172 0
159 169 0
163 174 0
164 175 0
165 177 0
159 171 0
157 169 0
165 178 0
166 181 0
165 180 0
154 166 0
159 171 0
165 179 0
163 175 0
164 177 0
163 178 0
166 180 0
164 179 0
164 179 0
159 173 0
164 176 0
164 178 0
166 182 0
165 179 0
168 186 0
163 179 0
163 177 0
167 185 0
160 178 0
165 182 0
165 179 0
170 188 0
165 182 0
160 175 0
165 180 0
166 184 0
167 185 0
169 185 0
167 185 0
165 183 0
166 185 0
169 187 0
162 182 0
170 189 0
173 196 57
174 197 84
174 198 84
170 193 57
169 193 62
173 197 72
175 198 67
174 197 88
173 196 72
175 198 72
172 196 67
173 196 72
175 198 62
173 197 80
172 195 76
172 197 92
172 195 44
171 196 88
169 194 67
173 198 67
174 198 99
173 197 72
173 196 62
173 197 72
172 195 67
173 197 76
171 196 72
172 197 84
167 191 67
168 193 99
174 198 88
174 199 84
172 195 67
172 196 76
173 197 80
170 195 80
170 195 72
169 193 67
171 195 76
169 192 44
173 196 62
171 194 57
169 193 80
167 190 92
167 190 51
171 195 62
172 195 62
167 191 80
166 191 80
166 189 25
169 192 76
168 191 67
170 195 80
168 192 80
172 196 80
171 195 72
169 193 76
165 189 51
169 192 80
164 188 44
167 191 76
170 195 92
165 188 57
163 186 44
168 191 62
171 194 80
170 194 72
167 190 72
169 193 88
171 194 62
165 189 36
167 191 67
171 195 76
165 188 80
155 179 82
149 173 99
144 168 114
105 132 134
87 116 140
92 120 142
96 123 145
98 125 133
92 121 153
86 114 136
87 115 134
90 118 149
100 127 141
92 120 140
106 132 168
98 125 149
94 121 136
101 129 161
91 119 151
98 126 153
109 135 154
81 111 153
89 118 148
108 134 155
94 122 147
101 127 161
84 114 165
84 113 160
86 116 159
80 111 150
93 122 157
78 110 145
88 116 153
95 123 168
93 121 166
75 107 161
82 112 162
80 111 156
76 108 160
79 110 169
68 102 166
71 104 159
75 107 163
75 106 169
77 108 167
69 101 160
64 99 159
67 100 163
67 100 156
67 101 162
71 103 154
63 98 154
68 100 155
59 95 151
67 98 142
68 101 142
65 97 141
63 98 149
60 95 150
61 95 144
61 96 143
59 93 139
61 95 139
62 96 148
60 95 142
59 94 147
60 95 139
61 95 133
59 94 137
60 95 147
60 95 146
61 96 151
59 94 136
60 94 141
61 96 144
60 95 148
61 96 149
61 96 152
61 97 154
59 94 142
61 95 148
58 93 136
61 96 150
60 95 142
60 95 133
59 94 145
61 97 161
61 96 141
61 97 147
61 96 154
60 95 142
60 96 149
59 93 135
61 96 150
59 94 142
61 97 149
61 96 151
61 97 151
61 96 149
61 97 146
61 97 147
61 96 136
60 95 140
60 96 140
60 95 142
62 97 145
59 94 135
61 96 144
60 96 145
60 95 143
60 94 134
62 97 151
61 97 149
61 96 144
61 96 147
61 96 140
62 97 151
61 96 142
62 97 145
60 95 144
62 98 157
63 98 157
61 96 152
61 96 140
60 95 136
59 94 136
60 95 130
61 96 140
61 96 139
62 97 154
60 95 140
61 96 139
61 96 147
60 95 137
60 95 140
62 97 148
61 97 142
59 95 133
60 95 137
60 95 142
59 94 129
60 95 139
60 95 137
60 94 136
60 94 131
60 95 141
60 95 139
61 97 150
61 96 141
60 95 135
61 96 142
61 96 144
61 95 143
61 96 144
59 94 130
61 96 142
60 95 143
59 93 127
59 94 130
59 93 136
60 94 127
61 95 141
59 93 124
59 93 133
60 95 135
60 94 136
59 93 130
58 93 133
60 94 133
57 91 121
60 94 139
59 93 125
60 93 134
58 91 113
57 91 120
57 90 121
58 91 113
65 95 119
90 108 92
100 117 79
110 124 51
115 125 18
123 133 0
122 132 0
122 133 0
121 133 0
120 128 0
129 142 0
123 133 0
120 131 0
113 121 0
112 118 0
130 139 0
121 131 0
123 131 0
124 136 0
115 123 0
120 129 0
131 142 0
123 134 0
125 130 0
127 135 0
124 133 0
119 130 0
120 125 0
127 137 0
130 139 0
137 146 0
126 133 0
128 134 0
124 131 0
134 145 0
125 134 0
132 136 0
122 129 0
127 134 0
127 136 0
116 123 0
125 130 0
136 143 0
130 136 0
130 135 0
138 146 0
131 137 0
131 139 0
136 144 0
132 137 0
135 139 0
133 136 0
136 144 0
134 139 0
132 135 0
142 146 0
139 144 0
134 141 0
139 145 0
131 137 0
136 143 0
141 147 0
136 143 0
136 142 0
135 141 0
132 138 0
143 149 0
143 147 0
143 147 0
142 149 0
137 140 0
139 142 0
150 156 0
149 158 0
147 155 0
149 155 0
153 162 0
140 141 0
140 146 0
146 153 0
143 149 0
151 157 0
152 161 0
156 165 0
154 162 0
150 159 0
148 152 0
151 162 0
151 159 0
158 169 0
154 165 0
160 171 0
155 164 0
154 163 0
156 163 0
156 166 0
155 164 0
156 164 0
157 170 0
156 166 0
156 166 0
155 165 0
151 162 0
158 171 0
148 158 0
157 169 0
159 170 0
160 172 0
162 173 0
160 171 0
157 172 0
156 171 0
161 172 0
161 173 0
159 174 0
162 177 0
159 174 0
161 174 0
165 180 0
164 179 0
165 180 0
163 177 0
157 172 0
161 177 0
162 178 0
161 173 0
166 180 0
162 175 0
163 178 0
165 181 0
159 173 0
159 174 0
165 180 0
165 181 0
168 185 0
168 186 0
168 184 0
167 185 0
164 183 0
166 182 0
164 182 0
168 184 0
165 181 0
168 186 0
165 181 0
164 181 0
167 186 0
168 186 0
167 186 0
174 197 67
173 197 51
174 198 99
171 195 80
176 199 67
174 197 76
172 196 57
172 196 57
173 197 80
169 193 84
172 195 67
170 193 84
169 192 57
174 197 84
172 196 72
175 199 88
170 194 67
174 197 80
171 195 72
174 197 67
175 199 102
174 197 67
173 197 57
174 198 72
170 194 95
174 198 88
172 196 67
174 198 84
172 196 72
174 198 92
170 194 80
174 197 67
169 192 57
170 194 51
170 194 84
171 195 67
171 194 44
165 190 76
165 188 62
168 193 51
169 193 62
169 194 67
165 189 76
167 191 80
169 191 67
173 196 76
169 191 57
169 193 67
169 193 88
167 191 76
172 196 80
167 190 72
169 193 76
168 191 44
166 189 44
165 189 62
169 192 67
170 194 80
168 191 76
169 193 80
168 191 72
171 195 67
171 194 80
171 194 84
167 190 76
170 194 84
167 191 72
169 193 76
166 190 67
162 185 51
161 185 51
168 191 72
165 188 51
168 191 74
157 180 60
149 174 108
132 156 122
127 152 118
104 131 143
91 120 149
94 122 149
91 119 142
86 114 150
91 119 153
96 124 145
87 116 148
87 115 136
94 123 159
95 122 140
86 115 131
99 127 156
95 123 147
91 119 154
112 137 153
87 115 153
105 130 148
91 120 152
88 118 156
109 135 155
101 128 145
87 116 164
91 119 155
104 131 164
87 117 153
90 119 154
89 119 157
84 113 154
90 119 155
89 118 150
90 118 165
91 119 166
72 105 162
74 106 156
72 105 163
66 101 160
79 110 168
76 108 170
71 104 156
70 103 162
76 107 161
70 104 169
70 103 168
67 101 169
67 101 152
70 103 154
61 96 151
63 97 156
65 99 151
64 98 151
60 95 145
68 100 145
63 97 150
61 97 152
64 97 141
63 97 151
62 96 150
63 97 150
60 95 153
62 96 140
58 93 130
63 97 136
57 91 126
60 95 140
60 94 146
61 96 149
60 96 140
60 96 148
59 94 143
59 93 128
59 94 140
60 95 145
59 95 147
61 96 148
60 95 145
59 95 143
60 95 146
61 96 149
60 95 146
58 92 123
59 94 137
60 95 136
60 94 137
60 95 140
60 95 140
59 94 137
62 97 152
60 95 136
59 94 139
61 96 150
61 96 141
60 95 145
60 96 148
61 97 153
61 96 142
61 96 141
61 96 142
61 96 143
61 96 141
61 95 141
60 95 143
60 95 147
61 96 143
61 96 145
59 94 137
62 97 152
61 97 144
60 95 137
59 94 131
61 96 142
59 94 137
61 96 154
61 97 147
60 95 135
60 95 137
61 96 149
60 95 136
59 95 134
61 96 139
59 94 136
60 95 141
61 97 149
59 94 130
61 95 141
61 96 147
60 95 141
61 96 139
61 95 140
61 96 140
61 96 150
60 94 129
60 94 135
61 95 143
60 94 127
61 96 136
59 94 134
61 95 139
60 95 142
59 93 129
60 95 135
60 95 135
60 95 129
60 95 136
60 95 142
60 95 136
59 94 131
60 95 136
61 96 140
61 96 137
60 95 133
61 95 141
61 96 143
59 94 131
59 93 117
60 94 127
58 92 122
61 96 144
61 96 139
61 95 137
60 94 131
58 92 115
59 93 131
60 94 130
59 94 126
58 91 125
60 94 127
60 94 129
59 92 127
58 92 127
59 94 129
57 90 120
61 93 115
82 109 107
92 108 75
106 121 62
116 129 25
113 124 0
128 139 0
122 133 0
126 136 0
129 141 0
126 139 0
118 127 0
125 135 0
131 143 0
127 137 0
130 143 0
121 129 0
126 139 0
130 141 0
124 133 0
123 135 0
123 133 0
135 143 0
120 130 0
126 135 0
126 136 0
127 134 0
128 137 0
119 130 0
127 136 0
134 143 0
120 127 0
118 122 0
126 137 0
131 141 0
129 134 0
133 141 0
131 136 0
132 140 0
130 137 0
137 146 0
120 128 0
123 129 0
130 135 0
127 134 0
124 130 0
131 138 0
140 146 0
136 144 0
135 143 0
136 142 0
129 133 0
129 136 0
119 124 0
132 138 0
133 139 0
132 138 0
131 136 0
143 150 0
143 148 0
141 148 0
141 145 0
142 150 0
143 149 0
147 155 0
140 146 0
142 147 0
140 146 0
138 143 0
146 158 0
144 154 0
145 151 0
143 148 0
146 155 0
149 155 0
148 155 0
149 158 0
149 157 0
142 149 0
144 148 0
145 149 0
148 152 0
147 157 0
143 149 0
152 160 0
154 162 0
143 150 0
146 154 0
152 160 0
154 164 0
152 162 0
151 159 0
153 163 0
154 164 0
157 166 0
155 165 0
157 167 0
155 165 0
152 163 0
155 167 0
147 155 0
154 164 0
152 162 0
156 168 0
154 163 0
156 169 0
157 171 0
161 174 0
159 172 0
158 171 0
155 166 0
159 172 0
162 176 0
162 176 0
165 180 0
162 177 0
164 179 0
160 175 0
161 174 0
155 167 0
164 175 0
163 177 0
167 182 0
160 175 0
163 180 0
166 182 0
164 180 0
163 178 0
163 178 0
166 182 0
163 178 0
162 176 0
168 184 0
164 181 0
164 182 0
164 180 0
165 182 0
168 185 0
168 184 0
158 174 0
168 184 0
163 179 0
167 186 0
164 180 0
161 177 0
167 183 0
165 183 0
167 185 0
170 188 0
170 189 0
173 197 76
174 198 72
172 196 67
172 196 67
172 196 80
171 195 92
171 194 72
173 197 67
170 195 88
172 196 88
170 194 92
176 199 57
169 193 67
174 198 76
173 196 62
169 193 62
168 192 62
171 195 84
169 192 44
169 193 57
175 199 76
171 194 67
167 190 76
174 198 76
171 194 62
168 192 62
175 199 88
172 196 67
170 195 72
173 197 88
171 194 67
168 191 76
172 196 72
171 195 80
171 194 67
173 197 99
167 192 80
171 197 92
164 189 72
167 191 51
169 194 72
169 193 62
168 192 80
171 195 88
166 190 72
171 194 57
166 189 72
170 193 80
167 191 76
167 190 44
169 192 84
168 192 76
172 197 84
164 189 84
167 191 92
167 190 57
166 190 76
171 194 44
166 189 57
168 191 72
168 191 80
167 192 76
168 191 80
170 194 88
165 189 92
166 191 88
164 187 62
166 190 88
169 192 92
167 191 57
169 192 57
167 190 95
168 191 84
166 189 76
166 189 67
159 182 86
147 170 105
127 152 125
108 134 139
82 111 129
89 118 151
99 126 155
101 128 143
95 123 142
80 109 137
87 116 136
85 114 141
91 119 144
86 114 137
99 127 151
95 123 140
101 127 158
93 120 148
90 118 157
95 122 154
90 118 143
96 124 157
90 118 144
95 122 151
85 114 153
105 131 156
103 129 147
90 119 152
84 114 144
89 119 157
90 119 155
87 116 149
89 118 157
96 124 161
95 123 160
78 109 164
86 115 164
89 119 165
74 106 160
87 115 161
76 108 165
79 109 162
72 104 163
75 106 164
81 110 164
69 103 164
64 98 156
69 102 161
72 105 167
71 104 162
68 100 158
65 98 148
59 95 151
68 100 142
70 102 153
58 93 144
61 96 139
68 100 136
59 95 144
62 96 144
58 93 137
62 96 142
60 95 144
62 96 140
61 95 136
58 93 139
61 95 131
61 96 137
58 92 131
61 96 150
61 96 153
60 95 140
61 97 154
59 94 144
61 97 154
60 95 141
60 95 141
59 94 137
60 95 137
59 93 134
60 95 141
61 96 147
59 94 143
60 94 134
60 95 140
60 95 145
59 94 141
61 97 149
60 95 139
59 94 136
61 96 143
60 96 144
61 96 145
62 97 153
61 96 144
60 95 133
60 95 134
61 96 147
60 95 141
59 94 130
62 98 150
60 96 150
61 96 144
61 97 148
61 97 152
60 94 141
60 96 141
60 96 141
61 96 147
61 96 145
60 96 142
61 97 149
61 96 148
62 97 149
60 96 142
60 95 141
60 95 144
60 96 144
60 95 144
59 94 144
60 95 143
60 95 143
62 96 145
60 94 141
62 98 153
61 96 144
61 96 147
59 93 127
61 96 137
61 96 143
62 97 149
61 96 142
60 95 139
60 95 130
59 95 131
61 96 142
59 93 127
59 94 136
61 96 145
60 95 134
60 95 134
60 95 139
60 95 144
61 96 143
60 95 139
60 94 141
60 95 148
61 96 142
58 93 125
61 96 142
60 95 139
59 93 133
59 94 124
60 94 124
60 94 134
60 95 141
61 96 144
59 93 129
58 92 125
59 94 127
59 94 127
60 94 131
59 94 137
59 93 130
59 93 122
58 92 118
58 91 120
60 95 140
60 93 129
59 93 117
59 93 130
60 94 141
58 91 107
56 88 108
57 90 110
66 94 103
89 105 65
103 118 70
119 132 25
115 125 18
117 131 0
125 137 0
130 142 0
116 127 0
125 138 0
123 136 0
136 148 0
105 117 0
126 138 0
114 124 0
125 136 0
132 143 0
130 139 0
117 128 0
134 144 0
134 144 0
127 138 0
114 122 0
123 133 0
120 130 0
123 130 0
135 146 0
131 142 0
127 135 0
131 137 0
136 144 0
119 129 0
128 135 0
130 140 0
126 135 0
128 136 0
122 130 0
132 138 0
131 139 0
131 139 0
139 145 0
131 140 0
131 139 0
127 132 0
131 140 0
135 141 0
138 146 0
129 137 0
136 141 0
133 138 0
135 140 0
130 133 0
136 141 0
137 144 0
130 137 0
134 141 0
136 142 0
137 143 0
133 139 0
138 146 0
142 150 0
138 143 0
136 140 0
134 139 0
146 153 0
143 152 0
143 151 0
148 158 0
141 148 0
146 151 0
146 153 0
137 141 0
142 149 0
146 152 0
145 152 0
145 153 0
145 154 0
150 157 0
144 150 0
150 156 0
138 146 0
155 165 0
141 147 0
155 162 0
154 164 0
151 159 0
145 150 0
152 161 0
154 160 0
152 162 0
147 155 0
155 165 0
150 159 0
152 162 0
149 159 0
154 167 0
161 172 0
152 162 0
153 162 0
159 170 0
156 166 0
157 170 0
157 165 0
157 168 0
160 172 0
158 170 0
162 176 0
160 171 0
163 175 0
159 171 0
159 173 0
158 170 0
156 168 0
159 171 0
157 170 0
162 175 0
162 176 0
160 173 0
165 181 0
163 177 0
167 183 0
163 177 0
161 175 0
161 176 0
166 183 0
160 174 0
161 176 0
164 181 0
161 177 0
164 181 0
168 186 0
164 179 0
167 182 0
166 183 0
169 187 0
161 179 0
166 185 0
164 181 0
165 182 0
167 184 0
168 183 0
165 183 0
164 181 0
166 182 0
166 183 0
169 188 0
167 184 0
171 189 0
165 182 0
167 186 0
173 197 76
171 195 67
173 196 80
173 196 67
177 200 76
172 197 88
170 195 57
172 196 67
171 195 95
172 197 67
170 195 72
173 197 80
173 196 62
170 193 67
168 192 51
169 192 51
172 195 76
174 198 95
173 196 76
167 191 62
171 196 76
171 195 76
171 195 62
170 195 102
174 198 67
171 195 72
172 196 72
172 196 76
171 196 99
171 195 84
169 193 67
170 194 67
169 194 57
169 194 92
171 194 72
169 193 76
170 194 57
169 192 36
168 192 88
165 189 62
170 193 88
170 193 80
169 193 84
173 196 72
170 194 80
168 193 72
167 192 57
169 193 62
168 191 80
167 191 80
165 189 57
168 191 62
165 188 99
168 192 88
172 196 92
167 190 80
168 192 67
169 193 80
163 186 51
163 186 80
165 188 67
165 188 36
168 192 84
161 184 76
165 189 80
171 193 80
170 195 95
166 189 80
159 182 51
164 188 76
168 191 72
164 188 72
161 184 57
168 191 76
167 190 65
166 189 95
148 171 97
139 164 114
120 145 135
82 112 135
103 129 144
111 137 159
87 114 128
95 122 139
81 111 152
90 118 140
77 107 144
111 136 148
98 125 151
80 111 148
85 114 145
92 119 137
94 120 145
103 130 154
92 120 154
94 121 153
99 126 144
102 129 157
105 131 145
93 120 151
97 124 157
98 125 158
102 127 155
95 123 158
101 127 154
99 127 156
99 126 144
88 117 159
91 119 159
82 112 156
91 119 159
80 111 160
81 111 161
92 120 164
80 111 168
72 104 164
70 104 163
82 112 170
78 109 164
78 109 163
71 105 170
66 100 161
70 103 161
70 102 156
62 96 147
67 100 155
67 100 149
63 98 155
63 96 141
62 96 145
66 99 145
70 102 149
62 97 146
66 99 146
62 96 144
65 99 148
61 95 144
62 96 141
59 94 140
61 95 140
61 96 143
61 96 136
59 93 134
58 92 125
60 95 141
59 94 143
59 94 135
60 94 139
59 94 143
60 95 147
59 94 137
59 93 133
59 94 144
61 97 145
60 94 130
60 95 136
59 95 139
60 95 140
59 94 137
60 95 139
60 94 137
60 95 133
59 94 136
59 94 136
60 95 145
60 96 145
62 97 137
62 97 153
61 97 144
59 94 131
61 96 147
61 96 151
61 96 141
59 94 139
61 97 143
60 96 148
61 96 144
61 96 152
61 96 149
60 95 145
60 95 140
60 95 145
60 96 141
61 96 147
60 95 136
61 96 142
61 96 144
60 95 131
60 95 137
60 95 144
61 96 152
59 94 137
58 92 121
61 96 143
60 95 140
61 96 143
61 96 148
61 96 143
61 97 144
62 98 154
61 97 150
60 95 137
61 96 145
62 97 148
59 94 136
61 95 140
60 94 136
61 96 144
61 96 139
60 95 140
61 96 140
60 95 141
61 96 141
61 96 142
60 95 135
60 96 136
62 97 144
60 95 142
59 93 131
59 94 136
60 95 140
60 94 129
60 95 136
61 96 142
60 95 141
60 95 135
60 94 131
60 94 131
61 95 134
60 94 131
60 94 130
60 94 137
59 93 124
59 93 135
60 95 135
59 93 127
61 95 134
60 94 127
58 92 121
59 93 134
60 94 133
60 93 134
61 95 135
59 93 127
60 94 136
58 91 126
56 89 111
57 90 115
59 93 130
64 92 104
88 111 99
101 120 68
114 129 54
114 126 31
124 136 0
129 139 0
119 129 0
99 111 0
123 134 0
121 132 0
124 135 0
128 141 0
124 137 0
129 140 0
121 131 0
123 136 0
140 153 0
123 134 0
136 142 0
123 131 0
118 128 0
122 133 0
127 137 0
126 137 0
128 138 0
131 142 0
120 127 0
123 132 0
132 144 0
130 137 0
118 125 0
124 130 0
138 148 0
124 133 0
125 134 0
130 140 0
131 142 0
142 149 0
122 131 0
127 135 0
134 144 0
135 143 0
131 137 0
128 135 0
127 134 0
141 148 0
136 145 0
126 134 0
138 145 0
133 144 0
139 147 0
144 153 0
143 152 0
132 138 0
146 153 0
145 153 0
135 144 0
139 147 0
134 140 0
138 145 0
142 149 0
135 142 0
142 149 0
141 148 0
137 143 0
143 150 0
139 145 0
146 156 0
143 151 0
145 152 0
146 153 0
140 146 0
138 145 0
153 162 0
153 160 0
147 155 0
144 151 0
149 156 0
144 150 0
142 151 0
146 151 0
148 158 0
158 169 0
154 164 0
149 158 0
153 163 0
148 157 0
148 155 0
152 160 0
152 158 0
156 164 0
155 165 0
149 159 0
153 164 0
153 164 0
156 168 0
153 163 0
155 167 0
157 167 0
152 161 0
157 167 0
160 173 0
158 170 0
156 170 0
158 172 0
160 171 0
157 171 0
161 173 0
163 177 0
162 174 0
162 175 0
161 172 0
157 168 0
162 176 0
157 169 0
158 171 0
164 179 0
164 180 0
158 170 0
160 173 0
163 178 0
160 174 0
161 171 0
162 174 0
160 175 0
158 172 0
160 178 0
159 172 0
164 179 0
165 181 0
167 184 0
166 182 0
162 180 0
166 181 0
165 179 0
167 184 0
163 178 0
169 185 0
163 181 0
165 182 0
167 184 0
163 178 0
168 184 0
165 182 0
168 186 0
166 183 0
167 183 0
162 181 0
164 182 0
163 178 0
174 198 72
175 198 80
174 198 84
172 195 51
172 195 62
170 194 57
171 195 62
173 198 76
175 198 76
174 198 99
173 196 72
172 196 67
174 198 84
169 193 67
173 197 84
173 197 72
168 192 67
171 195 62
174 197 62
173 195 62
161 185 51
170 194 72
172 194 44
174 198 80
171 194 84
168 191 57
170 194 57
173 197 95
170 195 80
168 192 88
167 192 51
169 193 72
171 195 67
171 196 92
171 195 72
170 194 57
166 190 76
169 194 88
170 194 76
170 195 76
167 192 57
165 189 76
166 190 57
169 192 76
170 194 72
171 195 76
169 193 84
161 185 62
169 194 76
171 194 62
166 191 72
168 192 72
163 187 51
166 190 67
170 194 76
166 190 67
169 193 84
170 193 67
165 189 62
169 193 72
167 190 62
167 190 72
167 190 62
166 189 76
164 187 67
163 187 67
164 187 67
163 187 92
164 188 72
165 189 76
162 185 57
165 187 76
165 188 76
167 190 80
164 187 57
160 184 74
158 181 105
146 169 94
132 156 111
111 137 120
90 118 135
87 116 140
93 121 143
90 118 148
94 122 140
95 122 154
103 130 147
87 115 135
88 116 144
89 117 137
98 125 146
97 124 147
97 123 140
92 120 151
105 131 144
98 125 152
106 132 153
97 124 143
104 130 143
91 119 146
113 139 150
91 118 145
99 126 147
103 129 162
86 115 165
89 117 148
89 118 162
102 129 158
98 125 162
90 118 155
88 118 168
90 118 157
86 115 159
82 113 162
77 108 156
86 114 159
70 102 150
77 108 162
82 112 163
82 112 157
71 103 155
65 99 157
68 102 164
68 102 164
64 98 156
64 99 162
60 95 150
65 99 151
70 102 146
68 100 150
62 97 145
67 100 151
64 97 148
63 96 129
63 96 141
66 100 154
63 97 144
66 97 137
59 93 132
60 95 145
59 93 135
61 96 145
59 94 139
60 94 144
59 94 139
60 94 144
60 94 134
60 95 135
59 94 139
59 94 136
59 94 139
58 93 138
60 95 147
60 95 143
61 96 147
61 96 147
61 96 149
60 95 138
60 95 142
61 96 143
60 95 143
59 93 137
60 95 142
59 94 147
59 94 137
60 96 148
60 95 138
59 94 140
61 96 140
61 97 151
60 96 139
59 93 134
59 94 131
60 95 143
61 96 145
61 97 150
60 95 139
61 95 137
61 96 137
59 94 134
61 96 144
60 96 142
60 94 136
61 96 148
60 95 144
60 94 135
61 96 142
61 96 150
60 95 136
60 94 142
61 96 145
60 95 136
62 98 155
61 96 143
61 96 143
61 96 145
61 96 140
61 96 142
60 94 140
60 95 130
60 96 141
60 95 141
60 95 140
61 96 144
59 94 131
60 95 147
60 94 136
61 96 142
60 95 136
60 94 134
60 95 133
58 92 127
60 95 134
60 95 137
60 95 147
59 94 133
60 95 135
60 95 140
61 95 139
60 95 139
61 96 145
59 93 126
60 95 139
59 93 131
60 95 143
58 92 122
60 95 135
60 94 135
59 93 131
59 94 126
59 94 133
59 94 131
59 94 134
61 96 140
60 94 127
58 93 122
59 93 129
59 93 124
58 92 124
59 93 126
57 91 124
59 93 130
59 93 127
59 93 125
58 92 120
58 91 126
58 91 118
58 90 118
57 90 105
68 96 103
74 94 83
100 114 47
114 129 54
114 124 0
127 140 0
122 132 0
113 125 0
128 139 0
123 136 0
121 133 0
129 141 0
129 139 0
121 132 0
123 133 0
128 139 0
125 134 0
128 139 0
124 131 0
123 133 0
131 143 0
133 145 0
127 137 0
122 132 0
128 139 0
130 142 0
131 143 0
131 142 0
136 146 0
124 131 0
129 139 0
130 139 0
118 128 0
127 136 0
133 142 0
138 149 0
137 147 0
128 136 0
134 143 0
130 141 0
137 145 0
135 143 0
136 147 0
127 135 0
136 143 0
145 156 0
128 135 0
133 141 0
131 139 0
135 141 0
134 141 0
136 143 0
139 149 0
138 145 0
138 145 0
140 150 0
142 149 0
140 146 0
143 152 0
140 148 0
142 150 0
138 149 0
149 156 0
137 144 0
145 152 0
144 153 0
141 151 0
137 143 0
147 156 0
149 157 0
146 156 0
147 156 0
142 148 0
146 152 0
144 151 0
145 153 0
140 149 0
144 152 0
148 158 0
153 161 0
148 158 0
153 162 0
150 161 0
149 159 0
153 161 0
154 163 0
152 161 0
152 160 0
156 165 0
151 163 0
149 156 0
156 165 0
155 167 0
150 159 0
153 163 0
155 167 0
155 165 0
151 163 0
159 169 0
155 166 0
151 163 0
154 166 0
158 169 0
155 167 0
161 174 0
149 162 0
158 170 0
159 170 0
155 166 0
160 174 0
159 171 0
163 178 0
164 177 0
160 174 0
161 173 0
160 171 0
160 172 0
157 170 0
162 173 0
158 172 0
160 176 0
159 172 0
161 176 0
161 176 0
161 176 0
163 178 0
164 179 0
163 177 0
165 181 0
166 182 0
159 175 0
164 179 0
161 177 0
164 182 0
165 180 0
163 179 0
166 185 0
169 187 0
165 178 0
166 183 0
169 187 0
161 177 0
163 180 0
171 189 0
159 175 0
167 184 0
165 183 0
164 184 0
171 190 0
166 182 0
166 184 0
172 196 80
174 197 57
174 198 84
170 194 57
174 197 67
171 195 67
168 192 80
173 197 84
173 197 72
169 193 51
175 198 84
173 197 76
168 193 76
171 196 57
174 198 92
171 195 80
173 197 57
166 189 62
170 193 72
164 188 62
175 198 67
170 194 62
170 194 92
170 194 72
173 197 80
170 193 76
168 193 88
170 193 62
167 191 62
170 194 76
171 195 67
173 196 72
169 193 88
169 193 80
170 194 67
165 189 67
171 196 62
170 194 92
172 196 95
172 195 72
165 189 88
171 195 51
169 193 72
172 196 76
169 194 72
165 190 51
169 193 84
168 190 62
165 191 72
164 189 84
168 192 76
165 189 67
166 190 57
161 187 80
168 192 88
165 188 67
168 191 88
168 192 72
170 194 80
160 184 67
164 188 76
163 186 62
160 183 51
163 187 80
167 191 51
165 189 84
166 189 72
163 186 62
165 187 76
169 192 76
168 191 72
156 179 72
163 187 67
163 186 44
156 178 44
163 186 84
169 191 84
149 171 86
131 155 114
116 141 100
108 134 136
86 116 139
95 122 155
91 119 139
98 125 144
101 128 147
95 122 136
81 110 143
94 121 145
101 128 150
99 125 149
91 117 129
96 123 140
84 111 142
82 112 145
89 117 147
100 127 155
94 122 158
99 126 163
103 130 156
91 119 137
94 121 150
101 127 137
108 134 156
105 131 139
100 127 151
93 121 155
99 126 156
89 117 152
99 126 159
92 120 140
94 122 161
83 112 156
86 115 158
82 112 169
81 112 163
83 113 160
74 106 162
74 107 165
75 106 154
76 108 166
60 95 156
63 98 159
67 101 162
69 101 158
64 99 154
66 99 150
72 104 160
63 96 142
65 98 150
63 97 142
65 98 154
65 98 149
64 97 137
61 95 135
59 93 131
63 95 134
66 100 140
62 96 130
60 95 145
59 94 144
58 93 141
65 99 147
63 96 139
61 95 127
58 92 133
59 94 140
59 93 136
59 93 138
60 95 143
60 95 136
59 94 143
60 95 141
60 95 150
59 93 136
60 94 140
59 94 138
60 95 144
60 95 145
59 93 125
59 94 140
60 94 133
60 95 138
60 95 147
60 94 136
60 95 136
59 94 135
61 96 145
61 96 145
61 96 143
59 94 135
61 96 142
61 96 147
60 95 136
60 95 147
60 94 134
61 96 142
60 95 137
61 96 134
59 94 140
61 96 142
61 96 144
60 95 141
60 95 139
60 96 144
60 94 136
61 96 141
61 96 143
60 95 133
60 95 142
59 94 137
60 94 136
60 95 141
61 96 149
60 95 140
61 96 149
60 95 142
60 94 136
60 95 130
60 95 139
60 95 139
61 97 149
59 93 142
59 94 134
59 94 133
59 93 129
59 94 137
60 95 139
61 96 143
60 94 142
61 96 139
60 95 137
61 96 147
59 94 137
59 94 135
61 96 141
60 94 131
60 94 134
60 95 142
59 93 135
61 96 135
61 95 139
60 95 135
60 94 129
60 94 127
61 96 144
60 95 137
61 96 141
59 93 130
59 93 129
60 95 137
59 93 135
60 94 134
60 94 127
58 92 127
60 94 137
58 92 118
59 94 135
57 90 117
59 92 125
58 92 120
57 91 120
59 93 129
58 92 129
57 91 115
59 93 121
56 88 102
59 92 125
65 94 99
90 109 90
110 130 70
110 122 57
118 130 0
118 133 0
119 129 0
125 135 0
133 145 0
120 129 0
125 139 0
123 136 0
121 132 0
124 135 0
127 138 0
120 131 0
124 137 0
128 140 0
124 135 0
126 137 0
121 133 0
128 140 0
130 143 0
130 141 0
134 145 0
129 139 0
118 130 0
122 134 0
125 138 0
133 140 0
133 144 0
140 149 0
127 137 0
124 133 0
116 124 0
128 137 0
138 146 0
117 126 0
137 149 0
135 144 0
135 146 0
141 153 0
133 142 0
134 145 0
136 147 0
132 143 0
136 144 0
132 141 0
131 140 0
138 146 0
129 138 0
135 144 0
137 147 0
137 144 0
133 140 0
144 151 0
127 135 0
136 144 0
139 146 0
133 140 0
134 138 0
136 144 0
143 152 0
137 146 0
147 155 0
144 151 0
145 154 0
141 151 0
149 157 0
144 152 0
141 152 0
138 147 0
147 156 0
146 154 0
140 147 0
143 152 0
151 160 0
142 151 0
146 152 0
144 152 0
146 157 0
151 163 0
144 153 0
151 159 0
147 156 0
155 160 0
149 158 0
151 162 0
153 164 0
152 161 0
145 154 0
159 171 0
154 165 0
156 168 0
157 171 0
152 161 0
156 171 0
152 161 0
159 168 0
154 163 0
160 171 0
157 168 0
152 163 0
163 176 0
154 165 0
159 174 0
158 171 0
160 175 0
161 171 0
158 171 0
157 170 0
165 179 0
158 170 0
163 177 0
163 178 0
162 177 0
161 177 0
158 170 0
160 175 0
160 178 0
161 175 0
169 183 0
161 176 0
162 177 0
159 172 0
165 181 0
158 173 0
158 173 0
166 182 0
159 173 0
166 181 0
165 182 0
164 179 0
164 179 0
162 177 0
165 181 0
168 183 0
165 183 0
165 182 0
163 181 0
166 184 0
163 180 0
164 182 0
166 183 0
159 178 0
165 181 0
164 181 0
166 182 0
162 180 0
163 181 0
165 185 0
168 188 0
168 191 36
173 197 62
170 193 72
174 197 72
174 198 84
174 198 99
170 195 80
172 196 76
172 195 67
167 192 84
170 195 67
169 193 57
171 194 76
163 188 76
168 191 44
171 194 76
170 194 72
168 191 57
175 198 80
170 195 88
171 195 95
166 190 67
168 194 80
170 194 88
165 187 51
172 196 72
169 193 80
168 192 76
171 196 72
169 192 72
169 193 62
170 194 57
166 190 67
171 195 67
169 192 44
169 192 76
168 192 57
170 194 80
169 193 84
168 192 67
164 188 57
169 193 95
167 191 51
164 189 72
168 192 62
169 193 67
166 189 62
170 193 62
170 194 62
166 190 76
167 191 57
164 187 57
169 194 80
166 190 67
171 195 76
168 193 84
161 186 72
163 186 57
165 190 76
164 189 76
168 191 44
169 193 72
162 185 51
167 191 51
167 190 80
169 192 80
167 190 88
164 187 62
164 187 76
162 186 84
168 192 84
168 191 67
165 188 72
160 182 62
160 183 72
163 187 51
165 188 72
162 185 84
152 176 97
142 166 114
115 140 130
90 118 128
99 125 144
90 118 127
82 111 132
86 114 128
103 129 141
81 112 148
87 116 140
97 124 141
91 119 144
86 115 138
90 118 141
92 121 152
97 124 144
89 117 148
98 125 148
95 122 143
83 112 145
101 128 136
93 120 142
99 124 153
91 119 144
99 126 150
102 130 151
89 118 148
107 133 162
96 124 148
89 117 156
86 116 165
78 109 155
98 124 161
77 107 154
91 118 164
85 114 165
86 114 161
82 113 170
75 107 163
72 105 160
68 101 156
79 109 158
83 112 158
72 102 150
69 102 160
72 104 154
64 99 158
79 110 165
71 102 146
61 97 153
65 98 145
62 96 144
66 99 145
65 97 138
66 98 144
63 97 138
61 96 145
66 99 140
60 95 143
60 94 134
63 97 138
60 95 139
64 98 144
59 94 136
63 97 145
63 97 133
58 92 134
61 96 151
57 92 134
59 94 140
60 95 147
59 93 127
60 95 137
61 97 148
61 96 150
59 94 139
60 95 139
60 95 136
61 96 144
60 95 135
59 93 137
60 95 142
59 93 142
59 94 141
60 94 137
60 95 147
60 94 139
60 95 145
61 96 144
60 95 136
60 95 146
59 94 135
60 95 151
61 96 144
59 94 141
61 96 147
58 93 135
61 96 145
61 96 136
60 95 135
60 95 136
59 94 144
61 96 153
60 95 142
61 96 143
60 95 140
59 94 133
60 95 139
61 96 137
60 94 141
61 96 139
61 96 144
62 97 149
61 96 143
59 94 133
60 95 147
60 94 131
60 95 137
59 93 126
60 95 136
60 95 141
60 94 134
61 96 140
61 97 145
60 95 135
59 94 135
61 96 141
61 96 141
61 95 137
60 95 136
60 95 141
59 93 131
61 97 141
59 94 129
61 96 135
59 93 130
60 95 133
59 93 130
60 94 135
59 93 117
61 96 142
60 95 140
59 94 134
58 92 122
58 92 129
60 95 130
60 94 139
60 95 134
60 95 142
58 92 125
61 95 135
60 95 133
59 93 135
59 94 125
60 94 127
59 93 133
60 95 130
58 92 117
58 92 122
59 93 134
58 91 122
59 93 120
56 89 108
60 94 133
59 93 129
57 90 119
57 89 117
56 89 107
60 91 107
85 108 97
106 123 48
101 117 44
122 134 31
131 144 0
109 122 0
122 136 0
133 144 0
113 126 0
120 130 0
115 127 0
115 127 0
123 134 0
116 126 0
119 130 0
117 130 0
130 143 0
109 119 0
133 143 0
123 137 0
133 145 0
128 141 0
123 134 0
130 143 0
136 149 0
120 128 0
133 144 0
128 139 0
130 140 0
122 133 0
115 128 0
127 138 0
127 137 0
123 134 0
127 136 0
132 142 0
134 146 0
141 151 0
122 131 0
123 133 0
126 133 0
135 146 0
135 145 0
130 141 0
134 144 0
132 142 0
130 140 0
138 149 0
130 137 0
135 145 0
137 148 0
134 142 0
137 144 0
125 136 0
137 147 0
135 145 0
139 146 0
138 148 0
144 150 0
143 154 0
139 147 0
142 151 0
143 150 0
143 154 0
145 155 0
146 155 0
141 151 0
141 149 0
136 143 0
143 152 0
141 147 0
146 154 0
148 158 0
144 152 0
149 159 0
142 149 0
147 157 0
151 160 0
149 158 0
152 160 0
143 154 0
150 161 0
146 156 0
152 161 0
148 158 0
146 156 0
150 159 0
153 164 0
150 159 0
153 161 0
154 165 0
155 167 0
156 167 0
156 166 0
150 161 0
154 167 0
157 168 0
153 163 0
156 168 0
161 177 0
154 168 0
159 171 0
162 176 0
158 172 0
157 168 0
162 177 0
157 170 0
154 167 0
156 167 0
157 167 0
161 172 0
162 175 0
160 173 0
161 174 0
161 175 0
161 177 0
164 179 0
163 176 0
164 180 0
163 179 0
164 178 0
161 174 0
166 182 0
162 178 0
166 184 0
160 177 0
163 178 0
166 182 0
162 176 0
163 178 0
162 177 0
163 179 0
166 184 0
166 182 0
163 179 0
166 183 0
164 182 0
165 182 0
163 179 0
166 186 0
169 188 0
164 180 0
168 185 0
163 181 0
169 189 0
164 185 0
164 181 0
164 179 0
163 181 0
163 180 0
165 182 0
166 183 0
170 193 80
172 194 62
175 199 76
176 199 67
174 198 80
171 195 80
172 197 57
171 194 67
174 198 88
173 196 80
172 196 84
170 193 57
170 194 51
171 193 57
168 192 72
170 195 67
170 194 76
169 194 51
171 195 84
169 192 57
170 194 88
169 192 67
171 196 84
167 191 51
167 190 72
169 193 62
168 192 67
167 190 25
171 195 76
170 195 84
172 196 57
166 189 57
169 193 80
168 191 51
165 188 67
173 198 102
168 193 62
164 188 80
170 195 76
169 193 67
165 189 51
167 192 80
170 194 92
168 193 80
170 194 67
172 196 76
170 194 76
168 193 84
166 190 84
167 192 80
164 188 72
170 194 76
160 185 84
167 190 67
163 186 67
167 191 84
164 188 76
166 189 67
162 186 62
166 189 72
167 191 95
162 185 76
158 181 44
161 186 67
163 187 57
165 189 88
166 189 72
163 187 76
169 193 76
169 192 76
163 186 80
162 185 76
162 185 88
164 187 62
161 184 67
158 182 51
163 186 44
161 184 90
153 176 84
135 159 111
118 142 125
106 133 135
89 116 128
94 121 135
89 116 126
88 116 134
89 117 135
95 123 145
94 122 137
96 123 148
101 128 134
93 120 139
92 121 159
75 106 136
88 116 136
103 129 151
106 132 155
86 114 133
90 118 147
107 132 151
89 117 148
97 123 142
90 118 143
101 127 148
100 127 140
88 116 150
89 117 141
97 124 162
89 117 139
86 114 148
101 127 156
105 131 162
89 117 156
90 117 152
76 107 153
74 105 154
71 103 157
87 115 159
76 108 162
79 109 148
75 107 151
72 104 153
64 99 153
78 109 165
67 100 158
70 103 155
61 95 145
63 98 149
66 100 153
66 99 151
71 102 139
65 99 146
66 99 152
64 98 148
61 95 134
62 95 140
60 94 143
62 94 132
63 96 133
60 94 133
59 94 139
63 96 136
59 94 136
62 96 136
60 95 142
62 96 133
61 96 147
60 94 136
59 93 131
58 92 139
59 94 134
60 95 139
60 95 137
61 96 148
61 96 147
60 94 140
59 94 141
60 96 148
59 94 133
60 96 141
58 93 134
61 96 139
61 96 147
61 95 145
60 95 133
60 96 144
61 96 144
59 93 129
60 94 137
61 96 143
59 94 136
61 96 148
59 93 134
59 94 134
60 94 140
61 96 143
59 93 131
60 95 137
60 95 133
60 95 141
61 96 147
58 92 133
58 93 133
58 93 129
61 96 143
60 95 142
59 93 133
60 94 134
59 93 127
60 95 140
59 94 141
59 94 134
59 93 125
61 96 144
60 94 133
59 93 127
61 96 136
60 95 145
61 97 145
60 95 141
60 95 144
59 94 135
60 95 139
61 96 137
60 94 136
60 94 133
58 92 124
60 94 133
60 95 131
60 95 135
58 93 134
60 95 148
60 94 126
60 95 142
61 95 142
60 94 133
59 93 127
60 95 129
60 95 131
60 95 133
60 95 130
59 93 130
60 95 139
60 94 130
61 95 137
60 95 130
60 94 131
58 93 124
59 93 130
60 93 136
57 91 120
59 94 134
58 93 120
60 94 131
61 96 136
59 93 135
59 93 126
59 93 126
58 91 121
58 92 124
59 92 125
59 93 123
59 93 115
59 93 126
57 90 105
57 89 103
56 88 111
64 92 107
103 122 74
110 126 57
108 122 36
110 123 0
115 127 0
117 130 0
121 134 0
113 126 0
126 138 0
124 137 0
124 135 0
127 138 0
121 133 0
129 141 0
138 151 0
118 130 0
126 139 0
115 126 0
125 138 0
127 137 0
126 138 0
129 142 0
129 142 0
135 149 0
119 130 0
124 135 0
129 140 0
140 155 0
125 134 0
135 149 0
133 144 0
129 141 0
132 144 0
137 149 0
131 140 0
126 136 0
139 150 0
138 151 0
132 143 0
123 132 0
131 143 0
137 149 0
137 148 0
132 142 0
139 151 0
129 137 0
136 146 0
136 146 0
133 142 0
135 145 0
132 142 0
135 145 0
142 148 0
144 155 0
142 151 0
137 142 0
139 147 0
145 154 0
142 153 0
149 162 0
153 165 0
140 148 0
144 154 0
139 148 0
140 151 0
141 149 0
142 153 0
148 156 0
144 153 0
147 157 0
152 161 0
154 164 0
145 152 0
141 150 0
149 157 0
150 159 0
155 162 0
139 149 0
149 157 0
148 158 0
145 155 0
155 166 0
149 156 0
150 162 0
150 159 0
156 166 0
154 166 0
153 162 0
153 164 0
154 167 0
153 166 0
150 160 0
147 159 0
156 169 0
159 173 0
156 173 0
145 155 0
154 164 0
162 173 0
152 164 0
150 162 0
158 171 0
155 166 0
164 178 0
156 166 0
160 175 0
152 166 0
152 164 0
151 160 0
161 174 0
159 174 0
159 171 0
156 170 0
157 169 0
158 172 0
161 175 0
157 170 0
165 179 0
156 171 0
158 172 0
163 181 0
160 173 0
164 180 0
162 176 0
161 176 0
165 178 0
165 180 0
163 179 0
161 176 0
161 179 0
165 181 0
163 177 0
164 181 0
161 180 0
160 176 0
166 184 0
168 185 0
164 179 0
166 183 0
164 182 0
164 182 0
167 187 0
161 175 0
169 185 0
166 185 0
167 185 0
167 185 0
164 182 0
169 187 0
167 186 0
168 186 0
167 185 0
173 196 62
172 196 92
169 193 76
170 194 57
174 198 72
172 196 67
172 195 67
172 196 67
173 197 76
171 195 57
168 192 84
169 194 80
170 193 62
172 196 72
171 195 67
173 197 67
171 195 62
171 194 72
171 195 80
168 192 67
169 192 67
166 190 36
168 193 76
172 195 67
170 194 62
170 193 76
172 195 76
170 195 72
168 193 88
170 194 95
167 190 62
167 191 76
172 196 88
170 194 76
169 192 67
169 192 57
166 191 88
170 195 80
170 194 57
164 188 80
169 192 76
164 189 80
167 191 57
165 189 76
172 196 84
169 194 80
171 194 76
170 193 76
167 191 62
169 194 102
164 189 88
168 191 57
167 191 72
166 189 67
165 188 67
166 189 67
167 191 84
165 188 62
165 189 72
165 188 62
163 187 84
164 188 84
165 188 62
165 189 80
163 187 67
167 191 95
166 190 84
168 191 84
164 188 80
166 190 76
165 187 67
166 189 95
166 189 84
164 187 72
162 186 95
167 190 67
161 184 80
158 181 62
158 180 72
144 167 86
133 158 103
108 134 122
100 126 143
80 109 133
89 117 142
100 126 134
98 125 143
98 125 136
88 116 141
87 115 135
87 115 143
96 124 152
95 123 145
100 126 136
89 117 144
104 130 144
90 118 140
93 120 146
95 122 143
106 131 154
93 120 148
91 119 148
98 124 143
94 121 140
94 122 143
106 132 151
102 128 153
101 126 144
86 115 156
102 128 152
91 119 149
87 114 142
101 127 154
86 114 155
91 119 162
82 111 150
74 106 159
85 114 159
80 109 157
77 108 150
69 102 144
68 102 164
68 100 155
68 101 150
66 99 156
78 108 165
68 102 152
65 99 155
72 102 152
69 101 154
72 104 155
66 99 154
59 93 141
59 93 136
59 94 136
67 99 143
63 97 142
65 97 132
62 96 141
61 95 134
64 97 133
61 96 147
62 96 144
59 94 145
61 95 137
61 95 137
57 91 134
60 95 147
59 94 138
62 96 136
60 95 143
59 94 134
59 93 133
60 95 140
60 95 143
58 93 136
60 95 142
59 94 132
60 95 144
60 95 142
60 94 138
59 94 136
59 94 138
60 95 137
59 94 125
61 96 140
61 96 142
59 94 129
60 95 141
60 95 145
59 94 139
59 94 139
60 94 133
59 93 134
60 95 135
58 92 130
60 95 142
60 95 141
61 96 143
61 96 141
60 95 139
61 95 135
62 97 142
60 95 135
61 96 142
60 96 139
60 95 130
60 94 133
60 95 137
59 94 129
59 94 127
60 95 135
60 94 131
60 95 139
61 96 140
60 95 136
60 95 133
59 94 125
60 95 143
60 95 137
60 95 136
60 94 135
59 93 136
61 96 135
62 97 145
59 94 131
59 93 129
58 93 131
61 96 143
61 96 141
59 94 130
61 96 142
62 97 148
60 95 135
61 95 137
60 95 136
59 94 131
59 92 126
59 94 134
59 94 131
60 94 137
61 95 139
61 96 139
60 95 133
59 93 121
60 94 130
61 95 133
59 93 127
60 95 129
60 94 131
60 94 131
59 93 121
58 91 121
60 94 129
60 94 133
60 94 133
58 92 115
58 92 121
60 95 135
58 92 114
59 92 124
58 92 120
58 92 126
57 91 110
57 90 129
61 94 117
65 93 99
77 100 94
104 120 62
110 123 51
116 129 8
124 138 0
121 134 0
131 145 0
132 146 0
119 131 0
127 138 0
121 135 0
133 146 0
127 141 0
123 137 0
119 132 0
125 138 0
126 141 0
127 140 0
139 152 0
122 132 0
127 138 0
122 136 0
122 134 0
130 143 0
127 137 0
137 148 0
134 146 0
126 136 0
136 147 0
132 145 0
129 140 0
131 145 0
123 133 0
133 145 0
128 136 0
124 136 0
136 148 0
135 148 0
140 149 0
125 134 0
143 154 0
130 143 0
136 145 0
136 148 0
142 155 0
133 143 0
138 147 0
139 148 0
145 155 0
140 150 0
137 146 0
137 148 0
141 155 0
140 151 0
134 144 0
135 145 0
136 146 0
145 154 0
135 144 0
139 148 0
150 160 0
146 158 0
145 154 0
135 147 0
141 149 0
147 160 0
150 161 0
138 150 0
146 154 0
146 156 0
147 157 0
145 155 0
144 152 0
148 157 0
145 154 0
150 161 0
149 157 0
144 152 0
154 168 0
152 162 0
150 161 0
149 156 0
150 162 0
151 162 0
151 161 0
147 157 0
152 166 0
159 169 0
151 160 0
152 161 0
158 171 0
153 162 0
157 167 0
157 170 0
154 165 0
151 162 0
154 167 0
152 163 0
160 174 0
153 162 0
157 169 0
160 173 0
154 167 0
156 168 0
158 172 0
157 168 0
151 164 0
158 169 0
157 169 0
161 175 0
158 170 0
154 169 0
158 170 0
153 166 0
157 171 0
162 174 0
159 172 0
161 176 0
161 175 0
164 178 0
161 174 0
164 180 0
157 172 0
164 180 0
164 178 0
165 181 0
162 179 0
160 176 0
165 181 0
164 178 0
164 178 0
165 182 0
168 185 0
162 175 0
162 178 0
167 184 0
166 185 0
164 182 0
166 182 0
163 182 0
165 180 0
165 183 0
167 185 0
163 179 0
166 184 0
166 184 0
166 184 0
170 188 0
162 179 0
171 191 0
164 180 0
167 186 0
171 190 0
174 198 67
174 198 95
173 196 76
175 199 76
171 196 57
172 196 72
173 196 76
175 199 76
170 194 72
172 196 88
174 197 76
170 194 62
171 195 72
170 195 99
172 196 67
170 194 88
172 196 67
173 196 57
163 185 67
170 195 67
170 194 51
171 195 62
170 193 76
171 194 62
166 190 51
172 196 76
172 196 84
169 194 88
165 188 57
164 189 76
171 195 76
171 195 92
171 194 62
169 193 67
167 192 76
168 192 95
169 193 76
167 192 67
169 193 57
167 191 80
169 193 76
167 191 76
169 193 80
171 195 62
167 191 72
163 186 51
171 195 72
166 190 80
161 185 57
165 191 84
163 188 67
161 185 51
166 189 67
166 190 76
162 186 62
169 193 67
165 188 76
163 187 76
160 184 76
164 188 57
161 186 67
165 189 62
169 192 67
161 185 76
161 185 72
162 185 76
165 187 67
157 180 67
159 182 51
167 190 67
163 187 95
162 186 76
159 183 88
166 190 80
156 178 57
156 179 62
161 184 72
162 185 99
164 186 80
156 177 72
147 170 105
115 141 110
106 131 122
102 129 148
91 119 139
101 127 136
86 115 126
92 120 143
86 114 149
86 114 134
78 107 124
99 125 140
78 108 150
103 129 148
96 123 132
95 123 144
82 111 138
100 125 149
89 116 139
100 126 149
93 121 144
93 120 144
99 125 149
94 121 153
99 125 144
86 115 145
96 123 147
90 118 145
88 117 143
95 122 138
99 126 152
92 119 151
90 118 147
92 120 145
89 118 156
81 112 154
76 106 149
83 112 146
81 111 154
71 103 150
83 113 158
71 103 159
70 103 152
67 100 155
76 106 160
70 102 154
72 104 160
63 97 155
67 100 158
69 101 153
64 99 148
65 99 152
71 102 147
62 96 137
64 97 144
66 98 138
69 101 138
61 95 132
64 97 134
67 100 140
63 96 140
59 94 136
59 93 139
60 94 128
58 93 124
65 99 143
59 94 137
62 96 140
59 93 139
58 92 130
59 93 129
59 94 127
59 94 141
58 93 131
59 94 124
60 94 141
61 96 142
60 95 140
60 95 146
60 95 142
61 96 144
58 92 134
59 93 130
60 95 143
59 94 138
59 93 131
61 96 137
61 96 140
60 95 135
60 96 145
60 95 140
61 96 150
61 96 136
60 94 134
61 95 136
59 94 124
60 95 141
60 95 143
61 96 141
59 94 137
60 95 144
60 95 144
59 94 124
61 96 143
60 95 130
60 94 135
60 96 140
59 94 129
58 91 129
59 93 130
59 94 139
61 96 147
59 93 126
59 94 131
60 94 136
59 94 126
61 96 140
60 95 137
61 96 137
58 92 120
61 95 137
60 95 140
61 96 145
59 94 134
60 94 135
60 95 135
60 94 129
61 96 144
60 94 127
60 94 134
59 94 126
60 95 139
59 94 137
61 95 134
59 94 131
60 95 139
60 94 127
60 94 136
60 94 134
61 95 137
59 94 130
59 94 122
61 96 144
59 93 130
60 94 130
60 95 129
60 94 129
59 93 127
60 94 130
59 93 130
60 95 126
58 92 118
57 91 118
57 90 118
60 95 129
60 93 130
60 94 131
59 93 124
59 92 126
58 92 122
58 91 118
58 91 121
58 91 110
57 91 110
57 90 117
66 96 98
78 103 101
85 103 63
107 121 54
109 121 31
124 138 0
122 135 0
119 130 0
114 124 0
130 141 0
138 150 0
132 144 0
124 136 0
129 141 0
119 130 0
123 138 0
122 135 0
134 147 0
127 141 0
124 135 0
125 135 0
132 142 0
128 139 0
127 140 0
130 143 0
133 145 0
137 147 0
127 139 0
127 139 0
130 144 0
133 146 0
126 139 0
132 143 0
123 131 0
128 139 0
135 146 0
140 152 0
134 146 0
122 132 0
142 153 0
133 143 0
146 158 0
134 145 0
132 144 0
128 138 0
139 148 0
135 145 0
137 148 0
132 142 0
144 156 0
138 150 0
143 153 0
139 148 0
138 147 0
127 136 0
141 150 0
140 151 0
143 153 0
146 151 0
148 160 0
148 159 0
141 150 0
137 145 0
139 150 0
140 150 0
146 156 0
149 160 0
142 151 0
144 157 0
150 160 0
145 156 0
144 152 0
144 153 0
151 162 0
145 155 0
145 155 0
149 160 0
154 164 0
147 157 0
149 160 0
153 167 0
150 162 0
149 160 0
156 167 0
156 168 0
149 159 0
151 162 0
151 160 0
146 157 0
150 164 0
153 165 0
152 164 0
161 171 0
151 161 0
152 167 0
153 166 0
157 171 0
151 159 0
153 166 0
153 160 0
157 169 0
159 173 0
158 171 0
161 175 0
154 166 0
158 173 0
159 171 0
160 172 0
156 170 0
160 173 0
160 175 0
158 173 0
162 178 0
161 176 0
157 171 0
161 173 0
158 172 0
159 172 0
165 180 0
162 180 0
161 177 0
161 176 0
160 174 0
161 175 0
168 185 0
168 183 0
162 178 0
164 179 0
167 182 0
167 182 0
162 176 0
162 180 0
166 183 0
162 179 0
162 177 0
165 183 0
160 178 0
164 182 0
165 182 0
168 186 0
162 179 0
166 183 0
166 185 0
164 182 0
162 179 0
168 185 0
165 183 0
167 183 0
169 187 0
166 185 0
165 184 0
168 185 0
161 180 0
168 184 0
168 186 0
174 197 62
169 193 57
174 198 62
173 197 80
172 196 62
171 195 76
171 194 76
169 192 76
170 195 88
172 196 95
171 195 51
172 196 67
168 193 72
169 193 80
171 195 62
171 195 62
170 194 80
170 194 67
170 194 72
168 192 57
167 192 72
169 192 76
170 194 76
170 194 80
168 193 76
171 193 51
171 194 67
169 192 51
168 191 57
166 191 80
167 190 51
169 194 72
164 187 51
168 192 57
166 191 67
167 191 80
168 191 51
171 195 67
168 193 88
164 188 80
172 196 80
168 192 57
167 191 72
167 192 84
166 190 76
164 189 76
163 188 72
168 192 72
163 187 76
159 184 67
166 190 76
166 190 67
167 191 76
172 196 84
168 192 67
166 190 92
160 184 62
164 188 62
170 194 95
162 186 62
163 187 72
166 190 62
164 187 67
167 190 72
164 187 67
163 187 72
161 186 72
160 183 88
160 184 84
163 185 57
166 189 67
153 174 51
161 185 62
164 187 80
160 184 67
156 178 67
162 185 62
159 183 62
165 188 72
158 181 67
147 170 67
135 158 105
120 145 126
97 124 120
98 124 126
74 104 121
83 113 142
87 115 131
91 118 129
97 124 147
82 111 141
98 125 141
91 118 142
105 130 155
98 124 144
90 118 148
91 117 127
91 118 139
99 124 145
106 132 150
102 127 141
96 123 147
97 124 145
95 123 143
100 127 145
95 123 149
101 127 149
87 115 132
110 136 156
83 112 152
88 116 150
94 121 150
100 126 157
95 122 156
81 112 152
87 116 153
98 124 156
82 111 149
84 114 157
85 112 153
67 100 151
78 107 147
78 108 161
67 101 157
80 111 167
73 105 155
64 98 158
65 98 152
79 108 153
68 100 153
65 99 145
71 100 142
63 98 153
61 94 139
71 101 134
64 98 145
62 96 139
59 94 137
67 100 140
68 100 142
60 94 131
58 92 133
62 96 125
67 100 134
59 93 135
62 96 134
60 95 133
61 95 132
57 91 132
59 94 137
59 94 135
58 93 134
59 93 137
60 95 130
59 94 139
60 94 139
61 96 147
58 92 136
60 95 139
59 94 133
60 95 147
58 93 125
60 95 137
60 95 139
59 93 127
60 95 144
60 95 139
60 94 137
59 94 138
60 95 133
60 96 137
60 94 143
60 95 140
61 97 150
60 95 136
60 96 139
60 95 144
60 95 143
61 97 150
60 95 139
59 93 124
61 96 141
60 95 136
60 95 134
59 94 134
59 94 130
60 95 135
58 93 122
59 94 135
59 94 133
61 95 139
60 94 130
60 94 126
60 94 136
59 93 133
59 94 134
61 96 143
60 94 129
59 94 134
58 93 126
62 97 150
60 95 136
60 94 131
60 94 127
60 95 139
60 95 135
61 95 135
59 93 133
60 94 139
60 94 140
60 95 131
62 97 142
60 95 130
62 97 141
59 93 131
59 93 136
60 95 136
59 93 126
60 95 137
60 95 137
59 94 130
59 93 121
60 94 125
60 95 131
60 95 136
58 92 124
59 93 124
59 93 121
60 94 133
59 93 125
60 94 126
59 93 129
59 93 127
59 93 114
61 95 137
59 93 125
58 92 126
57 90 117
60 94 135
59 93 132
57 90 110
60 94 131
58 91 120
58 90 115
64 94 99
78 104 102
95 115 80
113 128 67
117 129 25
118 130 18
125 138 0
119 131 0
122 136 0
118 130 0
129 142 0
117 131 0
132 145 0
124 138 0
125 136 0
122 135 0
132 145 0
128 140 0
123 139 0
125 135 0
128 142 0
121 135 0
128 140 0
129 143 0
127 142 0
120 134 0
129 144 0
131 142 0
141 154 0
128 141 0
136 148 0
138 152 0
133 145 0
131 141 0
134 147 0
137 150 0
130 144 0
142 156 0
131 141 0
137 148 0
136 149 0
142 152 0
137 149 0
129 141 0
137 148 0
134 145 0
132 142 0
139 152 0
136 146 0
144 154 0
142 155 0
135 146 0
138 152 0
137 151 0
146 155 0
144 155 0
143 153 0
137 147 0
145 156 0
136 145 0
144 156 0
139 147 0
145 156 0
130 139 0
145 158 0
137 150 0
139 151 0
141 150 0
149 159 0
147 158 0
141 150 0
149 162 0
143 152 0
147 159 0
150 163 0
147 158 0
150 163 0
152 161 0
146 159 0
145 154 0
142 151 0
150 161 0
149 162 0
152 163 0
153 162 0
145 153 0
149 160 0
148 157 0
153 164 0
150 161 0
157 171 0
153 165 0
158 172 0
147 158 0
148 160 0
158 169 0
154 165 0
156 165 0
158 174 0
161 174 0
150 164 0
159 172 0
158 172 0
154 165 0
153 163 0
159 174 0
164 179 0
158 172 0
160 173 0
157 169 0
158 171 0
158 172 0
161 175 0
156 171 0
158 171 0
155 170 0
158 175 0
159 173 0
159 175 0
160 174 0
160 175 0
162 179 0
156 171 0
163 180 0
165 181 0
160 178 0
162 177 0
166 185 0
161 179 0
162 178 0
162 177 0
164 182 0
162 179 0
163 179 0
164 180 0
165 182 0
161 178 0
164 181 0
166 182 0
166 182 0
162 178 0
163 178 0
164 182 0
166 184 0
164 181 0
166 188 0
165 182 0
162 179 0
164 181 0
166 185 0
165 183 0
169 186 0
165 183 0
167 187 0
169 188 0
166 185 0
171 195 108
174 198 84
174 199 80
171 195 67
171 194 80
172 196 76
170 194 76
167 191 44
170 194 67
172 196 80
169 192 67
169 193 80
169 193 67
172 196 84
169 193 62
171 196 80
170 194 80
169 193 76
173 196 80
170 195 67
169 193 72
169 192 72
170 195 67
168 192 67
170 195 92
169 193 72
172 196 67
169 192 80
166 190 84
168 192 80
172 196 80
167 192 76
166 190 72
172 196 62
172 196 76
171 196 80
172 196 72
171 195 72
164 188 72
168 192 44
166 190 67
167 191 76
164 188 88
164 189 72
164 189 92
166 191 76
164 189 57
169 192 72
170 195 92
170 195 88
170 194 99
160 184 67
171 194 92
168 192 62
166 188 80
168 193 76
165 189 84
164 188 67
164 188 67
162 186 92
167 192 76
168 192 62
161 185 67
166 189 72
167 191 72
163 187 72
164 188 57
163 186 67
164 187 67
163 186 72
158 181 72
164 187 62
159 183 84
161 184 67
165 189 67
153 177 51
160 183 72
161 184 80
163 187 84
157 179 62
157 180 76
142 166 84
132 156 102
96 123 116
95 122 136
98 125 136
90 118 135
104 130 136
88 116 133
90 118 139
95 122 140
92 120 133
93 120 136
97 124 147
94 121 133
92 119 146
97 124 138
103 129 150
102 128 145
97 124 145
96 123 149
103 128 144
89 117 136
91 118 135
113 137 161
86 113 142
101 126 147
101 127 155
99 126 144
88 115 149
102 128 140
85 113 151
93 120 147
81 111 156
88 116 157
95 123 164
84 112 148
89 117 152
92 121 170
84 111 146
82 112 154
81 112 159
68 100 151
75 106 164
73 105 153
71 103 153
80 111 157
68 100 144
68 100 151
61 96 148
73 103 151
64 98 141
59 94 145
66 98 134
67 99 137
73 104 139
59 94 143
67 98 141
61 96 144
62 96 136
61 95 148
58 92 134
63 97 139
60 95 137
59 93 137
59 94 136
62 96 135
60 95 143
61 95 141
61 95 146
59 94 137
59 93 133
61 96 142
60 94 134
60 95 142
59 94 137
60 95 148
60 94 142
58 92 124
61 96 141
59 93 127
60 95 141
60 95 145
59 94 132
60 94 139
60 94 135
59 94 139
61 97 152
60 95 142
59 93 134
59 94 139
59 94 135
59 93 138
60 94 141
60 95 142
62 97 144
59 94 134
61 96 142
58 92 125
60 95 135
60 95 136
60 94 127
60 95 135
60 95 140
60 95 133
59 94 133
60 94 130
58 92 122
59 93 124
59 94 126
60 94 134
61 96 137
60 95 131
61 95 141
61 96 145
59 94 129
60 95 141
61 96 140
58 92 124
60 94 124
59 93 135
60 94 127
60 95 130
61 96 139
60 94 115
60 94 133
59 93 134
59 94 134
58 92 111
58 92 124
60 94 131
59 93 121
59 94 136
60 94 127
60 94 135
57 90 113
59 93 133
59 94 125
61 96 137
58 92 122
59 94 134
60 95 134
60 94 129
60 95 134
59 93 115
60 94 136
58 91 121
60 95 137
59 94 125
59 93 130
60 95 130
59 93 126
60 94 126
57 90 122
59 93 126
58 91 124
57 90 108
60 94 124
60 94 133
57 90 110
57 90 117
59 92 124
58 92 114
59 90 108
65 92 97
94 114 78
110 128 57
113 126 47
130 144 0
115 130 0
121 135 0
120 132 0
118 130 0
126 140 0
126 140 0
116 129 0
128 141 0
123 138 0
121 136 0
138 152 0
126 139 0
128 141 0
130 142 0
127 141 0
134 148 0
120 134 0
125 137 0
137 151 0
129 142 0
129 141 0
136 149 0
139 150 0
136 148 0
134 146 0
139 149 0
130 142 0
133 146 0
138 151 0
143 156 0
121 132 0
132 145 0
129 142 0
139 147 0
137 150 0
128 140 0
141 154 0
130 141 0
132 145 0
139 151 0
133 146 0
134 145 0
137 150 0
134 146 0
130 139 0
139 152 0
140 151 0
148 160 0
139 151 0
137 147 0
136 148 0
151 165 0
144 153 0
146 161 0
133 144 0
146 158 0
147 157 0
148 159 0
136 148 0
147 158 0
139 152 0
146 158 0
144 157 0
137 146 0
148 158 0
144 154 0
148 161 0
142 150 0
154 166 0
146 156 0
140 151 0
146 158 0
149 161 0
151 164 0
149 160 0
154 166 0
143 153 0
148 161 0
141 151 0
154 167 0
156 167 0
153 165 0
149 158 0
150 163 0
156 167 0
148 159 0
149 159 0
147 158 0
156 166 0
153 166 0
152 164 0
158 170 0
156 168 0
159 174 0
158 173 0
160 174 0
155 169 0
162 175 0
160 172 0
158 169 0
156 170 0
153 166 0
155 173 0
155 170 0
161 175 0
164 178 0
158 171 0
162 176 0
158 174 0
160 174 0
154 169 0
162 180 0
159 172 0
159 175 0
163 178 0
162 177 0
165 182 0
164 179 0
165 181 0
157 172 0
160 175 0
165 181 0
163 179 0
159 173 0
165 180 0
165 182 0
160 177 0
162 179 0
164 181 0
168 187 0
168 184 0
164 180 0
165 179 0
160 176 0
166 184 0
163 181 0
161 177 0
165 182 0
167 186 0
166 183 0
165 183 0
164 182 0
168 189 0
161 179 0
170 189 0
170 189 0
164 181 0
166 184 0
170 188 0
169 189 0
167 185 0
172 196 67
170 194 62
171 195 57
172 195 80
169 193 62
170 194 57
171 194 76
169 193 80
171 195 62
171 195 76
171 195 57
173 196 72
172 196 88
172 195 57
169 194 80
167 191 51
172 196 84
167 191 62
167 192 80
171 195 72
170 195 62
175 199 92
173 196 67
167 191 84
169 193 72
170 194 72
173 197 76
169 194 72
170 194 57
171 195 84
171 195 76
169 193 67
169 193 76
168 192 62
171 196 88
168 192 72
165 189 62
169 194 62
167 191 80
166 190 72
165 190 80
166 191 88
167 192 92
162 186 88
169 193 57
159 184 80
168 193 84
166 191 72
166 190 62
160 184 80
166 189 51
164 188 44
163 185 72
165 188 76
165 189 44
161 185 72
166 190 72
166 190 57
165 189 76
165 189 84
161 184 72
164 189 88
164 188 57
160 184 67
164 186 80
169 192 80
160 184 62
165 189 57
165 188 67
160 183 44
160 183 62
149 172 84
163 187 57
159 182 80
162 186 80
166 189 88
163 186 80
161 184 88
159 183 95
161 185 72
159 182 88
157 181 95
140 163 99
122 147 100
101 126 121
87 115 135
76 106 132
84 112 133
88 115 134
87 116 149
88 115 130
91 119 143
93 119 135
87 115 134
93 119 131
85 113 133
101 128 139
99 125 151
91 118 140
99 125 134
83 112 151
101 126 145
89 117 147
91 118 141
108 133 156
89 117 146
97 124 145
95 122 142
97 123 141
87 115 139
105 131 148
103 129 154
88 116 152
93 121 158
92 119 149
93 120 148
97 122 155
83 112 153
88 116 154
87 116 157
77 107 150
81 110 158
73 105 149
76 106 144
73 104 155
70 102 161
73 104 148
75 104 147
71 103 141
68 100 153
77 107 156
72 103 147
68 100 147
73 103 146
61 96 143
67 99 132
66 100 145
63 96 138
76 105 137
62 96 138
69 102 137
64 97 136
64 98 134
62 95 137
60 95 143
60 93 121
59 93 126
60 93 126
57 91 124
60 95 135
60 94 126
59 94 127
58 93 126
59 93 127
59 93 126
60 95 136
61 96 145
61 96 150
60 94 134
59 93 136
59 93 130
61 95 137
59 94 130
61 95 145
59 93 129
60 95 139
60 95 137
61 96 141
59 93 130
59 93 135
60 95 138
60 95 139
60 94 129
61 96 142
61 95 142
58 91 118
61 96 147
61 96 148
60 95 140
59 93 130
60 95 140
59 93 131
60 94 127
60 95 142
58 91 121
59 94 133
61 95 141
59 94 134
60 95 140
60 95 134
61 96 141
60 96 140
61 96 142
59 94 140
59 93 126
61 96 141
60 95 136
60 95 137
61 95 141
60 95 141
61 96 141
59 94 134
60 95 136
59 94 127
58 92 121
60 95 137
60 94 134
59 93 125
60 95 142
60 94 129
60 94 130
59 93 129
58 92 125
60 95 136
60 94 127
60 95 134
60 94 135
59 94 130
59 93 139
59 93 124
56 90 105
59 93 130
60 95 133
58 92 125
58 92 124
60 94 131
58 92 124
60 94 130
60 94 124
60 95 126
59 92 114
59 93 122
58 92 124
58 91 124
57 91 115
58 92 117
54 87 97
59 92 131
58 92 117
58 92 124
59 92 124
58 92 114
62 92 111
72 99 100
84 105 80
103 121 60
110 126 40
115 130 25
123 138 0
114 129 0
124 136 0
117 131 0
129 145 0
133 145 0
119 132 0
127 140 0
119 131 0
124 136 0
125 138 0
137 151 0
118 133 0
129 143 0
122 135 0
132 145 0
122 136 0
115 129 0
125 141 0
140 152 0
126 139 0
129 140 0
140 153 0
123 137 0
131 144 0
138 148 0
139 153 0
133 147 0
127 138 0
125 137 0
137 152 0
137 148 0
138 148 0
138 152 0
130 140 0
144 157 0
133 142 0
136 147 0
131 144 0
133 144 0
140 152 0
141 152 0
136 150 0
133 141 0
136 148 0
139 149 0
146 160 0
141 151 0
135 143 0
143 156 0
142 152 0
147 158 0
144 155 0
145 157 0
139 152 0
143 154 0
138 152 0
147 158 0
148 162 0
139 149 0
143 155 0
146 157 0
148 158 0
139 149 0
140 149 0
148 161 0
139 149 0
150 163 0
153 165 0
144 155 0
143 154 0
147 158 0
144 155 0
151 163 0
150 162 0
153 163 0
145 156 0
144 158 0
151 162 0
152 162 0
154 167 0
145 156 0
151 163 0
153 165 0
156 171 0
151 163 0
148 162 0
152 166 0
154 166 0
156 169 0
155 168 0
155 167 0
154 165 0
158 172 0
158 175 0
160 174 0
160 174 0
157 169 0
160 174 0
156 170 0
156 170 0
153 166 0
155 168 0
159 173 0
152 163 0
157 172 0
157 170 0
163 179 0
155 167 0
158 171 0
160 177 0
164 178 0
159 174 0
163 179 0
162 178 0
159 173 0
160 175 0
162 177 0
158 171 0
165 181 0
164 180 0
166 182 0
160 176 0
163 177 0
160 175 0
164 179 0
163 182 0
164 181 0
167 185 0
164 181 0
162 179 0
166 181 0
166 182 0
165 184 0
166 185 0
164 180 0
162 181 0
167 184 0
166 183 0
166 184 0
164 183 0
164 183 0
163 180 0
166 182 0
166 183 0
170 188 0
165 185 0
166 185 0
162 181 0
165 182 0
168 188 0
163 181 0
171 195 67
169 193 72
174 197 67
172 195 72
171 195 72
172 197 84
175 199 95
169 194 62
169 193 88
173 196 57
174 198 92
173 197 72
172 196 84
173 197 84
172 196 84
170 194 67
170 195 88
172 196 76
172 196 51
173 198 84
167 190 67
168 191 62
168 192 72
165 190 76
173 196 76
170 193 88
166 190 72
167 191 76
169 193 88
169 194 84
167 192 80
168 192 51
167 191 67
166 189 67
168 192 84
169 193 51
173 196 80
167 191 76
169 192 51
167 191 76
164 188 67
169 193 80
167 192 76
161 186 72
169 193 80
169 192 57
165 188 67
166 190 72
169 192 67
162 186 72
164 187 62
163 185 51
166 190 67
162 186 62
165 189 80
162 186 62
166 190 62
163 187 62
167 191 72
160 184 57
169 192 62
163 185 57
166 189 72
164 188 76
160 183 62
162 184 62
167 190 67
165 187 84
158 181 92
160 184 51
164 188 62
164 188 76
157 180 62
151 174 44
157 180 72
154 178 88
163 187 80
161 183 84
161 184 84
161 184 57
157 180 80
154 176 67
154 178 86
134 157 103
111 136 107
99 125 129
99 126 140
93 120 126
86 114 129
98 124 133
91 119 137
95 123 149
94 121 133
94 121 135
97 124 155
101 128 144
86 114 139
90 117 136
89 117 148
97 124 137
98 124 151
97 123 132
95 121 147
90 117 140
103 128 152
97 124 149
89 115 128
88 115 132
92 119 146
96 122 143
94 120 143
94 121 140
80 110 140
92 120 155
105 130 155
89 116 147
93 121 148
86 116 151
89 118 154
84 114 158
79 108 152
85 114 154
73 104 157
82 111 152
73 105 159
73 104 151
68 101 146
69 101 154
68 101 155
70 101 146
75 105 150
72 103 150
63 96 146
65 97 139
65 98 134
66 98 133
61 96 151
63 97 149
58 92 127
58 92 134
59 93 127
66 98 121
60 92 119
58 93 130
61 95 130
57 91 126
58 93 129
59 93 137
64 98 143
60 94 142
60 94 129
60 94 140
58 92 131
57 92 134
60 95 134
59 93 133
59 93 137
60 95 135
61 96 143
58 92 126
59 94 130
59 93 129
59 93 129
60 95 136
60 95 137
60 95 134
60 94 140
59 93 127
59 93 137
60 95 137
60 94 136
60 94 134
59 94 131
59 94 136
60 94 139
60 94 137
60 95 143
58 92 124
59 94 130
59 94 136
59 94 135
59 94 139
59 94 139
59 94 137
60 95 135
60 95 145
59 94 125
60 95 133
60 94 140
60 94 129
59 93 127
60 94 135
61 96 140
61 96 145
60 95 130
62 97 144
60 95 134
59 93 127
59 93 130
60 95 133
58 92 126
58 93 129
60 94 124
60 94 131
59 94 121
60 94 135
60 95 136
61 95 137
59 93 129
61 96 136
59 93 129
59 94 130
59 93 129
59 94 131
59 93 126
58 92 125
59 93 126
58 93 126
60 95 126
59 93 129
58 92 121
60 94 130
60 94 133
60 95 137
59 93 130
60 94 129
56 89 102
60 94 127
58 91 117
59 92 124
58 92 124
58 92 118
58 92 115
57 89 120
57 90 117
58 92 125
60 93 130
60 94 125
58 92 114
58 92 117
57 91 107
57 90 117
61 91 99
88 109 84
96 115 54
116 130 36
116 129 25
123 137 0
124 138 0
128 142 0
119 132 0
128 143 0
120 133 0
132 147 0
117 131 0
125 138 0
132 148 0
124 137 0
125 138 0
129 142 0
132 147 0
130 144 0
122 136 0
128 142 0
133 147 0
131 144 0
126 141 0
126 136 0
136 151 0
134 147 0
127 139 0
143 156 0
132 144 0
138 150 0
130 143 0
145 159 0
139 152 0
134 145 0
131 144 0
139 151 0
129 143 0
140 154 0
129 142 0
143 154 0
127 139 0
143 155 0
132 143 0
146 158 0
138 152 0
142 155 0
132 144 0
137 147 0
130 141 0
141 152 0
139 152 0
130 140 0
141 152 0
132 140 0
145 158 0
147 159 0
144 155 0
143 156 0
145 157 0
145 158 0
136 145 0
143 155 0
145 159 0
145 162 0
145 160 0
141 154 0
146 159 0
145 155 0
137 149 0
136 149 0
148 159 0
145 157 0
152 165 0
143 154 0
145 156 0
150 162 0
149 161 0
158 170 0
153 167 0
157 171 0
155 169 0
150 163 0
154 163 0
151 163 0
150 162 0
148 162 0
148 162 0
155 167 0
151 163 0
153 168 0
152 165 0
152 166 0
154 167 0
149 163 0
155 169 0
156 171 0
158 173 0
154 168 0
154 167 0
154 167 0
154 169 0
153 163 0
155 170 0
154 169 0
155 170 0
153 165 0
159 172 0
162 178 0
166 183 0
162 177 0
163 177 0
164 181 0
160 171 0
158 170 0
158 171 0
163 179 0
160 176 0
160 176 0
162 175 0
160 175 0
157 173 0
156 169 0
165 180 0
165 183 0
161 177 0
163 180 0
157 172 0
164 179 0
166 184 0
163 179 0
165 182 0
162 178 0
163 180 0
163 182 0
164 179 0
161 178 0
166 183 0
166 185 0
164 182 0
163 179 0
164 181 0
157 176 0
161 179 0
164 181 0
161 181 0
168 186 0
162 180 0
168 185 0
164 183 0
165 184 0
163 184 0
163 179 0
168 186 0
165 184 0
164 183 0
162 180 0
172 196 72
164 188 67
166 190 57
170 193 62
172 196 67
174 198 72
172 197 80
169 193 84
173 196 57
169 193 51
168 192 51
169 192 67
170 194 76
171 194 57
172 195 62
170 194 84
171 194 51
170 194 67
165 191 80
170 194 62
168 192 80
170 193 62
170 193 76
169 194 88
169 193 72
172 196 84
173 198 99
170 193 62
167 191 88
171 195 67
173 198 99
165 190 92
171 195 67
171 195 76
163 187 88
169 193 92
166 190 62
166 190 72
169 194 76
167 191 76
168 192 72
164 188 67
173 196 51
169 193 62
162 185 72
162 185 67
164 188 57
168 192 57
172 196 88
164 189 80
162 185 57
160 183 51
163 186 92
164 187 62
167 190 72
161 185 76
165 190 80
160 185 62
166 190 62
165 188 72
168 191 80
167 191 57
165 189 67
164 189 84
164 187 76
160 184 76
161 185 88
163 186 72
160 183 92
157 180 65
162 185 57
161 185 72
163 187 62
157 180 62
161 184 62
162 185 72
161 183 76
162 186 67
162 185 62
159 182 72
157 179 92
160 182 76
157 181 76
147 170 97
119 143 92
111 136 125
85 113 117
99 125 139
96 123 143
86 113 125
88 117 133
85 113 122
105 130 138
98 125 148
94 121 128
93 119 136
87 115 138
99 125 146
109 134 141
93 120 145
99 126 155
86 113 133
94 120 132
84 113 134
97 122 137
97 124 143
101 127 148
95 122 145
78 107 142
93 120 127
88 115 129
102 127 146
97 125 154
97 124 135
97 122 147
90 117 139
79 110 146
97 123 154
86 114 138
90 117 158
73 104 144
82 110 144
75 106 158
90 115 147
71 103 143
76 105 157
74 104 161
74 105 152
64 99 151
74 103 148
67 100 147
69 101 144
72 103 148
66 98 142
65 98 142
66 98 147
62 96 141
67 99 141
64 97 136
63 97 134
58 92 134
66 99 144
62 95 132
58 93 122
61 94 130
60 94 141
61 94 120
57 91 119
60 94 133
63 98 140
60 94 132
61 96 144
59 94 134
59 94 133
60 95 137
60 94 139
57 91 125
59 94 132
58 92 124
59 93 129
58 93 122
57 91 116
59 93 123
60 95 133
58 93 134
59 94 131
60 94 131
58 93 125
58 92 117
60 95 143
60 95 136
60 94 135
59 94 131
61 95 140
60 94 139
60 95 142
59 94 130
59 93 134
60 95 137
60 95 140
58 92 129
60 95 135
59 94 134
59 93 122
61 96 140
60 95 135
61 96 145
60 95 137
60 94 126
59 94 129
60 94 139
60 95 129
60 95 140
60 95 145
59 94 122
61 95 139
59 93 122
59 93 135
60 94 140
60 94 127
59 93 121
59 93 122
60 94 135
60 95 137
58 92 124
59 94 126
59 93 131
61 96 147
61 95 139
59 93 134
60 95 129
60 95 143
58 92 126
56 89 114
60 94 134
59 93 121
60 95 134
59 93 130
57 90 118
59 93 126
60 94 134
57 91 117
60 95 129
59 93 121
57 90 117
59 93 120
59 93 124
58 92 118
58 91 118
58 91 115
61 95 131
59 93 126
60 95 133
57 91 111
57 90 114
57 91 120
58 91 111
58 92 118
57 91 115
55 88 102
56 88 121
60 91 102
81 106 96
91 110 65
102 119 40
121 136 32
118 131 0
119 132 0
119 133 0
121 134 0
119 133 0
114 128 0
126 138 0
124 134 0
127 143 0
123 138 0
124 136 0
118 131 0
135 150 0
118 131 0
130 145 0
125 137 0
133 148 0
118 131 0
133 148 0
126 139 0
135 149 0
124 136 0
124 138 0
136 151 0
134 146 0
127 137 0
132 146 0
133 146 0
132 146 0
125 139 0
132 144 0
124 138 0
144 158 0
130 141 0
135 147 0
138 154 0
136 151 0
137 153 0
143 155 0
128 140 0
137 151 0
137 153 0
135 149 0
142 158 0
144 159 0
143 154 0
138 151 0
148 162 0
139 153 0
131 141 0
130 139 0
143 155 0
136 149 0
147 162 0
136 148 0
144 159 0
142 155 0
145 156 0
142 156 0
146 158 0
142 157 0
152 166 0
145 158 0
140 150 0
148 158 0
143 154 0
149 160 0
148 162 0
151 164 0
148 160 0
149 162 0
146 158 0
138 149 0
150 161 0
150 164 0
157 170 0
148 160 0
146 160 0
152 164 0
151 166 0
151 162 0
152 163 0
149 162 0
151 168 0
151 163 0
155 167 0
149 162 0
152 165 0
151 165 0
148 161 0
148 160 0
148 160 0
160 173 0
159 174 0
154 168 0
160 175 0
157 169 0
157 171 0
157 170 0
156 168 0
155 169 0
158 173 0
159 173 0
158 172 0
162 176 0
160 176 0
162 178 0
155 170 0
160 177 0
151 165 0
154 168 0
160 176 0
161 177 0
159 175 0
165 179 0
162 178 0
161 178 0
162 179 0
159 174 0
163 180 0
164 182 0
163 178 0
165 181 0
160 175 0
161 175 0
163 181 0
160 177 0
162 177 0
157 172 0
165 181 0
164 182 0
165 183 0
161 179 0
164 182 0
163 180 0
163 182 0
168 185 0
162 180 0
165 181 0
159 176 0
163 180 0
167 185 0
162 180 0
166 182 0
165 182 0
165 184 0
165 185 0
161 180 0
169 187 0
164 181 0
167 185 0
165 184 0
166 187 0
168 187 0
169 193 80
174 198 76
173 196 72
170 194 84
172 195 76
174 197 72
169 193 67
171 195 57
172 197 92
168 192 57
169 194 72
170 194 62
171 195 92
173 197 62
172 197 67
169 193 84
172 196 84
172 195 62
174 198 76
172 197 62
168 192 88
171 195 80
164 188 67
165 188 51
169 193 80
168 193 95
169 193 84
171 195 76
167 191 62
171 195 72
165 188 51
170 196 92
165 190 72
170 194 51
169 193 80
170 195 80
168 192 76
167 192 92
168 192 76
166 190 51
168 192 67
167 191 80
166 189 72
163 188 88
167 190 44
165 189 80
169 193 57
165 189 62
166 190 76
164 187 67
164 188 72
168 193 80
163 187 72
165 189 72
166 190 80
162 186 72
166 190 88
166 189 80
163 188 92
163 187 62
169 193 62
158 181 72
159 182 67
163 186 67
165 189 57
153 177 62
160 183 76
158 181 72
161 184 92
161 185 88
157 181 84
158 182 57
162 185 72
157 179 44
162 185 67
157 179 76
158 181 57
145 168 72
163 185 76
157 179 57
146 168 67
155 179 84
157 179 62
147 170 105
126 150 95
124 147 87
100 126 115
91 119 141
102 128 139
86 114 119
88 115 118
82 110 116
91 118 133
91 118 137
91 119 143
84 113 145
86 112 120
98 123 143
83 111 127
96 123 150
96 124 158
99 125 147
100 125 147
91 118 144
93 119 134
99 126 145
100 127 151
93 120 144
111 134 143
86 115 141
85 113 133
91 118 129
89 116 133
88 115 145
90 118 147
91 119 143
91 119 146
87 115 155
79 109 143
80 110 150
80 109 156
93 121 166
73 105 152
77 106 148
78 108 159
70 102 145
81 109 152
75 104 152
76 105 155
75 105 149
67 101 156
73 104 148
68 99 137
61 96 141
67 98 130
62 96 137
72 102 125
77 105 137
71 101 150
64 97 142
59 94 140
64 95 131
60 95 147
64 97 137
60 95 139
61 95 132
61 95 134
63 96 131
58 92 129
57 91 127
58 93 121
60 94 132
60 95 141
60 94 137
59 94 129
60 95 141
61 95 131
59 94 136
60 95 135
59 93 136
60 96 141
60 94 133
60 94 130
60 95 140
58 92 126
61 96 143
59 93 129
60 94 137
60 95 135
60 94 133
60 95 139
59 94 130
60 95 139
60 95 139
60 95 145
59 94 127
60 95 139
59 93 133
59 93 129
60 95 142
58 92 127
59 93 127
60 94 135
59 93 126
61 96 145
59 93 127
59 94 134
61 96 147
60 95 142
60 95 134
59 94 136
60 95 133
59 94 130
60 95 133
59 93 121
59 94 135
60 94 133
60 95 135
60 94 129
60 95 134
60 94 127
58 93 131
60 95 135
60 94 133
60 95 137
59 93 129
57 90 117
60 94 137
59 94 129
59 94 126
60 94 135
58 92 117
59 93 127
59 93 127
59 92 125
60 95 139
59 93 122
59 93 120
59 92 126
58 92 121
59 93 134
59 94 127
58 92 114
59 93 124
59 92 126
59 92 124
59 93 129
58 91 115
58 92 111
59 93 125
58 92 125
58 91 120
60 94 130
58 91 113
57 89 111
58 92 118
57 91 120
57 90 103
56 88 107
56 88 107
57 88 104
77 100 80
77 99 74
101 120 44
109 122 47
117 130 18
119 133 0
120 135 0
118 134 0
113 127 0
119 133 0
129 142 0
126 140 0
114 128 0
119 134 0
133 147 0
129 141 0
120 131 0
122 136 0
131 145 0
130 145 0
111 122 0
127 141 0
134 148 0
126 141 0
127 142 0
131 147 0
128 142 0
135 147 0
126 141 0
132 145 0
128 141 0
124 140 0
139 154 0
129 142 0
132 144 0
135 149 0
135 147 0
140 153 0
135 150 0
132 145 0
137 150 0
141 153 0
135 149 0
136 149 0
140 154 0
143 155 0
152 166 0
140 150 0
143 156 0
126 137 0
140 155 0
147 163 0
142 156 0
133 145 0
144 156 0
142 153 0
137 149 0
142 154 0
149 163 0
143 156 0
138 151 0
141 155 0
141 152 0
150 163 0
148 159 0
148 162 0
146 159 0
140 153 0
154 165 0
151 166 0
153 163 0
139 153 0
134 143 0
147 160 0
141 155 0
145 159 0
142 155 0
150 163 0
148 162 0
146 156 0
150 162 0
150 164 0
153 167 0
147 161 0
152 166 0
154 169 0
151 165 0
156 169 0
158 172 0
152 167 0
148 160 0
146 159 0
154 166 0
155 167 0
153 167 0
151 163 0
155 167 0
153 168 0
153 167 0
141 154 0
155 171 0
159 174 0
161 179 0
160 176 0
156 170 0
157 170 0
156 168 0
158 171 0
162 178 0
156 170 0
163 177 0
160 175 0
158 173 0
161 176 0
161 177 0
159 174 0
160 176 0
159 174 0
160 174 0
161 176 0
158 173 0
157 173 0
160 177 0
160 176 0
160 177 0
161 177 0
161 178 0
156 169 0
162 179 0
159 175 0
167 182 0
163 181 0
166 182 0
166 184 0
166 183 0
162 180 0
167 184 0
163 181 0
165 182 0
167 186 0
163 180 0
162 183 0
165 183 0
162 178 0
161 176 0
164 180 0
162 179 0
165 182 0
166 183 0
163 182 0
166 184 0
169 188 0
162 180 0
167 186 0
170 187 0
163 180 0
165 182 0
168 189 0
167 185 0
172 196 67
172 196 76
170 194 80
170 194 92
175 198 76
172 197 84
172 195 62
169 194 72
170 194 76
170 195 51
172 196 62
171 195 80
170 194 62
169 194 62
169 193 72
171 194 67
173 197 76
168 193 80
166 190 57
172 196 67
167 192 62
168 193 80
170 194 80
169 193 25
165 189 80
169 193 72
171 195 67
164 188 80
166 191 80
166 189 62
169 193 67
164 188 62
166 191 67
160 183 62
169 192 62
167 191 72
169 193 72
167 192 72
162 186 72
172 196 76
169 191 62
168 193 88
173 197 67
162 187 67
166 190 67
164 189 80
163 187 67
165 190 88
163 188 67
164 189 62
163 186 57
165 189 84
165 190 92
167 191 84
170 194 72
166 190 67
163 187 57
167 190 80
164 187 72
163 187 67
164 187 92
158 182 57
162 186 62
166 189 80
165 188 80
155 179 62
160 184 72
159 183 72
164 187 88
167 190 72
168 191 67
161 184 72
161 185 88
158 180 57
161 183 88
163 185 51
163 187 51
158 180 62
161 184 88
160 184 84
152 175 72
156 177 108
155 179 102
150 174 84
147 170 78
137 160 80
118 143 122
83 110 122
95 121 121
96 122 126
85 112 117
88 115 132
83 111 125
92 119 125
84 112 146
91 117 131
101 126 137
92 119 141
88 115 131
99 125 134
88 115 137
88 114 132
85 111 126
91 117 134
85 114 150
93 119 130
88 116 147
81 110 136
87 115 134
101 127 149
90 117 142
100 126 133
100 125 148
97 123 141
100 126 143
89 117 144
85 114 148
86 114 150
89 118 146
84 113 149
83 111 137
80 109 154
93 119 149
75 107 154
86 113 158
80 109 150
68 100 152
66 100 149
62 97 141
71 101 148
74 103 147
78 106 154
64 98 148
66 97 139
65 99 152
64 96 138
66 98 139
70 100 138
63 96 127
62 95 133
63 96 134
62 96 133
63 95 130
58 93 131
57 90 119
58 93 137
60 93 121
59 93 131
58 93 125
64 97 129
60 94 131
58 92 118
59 94 126
59 93 127
59 94 132
60 95 135
60 95 140
60 94 134
59 94 133
60 95 143
59 94 134
59 93 130
59 94 121
58 93 133
60 95 139
58 93 127
60 95 135
59 93 124
58 92 129
59 93 131
60 94 135
59 94 133
58 92 118
60 95 129
61 96 139
60 94 133
60 94 136
60 95 141
59 94 131
59 94 126
61 95 137
57 90 114
60 95 140
60 94 130
59 93 129
58 92 121
60 95 140
59 94 133
59 94 127
58 92 130
60 95 137
59 93 125
60 94 131
59 93 133
60 95 130
60 95 135
60 94 133
58 92 126
60 94 131
58 92 130
60 95 136
60 94 135
59 94 127
59 93 127
59 93 125
58 92 118
58 92 122
59 92 125
58 92 126
59 93 127
59 94 125
59 93 126
60 94 141
58 92 113
59 94 127
59 93 129
58 93 125
61 95 135
59 94 133
58 91 114
59 94 133
59 92 125
59 93 129
59 94 118
59 93 126
58 92 115
58 92 118
58 92 118
57 91 113
56 90 114
59 94 118
58 91 120
58 91 118
58 92 118
58 91 115
57 90 105
58 92 117
56 89 107
57 89 107
55 87 105
75 100 82
84 105 80
102 121 57
108 124 40
116 129 25
126 141 0
112 123 0
112 127 0
116 129 0
120 136 0
121 134 0
114 127 0
124 137 0
127 144 0
122 137 0
124 138 0
116 132 0
137 152 0
122 139 0
119 131 0
127 140 0
128 142 0
129 146 0
133 146 0
128 142 0
124 140 0
139 154 0
139 156 0
133 148 0
129 144 0
131 144 0
139 154 0
124 138 0
130 144 0
137 151 0
132 147 0
129 143 0
140 154 0
136 150 0
134 145 0
138 152 0
134 149 0
136 150 0
140 155 0
132 144 0
137 151 0
132 146 0
144 156 0
136 150 0
138 153 0
139 154 0
138 151 0
135 149 0
142 155 0
139 152 0
143 156 0
136 150 0
145 157 0
141 153 0
141 155 0
138 152 0
148 162 0
145 156 0
141 154 0
141 154 0
140 153 0
147 160 0
140 151 0
146 162 0
145 157 0
146 155 0
148 160 0
139 153 0
147 162 0
145 157 0
148 162 0
153 167 0
146 157 0
149 165 0
152 166 0
153 168 0
153 167 0
150 160 0
153 169 0
160 173 0
151 163 0
153 165 0
155 167 0
152 167 0
156 171 0
152 169 0
157 171 0
159 176 0
159 173 0
152 165 0
157 169 0
153 163 0
155 167 0
152 167 0
153 165 0
159 173 0
156 173 0
151 165 0
157 172 0
152 165 0
156 167 0
157 170 0
159 171 0
160 177 0
158 172 0
154 168 0
155 168 0
157 171 0
159 174 0
157 173 0
160 176 0
163 179 0
156 173 0
161 177 0
160 178 0
163 180 0
153 167 0
160 178 0
167 180 0
160 175 0
162 179 0
161 177 0
165 183 0
162 179 0
162 179 0
163 178 0
160 176 0
164 182 0
163 179 0
163 180 0
165 182 0
157 175 0
166 182 0
166 184 0
166 183 0
166 180 0
165 181 0
165 183 0
166 183 0
160 178 0
165 182 0
162 181 0
163 182 0
162 178 0
166 185 0
164 182 0
165 185 0
166 182 0
167 187 0
167 185 0
167 186 0
162 180 0
164 184 0
165 184 0
163 183 0
172 196 76
173 197 84
171 195 76
171 194 36
170 195 80
168 191 67
173 197 67
171 195 62
170 195 80
168 192 62
168 193 84
171 196 95
171 195 76
169 194 88
173 197 88
173 196 62
169 193 72
172 196 67
171 194 80
167 192 76
164 188 72
172 195 62
170 194 62
161 186 76
170 194 57
167 191 67
166 190 57
168 192 88
171 195 76
166 190 72
168 192 84
166 190 67
168 191 84
165 190 67
170 194 84
166 190 80
167 191 72
164 189 51
164 188 88
167 190 72
167 192 67
163 187 76
167 191 95
169 194 88
166 190 72
164 187 76
166 189 67
168 192 67
167 190 67
168 192 76
167 191 88
170 194 88
160 184 67
161 184 62
172 196 95
170 194 76
163 186 80
165 189 72
163 187 88
163 186 62
158 182 88
166 190 80
160 184 84
157 180 67
158 182 92
158 182 72
161 185 80
164 187 80
167 190 62
163 185 57
161 185 76
154 177 80
161 183 67
165 188 72
149 173 57
158 181 84
154 177 67
156 179 62
162 185 72
153 175 80
158 181 72
158 179 72
154 176 84
148 169 51
150 173 95
138 161 99
124 147 102
121 146 125
91 118 124
85 113 115
76 105 124
86 114 132
76 105 127
86 114 136
87 115 140
104 129 140
89 116 126
99 125 140
92 119 127
91 118 130
96 121 127
99 125 139
76 105 129
92 119 139
99 126 148
89 116 128
95 122 160
96 123 132
98 123 132
86 112 143
98 125 151
106 131 147
99 124 142
92 119 148
96 123 139
91 118 137
85 112 145
81 109 138
86 113 144
100 126 152
100 126 160
87 115 156
88 116 151
74 105 150
76 107 149
73 105 151
80 108 145
72 103 156
72 103 150
82 108 146
87 110 139
70 101 145
68 99 138
73 103 142
61 96 136
79 106 142
64 96 132
68 99 144
68 99 143
74 103 134
61 94 137
65 97 134
66 100 136
64 96 125
66 98 137
63 96 134
61 95 127
63 96 124
61 96 143
58 92 129
60 93 119
59 94 131
60 93 121
59 93 125
58 92 127
58 92 127
59 93 133
59 94 137
58 92 129
60 95 141
58 91 121
59 93 128
59 93 131
60 95 134
61 96 142
60 95 125
60 94 130
59 93 123
58 93 121
59 93 124
60 94 133
58 92 129
59 93 130
60 95 136
60 95 131
59 93 126
59 93 118
60 94 135
61 96 143
60 95 133
60 94 132
59 94 125
58 93 130
58 93 130
59 93 125
60 95 141
59 93 126
59 94 127
60 94 129
61 96 139
60 95 137
61 95 130
59 93 129
59 93 124
60 95 142
59 93 131
61 96 139
60 95 133
60 94 129
59 93 133
61 96 131
60 95 131
59 93 125
60 94 133
59 93 121
58 92 127
58 91 118
60 95 139
59 93 124
59 93 126
58 93 126
57 91 120
60 94 121
60 94 135
60 94 133
60 94 129
57 91 114
58 92 118
59 93 117
57 91 115
57 90 114
57 91 120
58 92 115
59 93 130
58 92 122
59 93 133
58 92 122
58 92 113
57 90 110
59 93 124
58 91 117
57 90 111
59 92 126
58 92 118
56 89 108
59 93 117
57 91 117
57 89 111
56 88 114
89 113 94
90 112 80
100 117 60
112 128 44
119 133 0
127 142 0
116 130 0
118 132 0
120 134 0
119 133 0
131 145 0
130 146 0
120 137 0
122 135 0
139 152 0
123 138 0
137 152 0
121 136 0
130 141 0
127 143 0
129 143 0
120 136 0
130 145 0
127 142 0
131 145 0
119 135 0
129 143 0
126 140 0
134 149 0
131 147 0
124 135 0
131 147 0
134 148 0
146 162 0
134 149 0
132 146 0
131 144 0
134 148 0
136 149 0
131 145 0
139 156 0
136 150 0
138 149 0
144 157 0
138 150 0
132 148 0
142 155 0
135 148 0
140 153 0
137 152 0
144 160 0
147 161 0
140 153 0
146 159 0
149 163 0
129 141 0
143 157 0
150 165 0
140 155 0
134 149 0
140 154 0
149 163 0
144 159 0
146 161 0
147 162 0
146 163 0
152 166 0
136 146 0
149 162 0
147 162 0
137 148 0
148 162 0
149 162 0
147 162 0
145 158 0
146 158 0
146 160 0
141 151 0
143 157 0
155 169 0
150 163 0
147 160 0
147 159 0
150 164 0
148 161 0
146 159 0
149 164 0
153 168 0
157 170 0
149 161 0
151 165 0
155 172 0
148 162 0
155 168 0
151 166 0
149 165 0
149 163 0
158 172 0
148 161 0
159 174 0
158 172 0
160 174 0
154 170 0
156 169 0
147 159 0
159 174 0
157 175 0
156 170 0
157 173 0
161 178 0
158 174 0
163 177 0
158 176 0
163 177 0
162 176 0
155 171 0
155 169 0
163 180 0
163 179 0
163 180 0
160 175 0
165 182 0
161 178 0
163 177 0
159 175 0
165 184 0
163 179 0
162 180 0
162 176 0
163 180 0
157 173 0
164 178 0
159 173 0
165 181 0
161 179 0
169 187 0
160 177 0
162 181 0
163 179 0
162 180 0
161 179 0
160 180 0
162 179 0
164 180 0
165 183 0
165 184 0
166 183 0
164 181 0
162 181 0
169 187 0
163 182 0
161 176 0
163 180 0
166 183 0
164 182 0
164 181 0
175 193 0
167 187 0
163 182 0
163 181 0
166 186 0
169 192 57
171 194 62
172 196 80
168 192 67
172 196 88
171 195 76
171 194 67
171 195 80
167 192 57
171 195 84
172 196 57
170 194 57
172 196 67
169 194 80
170 194 80
168 192 62
169 193 67
172 196 72
170 194 67
167 190 62
169 194 67
172 196 67
169 193 57
167 191 62
171 195 88
171 195 51
167 192 72
167 191 80
167 191 67
167 191 76
164 189 51
166 190 67
167 191 72
167 192 84
170 195 88
165 190 62
169 194 67
167 191 99
160 184 62
162 185 51
168 192 72
162 187 84
165 190 72
169 192 88
162 186 76
160 184 57
163 187 57
167 191 67
172 195 88
167 191 67
165 189 62
163 186 62
159 183 62
166 190 76
159 182 57
164 187 72
162 186 80
164 188 67
162 186 72
166 190 80
163 186 80
163 187 92
158 182 88
155 178 57
163 187 72
168 191 51
166 189 88
166 190 72
154 177 72
152 175 51
161 184 62
160 184 76
160 183 62
157 179 84
160 183 72
158 180 67
152 175 72
158 181 72
148 172 67
157 181 67
153 176 62
159 182 76
156 178 72
156 178 76
156 178 72
150 173 76
134 157 76
119 143 103
104 129 112
89 116 124
86 114 126
90 116 124
95 121 131
87 114 123
88 115 124
80 108 127
94 119 136
94 122 139
93 119 122
86 114 136
91 118 137
99 126 137
105 129 136
79 107 127
84 111 133
90 116 141
95 121 128
101 126 144
105 130 142
98 124 140
98 123 125
93 121 134
93 119 131
94 120 141
84 112 146
81 111 133
91 117 140
103 129 155
84 112 151
94 121 151
84 113 144
84 111 151
70 103 152
83 110 140
87 115 153
73 104 149
80 109 146
75 104 142
77 105 140
72 102 147
85 109 145
82 108 152
79 105 139
72 103 139
68 100 144
69 101 136
66 98 139
70 100 132
73 103 135
72 101 130
71 102 126
62 95 129
68 100 141
68 101 136
64 97 125
60 94 134
64 96 125
61 95 125
61 94 124
60 93 129
60 94 127
63 97 129
58 92 136
59 93 131
59 94 133
59 93 130
57 89 118
60 95 138
60 94 133
57 90 122
57 91 113
60 94 135
59 94 134
56 89 117
59 93 122
59 94 138
59 93 129
60 95 136
58 92 120
58 93 127
57 91 122
59 94 135
60 95 127
59 94 133
60 94 135
59 94 131
60 94 141
60 94 131
60 95 131
59 93 131
59 93 126
60 94 134
58 92 122
59 94 133
59 93 136
60 94 127
57 90 124
59 93 127
58 93 127
59 93 124
58 92 125
58 92 120
59 93 121
60 95 125
59 93 125
60 94 136
61 96 139
59 93 129
60 95 141
59 93 125
59 93 130
59 94 126
58 93 121
59 93 124
58 91 121
58 93 120
59 93 121
60 94 129
60 94 136
60 94 124
58 92 118
60 94 124
60 95 134
59 92 125
58 92 124
61 95 135
60 94 129
59 93 129
59 94 133
59 93 124
56 89 111
59 93 126
57 90 110
59 93 130
58 92 111
59 93 117
56 89 120
59 93 120
58 91 117
56 89 113
57 91 111
59 93 120
58 91 125
58 91 111
57 90 115
58 91 113
56 89 111
61 91 90
68 95 78
86 109 76
102 121 70
102 117 40
115 127 25
108 120 0
116 131 0
106 117 0
119 133 0
108 124 0
127 143 0
122 138 0
124 140 0
131 145 0
118 133 0
127 140 0
125 139 0
132 145 0
131 144 0
133 148 0
130 145 0
127 143 0
125 139 0
136 150 0
122 135 0
138 153 0
124 140 0
136 149 0
139 155 0
123 138 0
138 153 0
139 154 0
137 154 0
126 140 0
141 154 0
141 156 0
127 143 0
132 146 0
129 145 0
128 142 0
138 152 0
141 156 0
133 147 0
134 146 0
139 152 0
134 145 0
143 157 0
142 156 0
143 158 0
139 155 0
146 162 0
140 153 0
134 149 0
142 159 0
146 159 0
138 150 0
145 161 0
146 158 0
143 156 0
142 155 0
138 151 0
134 146 0
132 146 0
152 165 0
144 158 0
135 147 0
152 166 0
142 157 0
147 162 0
142 154 0
145 159 0
157 172 0
150 163 0
135 149 0
148 162 0
144 157 0
147 161 0
152 165 0
141 152 0
150 164 0
147 161 0
159 175 0
156 171 0
155 169 0
153 168 0
148 160 0
151 164 0
149 162 0
156 173 0
154 167 0
156 170 0
154 167 0
157 173 0
151 166 0
155 166 0
155 169 0
151 164 0
158 169 0
157 169 0
158 175 0
151 165 0
155 170 0
154 169 0
156 170 0
154 167 0
158 172 0
153 168 0
162 176 0
158 176 0
158 174 0
154 168 0
153 169 0
157 170 0
164 181 0
160 177 0
159 173 0
160 177 0
162 174 0
157 173 0
167 185 0
155 169 0
151 168 0
164 181 0
156 173 0
156 170 0
161 178 0
162 181 0
160 176 0
162 177 0
161 178 0
161 178 0
162 179 0
161 177 0
161 178 0
164 183 0
163 181 0
164 184 0
160 175 0
168 186 0
164 181 0
164 182 0
161 180 0
166 182 0
167 185 0
165 184 0
163 179 0
162 180 0
168 187 0
166 185 0
163 182 0
165 182 0
162 181 0
162 181 0
166 186 0
167 184 0
167 185 0
165 183 0
166 185 0
167 186 0
162 181 0
167 186 0
168 187 0
170 193 62
171 195 76
173 196 67
172 195 72
172 195 80
170 193 80
168 192 76
167 192 67
168 194 92
172 197 105
171 194 76
169 192 84
169 193 80
169 194 84
174 198 51
168 192 72
169 193 80
167 192 84
166 190 80
168 193 80
171 195 67
169 193 84
170 194 57
170 193 57
164 189 84
169 193 72
170 194 80
164 187 51
170 194 51
168 193 67
166 190 88
167 191 67
168 192 57
164 188 76
168 192 72
166 191 72
167 191 72
167 192 76
162 186 62
161 186 92
163 186 51
166 190 67
165 189 88
165 189 67
162 187 92
167 190 57
170 194 67
169 192 62
164 188 72
163 187 62
165 189 76
168 193 99
164 188 57
164 188 88
166 189 67
165 189 51
153 177 72
165 189 80
166 190 67
156 179 51
154 178 76
161 185 67
159 182 36
163 187 99
165 190 80
160 184 80
160 185 88
157 180 76
153 176 84
151 173 62
158 183 94
164 188 72
157 179 67
156 177 57
158 182 84
165 188 72
161 184 76
156 179 67
157 179 67
161 184 67
150 172 72
156 178 67
151 173 76
158 181 57
150 171 84
150 171 67
149 171 74
132 155 86
117 141 103
102 129 107
87 115 122
90 118 122
94 120 126
85 114 131
96 122 141
85 113 137
85 113 132
95 122 140
85 113 117
87 115 137
83 110 130
94 121 143
94 121 153
97 123 143
82 111 127
89 116 136
100 125 148
103 127 139
95 123 139
95 122 142
106 131 143
93 120 127
99 125 141
97 124 145
83 111 137
90 118 144
95 121 145
90 117 140
90 117 151
80 109 143
89 116 140
90 117 151
84 112 149
79 107 148
81 109 151
81 109 140
78 107 152
80 108 144
75 104 146
88 114 149
76 104 143
65 98 149
74 102 144
76 105 147
72 103 140
75 106 154
62 96 139
77 106 136
66 98 131
68 99 123
67 99 137
61 94 127
63 96 130
68 100 123
61 93 120
61 95 123
61 95 127
59 94 133
62 96 127
69 100 115
59 93 126
61 95 126
58 92 127
59 93 135
60 94 129
59 92 125
59 92 124
59 94 124
58 92 117
59 93 126
59 93 125
58 92 118
58 92 120
59 93 118
60 95 134
61 96 127
60 94 134
58 92 128
60 94 135
59 93 134
59 93 131
57 91 124
58 92 126
61 95 134
58 92 125
59 94 129
59 94 129
59 93 129
59 93 118
58 92 115
60 95 136
59 93 135
60 95 133
59 94 126
58 92 126
61 95 131
59 94 126
59 93 125
58 93 127
59 93 122
59 94 137
58 92 125
60 94 127
60 94 139
57 91 115
59 93 130
59 93 120
58 92 122
57 91 111
60 94 126
59 94 134
59 93 127
58 91 129
60 94 117
58 92 120
59 93 126
60 95 139
59 93 126
59 94 125
59 93 129
60 94 131
56 89 113
57 91 121
59 93 126
58 91 125
58 92 118
58 92 117
58 92 114
58 92 130
58 91 120
58 92 118
59 93 122
59 93 118
59 94 124
58 91 114
58 92 118
57 91 118
59 93 124
58 92 117
59 93 124
58 91 111
58 91 122
56 89 108
58 90 114
57 89 118
55 87 97
63 93 97
71 98 105
81 103 75
85 102 47
109 126 25
102 117 25
117 130 0
119 132 0
120 134 0
124 140 0
115 129 0
124 137 0
117 130 0
118 131 0
110 123 0
119 135 0
129 145 0
119 134 0
132 147 0
126 143 0
134 149 0
129 142 0
123 138 0
129 144 0
130 145 0
133 150 0
134 150 0
138 151 0
123 137 0
130 143 0
131 146 0
134 150 0
139 154 0
131 148 0
133 147 0
136 150 0
138 153 0
133 147 0
140 155 0
139 154 0
131 145 0
134 149 0
142 159 0
118 133 0
140 157 0
144 159 0
135 150 0
130 144 0
143 158 0
149 161 0
148 161 0
136 149 0
138 151 0
136 149 0
132 146 0
135 148 0
137 149 0
137 151 0
140 155 0
153 169 0
132 150 0
146 160 0
143 154 0
135 151 0
137 152 0
139 154 0
144 160 0
149 163 0
149 162 0
146 162 0
145 156 0
145 159 0
152 166 0
153 168 0
144 156 0
157 171 0
151 167 0
145 159 0
143 155 0
146 158 0
153 168 0
147 159 0
144 156 0
144 159 0
148 165 0
150 164 0
158 172 0
153 166 0
154 169 0
151 167 0
155 169 0
156 171 0
152 167 0
154 169 0
152 167 0
155 166 0
161 174 0
151 162 0
149 167 0
155 169 0
157 174 0
159 175 0
160 174 0
159 175 0
158 176 0
154 168 0
157 170 0
157 175 0
157 173 0
163 177 0
152 168 0
158 174 0
155 169 0
162 179 0
156 172 0
156 168 0
158 175 0
163 180 0
163 178 0
154 170 0
158 175 0
158 173 0
164 180 0
161 178 0
160 174 0
165 181 0
162 177 0
163 179 0
158 174 0
162 175 0
162 178 0
164 180 0
162 179 0
166 185 0
167 183 0
161 178 0
163 182 0
167 184 0
167 185 0
162 179 0
163 179 0
162 179 0
165 183 0
166 184 0
167 185 0
161 177 0
163 178 0
161 179 0
165 182 0
165 181 0
165 185 0
164 185 0
164 182 0
165 183 0
167 186 0
167 186 0
165 183 0
169 188 0
170 189 0
165 183 0
165 183 0
167 187 0
166 187 0
166 185 0
171 194 76
169 193 67
169 193 51
164 188 51
171 195 76
172 195 67
172 196 80
165 189 57
170 194 36
169 193 67
169 193 62
169 193 76
170 194 57
168 192 57
168 192 57
169 194 88
171 195 72
171 194 57
173 197 84
172 196 67
166 190 80
170 194 67
170 195 84
171 196 80
167 191 57
168 193 67
167 192 76
170 194 67
171 194 67
167 192 80
165 190 67
170 195 88
162 186 44
168 193 72
169 193 80
170 194 67
166 190 76
167 191 80
165 189 80
168 192 67
167 191 67
163 187 67
167 192 76
162 186 67
164 189 102
163 187 84
169 192 62
162 187 80
161 185 67
165 188 57
167 193 80
162 187 67
162 186 84
159 183 62
163 186 62
164 188 72
161 185 84
164 188 72
156 180 76
160 184 57
160 184 72
162 185 76
155 178 62
156 180 51
169 192 72
162 185 80
155 178 57
157 180 84
156 179 62
149 172 57
162 185 76
150 175 62
143 166 62
159 183 76
158 181 76
158 181 84
152 176 72
156 179 62
162 185 84
156 179 72
160 184 95
154 176 67
152 175 76
146 168 76
147 170 57
147 169 76
147 170 44
139 162 86
127 151 92
119 144 127
104 129 124
96 121 118
96 123 129
96 122 131
103 129 129
89 117 144
88 115 127
97 123 133
95 122 134
85 113 140
100 126 135
88 115 132
88 115 122
88 116 133
93 118 133
100 125 136
100 125 137
81 108 129
89 116 129
87 114 136
89 116 126
89 116 145
104 128 134
89 117 134
102 128 141
86 114 135
85 114 141
89 117 144
93 120 144
98 123 142
79 108 146
87 113 148
90 117 155
83 111 153
87 114 142
71 102 144
90 114 147
73 105 151
77 105 142
80 108 155
80 107 150
86 111 139
71 99 130
82 107 142
74 102 143
67 99 145
68 100 139
72 103 142
70 100 132
65 96 130
62 95 127
64 96 133
72 103 134
65 96 125
65 98 135
66 98 127
64 98 137
60 94 128
57 91 127
60 95 135
59 94 133
57 91 118
63 96 119
58 93 120
59 94 130
57 91 121
58 92 121
58 92 127
57 91 121
59 94 122
58 92 129
58 92 124
59 93 122
58 92 129
59 93 126
58 92 117
58 92 124
60 95 126
57 91 120
59 94 130
60 94 130
59 93 129
58 92 125
59 93 126
58 92 125
58 92 130
59 94 125
59 93 127
58 92 131
59 93 127
59 93 126
59 93 121
60 94 131
61 95 140
59 93 130
59 94 127
60 94 134
59 94 131
60 94 130
60 94 130
58 92 125
59 94 124
59 93 126
59 94 125
59 93 117
59 93 124
58 91 120
58 92 121
60 94 134
60 95 130
58 93 120
58 92 125
59 93 125
58 92 119
57 91 115
58 92 118
58 91 121
59 93 121
60 95 135
61 96 140
59 93 122
59 93 121
58 92 124
60 94 129
59 93 130
58 92 122
57 91 105
60 94 121
59 93 122
59 93 122
58 92 121
58 91 131
58 92 120
58 92 121
58 91 120
58 91 120
58 90 114
55 88 94
58 91 115
58 92 113
56 89 102
58 92 107
58 92 124
56 89 105
54 86 105
55 87 99
75 101 105
92 114 76
100 118 65
105 122 25
121 135 18
117 131 0
115 129 0
110 124 0
109 123 0
91 105 0
114 130 0
130 145 0
127 140 0
121 136 0
121 135 0
129 144 0
127 141 0
123 137 0
136 152 0
130 144 0
120 135 0
128 143 0
130 146 0
126 141 0
132 149 0
140 158 0
122 139 0
133 147 0
136 152 0
134 149 0
132 147 0
131 145 0
134 146 0
127 141 0
136 152 0
134 149 0
133 148 0
135 150 0
133 147 0
145 161 0
127 144 0
133 146 0
143 158 0
134 150 0
134 149 0
144 158 0
142 158 0
137 150 0
143 157 0
133 148 0
136 152 0
141 159 0
141 156 0
138 150 0
142 159 0
145 158 0
143 157 0
142 156 0
148 165 0
140 154 0
154 169 0
147 161 0
137 153 0
146 159 0
143 157 0
148 163 0
142 157 0
152 167 0
144 160 0
139 156 0
145 160 0
150 163 0
144 157 0
146 158 0
146 161 0
146 161 0
153 167 0
149 162 0
156 169 0
145 158 0
154 170 0
153 165 0
142 156 0
142 156 0
151 165 0
150 164 0
150 163 0
154 169 0
149 159 0
160 174 0
148 164 0
155 171 0
150 164 0
152 167 0
154 171 0
158 168 0
151 164 0
155 169 0
157 173 0
157 175 0
155 172 0
161 175 0
153 167 0
157 173 0
161 178 0
155 170 0
156 173 0
161 176 0
159 173 0
149 161 0
162 180 0
160 175 0
158 174 0
159 174 0
162 177 0
161 177 0
159 174 0
158 173 0
160 177 0
159 176 0
158 174 0
162 179 0
155 170 0
161 176 0
163 179 0
162 178 0
163 179 0
165 184 0
163 179 0
161 178 0
162 182 0
167 184 0
162 178 0
160 176 0
165 183 0
162 179 0
165 181 0
159 177 0
164 180 0
162 181 0
161 179 0
164 181 0
164 184 0
164 181 0
168 186 0
163 181 0
165 181 0
164 183 0
165 184 0
166 185 0
161 179 0
163 180 0
165 184 0
163 180 0
166 185 0
162 179 0
165 183 0
164 183 0
164 183 0
166 184 0
164 183 0
167 185 0
166 187 0
169 188 0
173 196 51
166 190 72
166 190 62
170 194 76
171 195 84
172 196 62
168 192 72
168 192 44
173 197 51
169 193 80
170 194 80
168 193 51
171 196 88
168 191 44
167 191 57
168 191 67
172 197 95
171 196 88
167 192 76
165 190 88
169 193 72
165 189 72
170 194 88
171 196 76
168 193 84
173 197 80
168 192 72
168 194 57
169 193 76
167 191 72
166 192 72
170 193 51
167 192 80
169 194 80
165 188 62
167 192 80
166 191 95
166 189 67
167 191 76
166 190 76
166 190 80
165 190 102
167 192 92
158 183 88
160 185 67
163 187 72
161 185 95
163 188 67
167 191 84
157 182 67
167 191 67
168 192 88
164 189 92
163 187 84
161 185 92
163 187 57
160 183 44
162 187 76
163 187 62
165 189 76
166 190 80
162 186 95
159 184 92
154 177 76
159 183 67
160 183 72
166 190 84
162 186 84
157 181 72
164 187 51
159 182 57
158 181 57
151 174 57
156 179 62
157 180 62
154 177 62
147 170 76
154 177 57
161 184 62
154 177 84
153 177 72
149 173 57
150 172 80
151 174 90
154 176 72
141 162 51
143 165 62
158 180 90
139 162 94
122 144 86
108 131 110
86 113 120
89 116 132
84 110 121
85 112 117
95 121 134
97 122 127
98 124 125
95 121 131
86 113 133
87 114 124
94 120 125
89 115 135
97 122 128
94 120 138
96 121 137
109 134 138
98 124 139
88 116 131
94 119 131
90 116 136
95 120 138
98 124 142
105 129 139
99 125 145
106 130 135
101 126 141
96 123 134
94 121 147
93 120 140
92 118 131
86 114 148
90 116 131
90 117 141
93 119 149
97 121 148
82 110 138
88 114 142
79 107 147
76 105 147
77 104 138
83 108 135
82 107 149
70 101 137
75 104 148
67 100 148
74 103 134
63 97 143
64 96 116
70 98 121
66 97 122
71 100 118
62 95 137
67 96 114
64 96 118
64 97 129
64 97 127
60 93 121
59 92 117
61 94 126
58 92 131
65 97 138
58 92 120
64 98 131
59 93 128
61 95 131
59 93 126
57 90 113
57 91 113
60 94 135
58 91 115
58 92 125
58 92 126
60 94 131
57 92 122
60 94 136
58 92 126
59 93 130
57 91 120
60 94 129
60 94 125
61 96 134
59 94 122
58 93 121
59 93 131
59 93 126
58 92 115
59 93 127
58 92 126
58 91 115
58 93 129
59 93 124
60 95 130
59 94 136
59 93 120
57 90 114
59 94 130
60 94 129
58 91 127
59 93 135
60 94 126
58 92 125
60 94 131
59 93 120
60 95 139
58 92 126
60 95 134
59 93 125
59 93 122
57 90 114
59 93 118
60 95 140
60 94 131
57 91 120
58 93 129
60 94 133
59 93 117
58 92 122
59 93 124
59 93 125
57 90 114
60 95 135
58 92 121
57 90 122
58 91 130
58 92 121
57 90 111
59 93 134
59 93 121
58 92 127
57 90 117
57 90 120
57 90 118
58 92 122
58 92 114
58 91 110
58 92 115
56 89 105
56 89 110
57 90 110
58 91 117
57 90 110
54 86 95
58 92 103
58 90 107
68 95 90
83 104 70
103 120 57
105 120 31
120 137 18
102 118 0
108 123 0
117 132 0
124 139 0
121 135 0
118 131 0
124 137 0
118 133 0
120 134 0
110 126 0
112 125 0
118 134 0
119 135 0
120 136 0
123 136 0
117 131 0
130 144 0
131 146 0
127 141 0
129 145 0
123 139 0
132 147 0
135 149 0
131 146 0
122 138 0
129 145 0
121 135 0
137 152 0
130 144 0
138 154 0
138 153 0
127 142 0
132 145 0
132 147 0
135 151 0
135 149 0
135 150 0
130 145 0
138 155 0
131 149 0
137 153 0
142 156 0
138 152 0
142 159 0
141 156 0
148 165 0
145 156 0
136 149 0
140 155 0
147 160 0
147 162 0
142 157 0
140 154 0
150 167 0
149 162 0
140 154 0
140 155 0
142 157 0
152 168 0
148 166 0
144 161 0
149 163 0
152 168 0
151 167 0
148 161 0
146 162 0
149 163 0
140 157 0
151 167 0
147 161 0
151 168 0
140 154 0
148 161 0
148 163 0
155 172 0
141 153 0
153 166 0
150 167 0
150 167 0
150 163 0
156 173 0
152 167 0
156 170 0
151 166 0
151 164 0
154 166 0
151 163 0
151 165 0
152 166 0
157 170 0
152 166 0
152 168 0
155 171 0
157 173 0
157 170 0
156 170 0
161 176 0
153 170 0
156 169 0
158 174 0
152 166 0
159 174 0
154 170 0
161 176 0
165 183 0
159 175 0
161 175 0
153 167 0
161 179 0
161 176 0
162 178 0
157 172 0
154 171 0
159 177 0
158 174 0
162 179 0
161 177 0
160 178 0
161 179 0
165 183 0
158 172 0
162 179 0
165 182 0
165 180 0
161 176 0
159 178 0
161 178 0
163 177 0
162 181 0
159 176 0
166 186 0
161 180 0
163 179 0
164 183 0
161 177 0
162 180 0
167 183 0
158 177 0
161 179 0
164 183 0
167 185 0
165 184 0
169 187 0
164 181 0
163 178 0
169 187 0
162 180 0
167 187 0
163 182 0
160 176 0
163 181 0
166 185 0
165 185 0
166 183 0
165 184 0
167 187 0
166 185 0
168 187 0
166 186 0
165 185 0
172 196 76
168 192 62
172 194 67
170 193 80
169 193 84
173 197 76
171 196 95
169 194 80
170 194 92
170 194 67
171 195 57
169 194 102
169 194 44
169 193 80
166 189 51
169 193 76
170 195 92
171 195 80
165 189 57
166 190 76
170 194 72
169 194 76
168 192 84
168 192 92
166 190 51
169 194 44
171 195 84
170 194 76
166 191 76
168 192 76
164 188 76
167 191 62
167 191 57
166 190 76
166 191 80
170 195 84
159 182 67
171 195 76
169 194 102
168 191 80
166 190 76
164 188 72
167 191 72
161 186 72
163 188 67
169 193 80
167 191 67
166 190 67
164 189 88
166 190 76
170 194 76
165 190 80
162 185 88
157 181 57
164 188 92
168 190 67
159 182 67
163 185 72
168 192 88
157 179 57
155 178 57
158 182 72
167 191 92
167 191 88
159 182 76
159 184 62
157 181 57
159 182 57
158 180 62
162 185 80
156 179 72
156 180 84
157 180 62
157 181 76
156 179 76
159 183 76
160 183 95
155 178 76
146 168 67
154 176 88
160 183 57
146 168 62
155 177 76
150 174 84
146 168 51
148 169 62
155 177 76
157 179 80
145 167 67
135 157 94
111 135 95
101 126 104
86 113 109
87 114 121
96 121 122
82 110 111
78 107 116
93 119 129
76 105 122
81 109 119
93 119 118
103 128 136
91 118 138
84 112 132
98 124 134
110 134 140
95 121 139
99 125 140
92 118 131
106 130 132
93 120 129
95 120 130
84 112 122
97 121 140
100 125 122
86 114 132
83 111 118
92 119 138
95 120 137
103 127 153
91 118 142
74 105 141
85 112 150
94 120 147
81 110 142
77 106 144
96 120 144
84 111 146
85 112 150
85 110 146
87 111 146
85 110 146
74 102 140
79 106 124
78 105 136
74 104 141
67 99 145
66 100 143
69 101 136
80 107 126
71 100 127
73 102 126
66 97 116
69 98 122
70 100 120
60 94 120
61 95 126
61 94 131
58 92 124
62 94 121
63 96 126
63 94 108
58 91 125
57 91 115
60 94 136
58 92 127
57 90 114
58 92 126
58 92 124
59 93 127
59 93 122
59 93 126
58 92 125
58 92 115
59 93 124
58 92 123
58 92 119
59 93 126
59 93 122
60 95 135
59 93 130
58 92 129
59 93 129
58 92 122
60 94 133
59 94 136
58 92 117
58 92 118
59 93 134
59 93 121
59 93 127
59 93 129
58 92 124
58 92 127
60 95 131
59 93 133
59 93 129
58 92 120
59 93 127
58 92 120
58 92 108
59 92 120
59 93 129
58 92 115
59 93 124
56 90 113
59 94 126
60 94 131
60 94 125
59 93 124
58 91 125
57 91 115
57 91 114
57 91 122
58 92 115
56 89 115
57 91 114
57 91 117
58 92 113
59 93 122
59 93 126
59 93 131
56 89 115
58 91 121
58 92 117
55 88 110
58 92 118
58 92 108
57 91 114
58 92 124
58 91 118
59 93 127
60 93 126
57 90 105
57 91 115
58 91 115
58 90 113
58 91 114
55 87 100
57 89 102
57 89 111
56 88 102
57 89 108
61 90 97
69 94 78
94 112 72
112 129 60
98 113 47
109 124 18
120 135 0
123 138 0
113 128 0
124 137 0
114 127 0
114 129 0
113 128 0
119 134 0
127 143 0
118 132 0
121 135 0
126 141 0
131 148 0
118 132 0
125 141 0
123 138 0
128 144 0
119 134 0
119 134 0
135 150 0
135 151 0
134 150 0
138 155 0
139 155 0
128 140 0
132 149 0
130 145 0
127 142 0
123 140 0
130 145 0
135 150 0
134 151 0
137 151 0
133 146 0
144 160 0
144 161 0
133 148 0
139 153 0
133 149 0
138 153 0
133 148 0
145 160 0
140 155 0
131 147 0
139 156 0
141 157 0
152 167 0
142 158 0
146 161 0
141 157 0
144 159 0
150 164 0
143 155 0
147 162 0
145 158 0
141 155 0
152 170 0
145 159 0
135 149 0
134 149 0
141 155 0
145 161 0
148 163 0
142 158 0
150 162 0
145 161 0
147 163 0
141 156 0
148 164 0
147 162 0
148 166 0
154 170 0
151 164 0
153 170 0
151 168 0
147 163 0
149 167 0
150 165 0
146 161 0
155 172 0
149 162 0
153 166 0
148 164 0
147 159 0
146 160 0
148 161 0
154 170 0
155 166 0
153 168 0
152 169 0
144 161 0
155 172 0
146 159 0
153 168 0
158 173 0
159 174 0
155 171 0
155 169 0
155 171 0
159 174 0
156 172 0
159 173 0
156 169 0
148 163 0
152 167 0
157 170 0
150 162 0
159 176 0
157 173 0
162 178 0
164 181 0
163 178 0
161 177 0
154 172 0
161 178 0
161 179 0
156 173 0
163 180 0
165 181 0
162 177 0
159 175 0
160 179 0
163 181 0
160 175 0
163 180 0
160 176 0
158 174 0
163 182 0
159 178 0
162 181 0
162 179 0
157 174 0
159 175 0
162 179 0
165 183 0
163 180 0
162 181 0
159 174 0
164 182 0
161 175 0
156 176 0
163 180 0
163 179 0
165 182 0
163 181 0
165 184 0
164 181 0
163 182 0
165 183 0
166 184 0
167 186 0
160 177 0
168 188 0
166 184 0
166 186 0
165 185 0
169 188 0
169 190 0
164 182 0
166 184 0
169 190 0
170 194 92
171 196 84
170 194 88
171 195 62
166 191 62
171 194 51
170 194 76
166 190 67
168 193 76
170 194 62
170 194 72
170 194 67
173 197 57
168 192 67
168 192 57
167 190 51
166 190 62
169 193 67
169 193 72
170 194 62
162 186 72
169 194 51
170 193 88
171 195 62
167 193 88
168 193 72
166 190 80
170 194 80
165 189 51
167 191 88
170 193 57
167 191 51
165 190 84
167 191 88
163 188 76
167 192 76
170 192 67
161 185 92
168 193 88
161 185 72
164 188 76
169 193 67
164 188 80
162 186 72
162 186 57
163 187 51
164 188 57
164 189 108
165 189 62
158 182 57
168 191 80
164 189 80
164 188 62
162 185 76
163 186 72
160 183 72
160 184 76
161 183 72
160 185 80
161 184 76
153 177 76
159 183 84
160 184 88
160 184 72
157 180 72
156 180 72
156 180 76
158 181 62
158 181 80
154 178 67
159 182 51
160 183 76
155 178 51
158 182 92
166 189 102
162 184 84
154 177 76
156 179 88
153 175 72
157 180 92
155 178 72
152 174 67
145 167 72
152 173 72
155 177 80
151 174 57
146 168 62
143 165 80
145 166 74
147 168 84
139 160 92
126 150 107
102 127 111
97 122 122
89 116 120
76 106 121
90 117 133
88 115 120
98 124 124
94 119 117
92 118 127
102 127 133
103 128 137
90 117 133
85 112 114
96 121 130
104 129 140
99 125 146
99 125 131
99 124 126
97 123 129
94 119 129
99 125 136
83 110 119
88 115 125
85 114 145
84 111 135
84 112 122
95 121 144
97 122 139
96 123 139
89 116 129
86 113 138
83 112 140
80 109 150
82 109 146
78 108 154
76 105 142
83 111 148
84 110 151
79 107 147
79 105 148
72 102 138
82 107 136
75 102 137
69 98 125
77 104 137
65 97 131
78 105 131
71 103 142
65 98 126
65 96 130
69 99 126
66 96 117
62 95 120
72 101 115
61 94 133
65 97 117
62 96 135
57 90 117
58 93 128
61 95 126
58 92 124
56 89 111
59 93 124
61 95 126
60 93 116
58 92 125
59 94 130
56 90 118
59 93 134
58 91 113
58 92 127
58 91 118
59 94 129
58 92 128
60 94 135
57 91 124
58 92 129
57 91 111
59 93 125
59 93 127
58 92 119
58 92 118
58 92 118
58 92 120
57 90 103
58 91 120
59 93 125
59 93 127
59 93 139
59 94 127
59 93 130
58 92 126
58 93 122
59 92 126
61 95 137
59 93 115
60 95 133
59 93 131
58 92 118
59 93 118
59 93 135
59 93 120
59 94 130
58 91 117
58 92 118
59 94 124
58 92 117
58 92 121
59 93 125
58 92 129
60 94 118
60 94 124
59 93 125
58 92 115
58 92 118
58 92 126
58 92 118
60 95 131
59 93 126
58 92 122
57 91 129
57 91 103
58 92 121
58 92 113
60 94 127
58 92 117
59 93 117
58 91 120
57 91 110
58 92 114
56 89 100
56 88 118
58 91 120
57 90 121
58 92 121
55 87 102
57 91 97
56 88 114
55 87 99
56 88 105
60 88 82
74 100 74
76 96 76
100 120 70
106 122 44
111 124 18
120 135 0
109 122 0
110 125 0
110 125 0
127 142 0
124 141 0
116 131 0
134 148 0
117 132 0
114 128 0
117 131 0
126 141 0
119 133 0
125 139 0
127 142 0
127 140 0
116 130 0
131 145 0
132 148 0
127 143 0
130 146 0
132 149 0
141 156 0
136 152 0
124 142 0
133 148 0
132 147 0
123 137 0
139 154 0
124 139 0
133 147 0
128 145 0
130 144 0
143 160 0
135 150 0
140 156 0
131 145 0
140 157 0
132 149 0
144 159 0
129 143 0
138 153 0
152 169 0
140 157 0
142 155 0
137 152 0
145 162 0
146 160 0
133 149 0
138 154 0
136 153 0
149 165 0
140 154 0
145 161 0
149 163 0
144 158 0
147 164 0
151 165 0
142 158 0
142 156 0
147 162 0
143 158 0
138 153 0
145 162 0
146 160 0
150 164 0
148 162 0
153 168 0
154 168 0
149 166 0
153 169 0
145 160 0
152 168 0
150 166 0
148 165 0
149 164 0
148 163 0
151 167 0
149 162 0
148 164 0
149 163 0
152 168 0
151 167 0
153 168 0
146 160 0
154 170 0
151 165 0
151 167 0
147 160 0
150 165 0
154 171 0
155 172 0
151 166 0
157 173 0
152 168 0
156 174 0
155 171 0
153 170 0
157 173 0
161 176 0
154 170 0
155 170 0
159 176 0
152 166 0
158 174 0
158 173 0
161 177 0
158 174 0
153 167 0
156 173 0
158 174 0
157 177 0
155 170 0
161 177 0
164 178 0
149 166 0
163 181 0
161 179 0
164 181 0
157 175 0
167 184 0
159 176 0
162 181 0
162 179 0
166 183 0
157 176 0
162 180 0
162 179 0
158 177 0
165 183 0
163 179 0
161 180 0
163 181 0
165 183 0
163 180 0
165 183 0
165 183 0
164 182 0
165 182 0
162 180 0
165 184 0
164 182 0
165 184 0
163 180 0
161 180 0
168 187 0
161 180 0
165 183 0
164 183 0
163 181 0
162 181 0
164 182 0
166 185 0
168 188 0
171 190 0
169 189 0
166 184 0
166 186 0
165 183 0
165 184 0
168 186 0
167 188 0
171 194 62
168 192 51
172 196 76
165 189 88
164 189 67
168 193 67
169 192 51
166 191 62
170 194 62
167 191 67
173 198 76
163 188 62
167 191 62
169 193 67
171 195 62
167 192 80
174 198 67
169 194 62
170 194 57
167 191 88
169 193 72
169 192 72
172 196 72
171 195 76
168 193 67
165 189 57
169 194 80
171 196 95
167 190 51
166 190 72
168 192 76
165 189 62
169 193 44
167 192 76
169 193 88
163 188 92
168 193 88
163 186 51
165 189 72
163 187 62
163 188 76
165 189 80
170 193 51
164 188 67
171 194 57
172 196 51
168 192 76
160 184 80
161 185 80
159 183 80
162 186 67
167 190 57
160 184 92
159 184 72
163 186 84
165 190 92
164 188 80
171 195 95
162 186 80
164 187 72
162 185 84
162 185 76
163 187 84
157 180 67
162 185 62
149 172 102
167 190 95
162 185 84
162 185 84
160 184 76
157 181 94
158 180 44
162 184 72
157 179 57
156 179 72
157 180 84
157 180 99
158 181 51
151 173 57
158 180 72
155 178 80
149 171 51
152 174 84
153 176 76
146 168 80
138 161 72
141 162 67
146 168 76
148 170 88
151 174 102
136 158 80
120 142 86
118 142 113
100 125 131
79 106 99
79 107 110
71 101 122
93 119 126
83 111 126
81 109 120
87 113 116
87 115 136
92 117 124
89 114 112
95 120 121
99 123 115
97 123 149
90 117 144
92 118 125
102 127 143
86 113 127
92 118 128
97 123 135
99 124 120
100 125 131
86 112 126
88 114 123
90 117 139
110 133 151
94 120 144
99 124 145
98 123 140
96 123 142
106 131 152
85 113 130
81 109 151
73 104 146
81 109 136
90 113 142
70 101 142
86 111 148
84 109 144
90 112 132
87 111 140
81 108 150
75 102 132
66 97 132
76 103 135
65 97 133
69 99 136
66 99 131
69 97 128
69 99 128
69 100 137
71 102 121
61 94 131
64 94 115
64 95 116
59 93 126
62 94 120
68 98 115
60 93 121
62 95 126
59 93 125
60 95 130
57 91 110
57 90 114
62 96 129
58 91 122
57 90 103
58 91 124
59 93 128
58 92 115
57 91 120
59 93 131
58 92 123
59 93 117
58 91 122
58 93 124
57 91 108
59 92 115
58 92 120
56 90 115
59 94 127
60 94 135
58 92 124
56 90 103
59 93 121
58 93 121
59 93 122
59 93 125
59 94 128
57 90 124
57 91 129
60 94 121
58 92 122
58 93 120
59 92 126
58 92 134
58 93 122
57 90 115
58 91 107
60 95 129
59 93 124
59 93 125
58 92 129
59 94 124
58 91 117
57 91 110
58 92 125
57 91 115
58 92 130
59 93 115
60 94 129
58 92 126
58 92 117
57 91 121
58 92 121
57 91 110
58 92 107
58 92 125
59 93 126
56 89 110
58 92 127
58 92 118
57 90 108
57 90 121
58 92 117
58 92 114
58 92 113
59 93 114
57 90 108
57 90 118
56 89 110
57 90 114
56 89 113
55 87 111
57 90 110
58 91 114
56 89 110
55 88 100
64 91 92
72 97 84
89 110 72
98 115 54
96 111 25
110 124 25
111 126 0
103 118 0
118 131 0
118 132 0
109 123 0
119 133 0
115 131 0
120 133 0
125 139 0
124 139 0
115 130 0
111 124 0
126 143 0
134 151 0
122 138 0
133 149 0
123 138 0
120 137 0
123 137 0
126 140 0
131 145 0
133 148 0
132 148 0
132 150 0
123 137 0
127 142 0
136 150 0
135 150 0
137 153 0
117 132 0
138 154 0
138 154 0
136 151 0
137 154 0
128 143 0
140 158 0
137 155 0
126 139 0
138 154 0
139 153 0
133 147 0
145 162 0
137 154 0
134 151 0
138 154 0
140 154 0
136 155 0
133 146 0
132 146 0
140 154 0
141 155 0
142 156 0
139 155 0
144 162 0
135 151 0
144 160 0
148 164 0
147 164 0
150 169 0
147 162 0
146 161 0
142 157 0
148 164 0
146 161 0
150 165 0
145 161 0
149 165 0
146 163 0
146 163 0
152 165 0
145 161 0
150 166 0
147 161 0
144 159 0
150 166 0
145 161 0
157 172 0
153 168 0
156 171 0
152 166 0
152 168 0
151 166 0
155 171 0
150 167 0
156 173 0
152 166 0
148 165 0
156 170 0
148 162 0
150 163 0
152 168 0
154 168 0
158 174 0
158 171 0
158 175 0
152 169 0
160 178 0
152 170 0
153 169 0
155 171 0
154 170 0
151 168 0
154 170 0
155 171 0
152 170 0
154 169 0
163 179 0
149 162 0
155 170 0
162 177 0
156 172 0
153 168 0
153 170 0
158 176 0
161 178 0
155 173 0
155 172 0
162 179 0
163 178 0
159 177 0
157 173 0
161 178 0
160 178 0
159 177 0
160 179 0
160 177 0
159 176 0
159 178 0
162 180 0
166 184 0
161 179 0
167 187 0
162 183 0
162 179 0
163 181 0
161 180 0
159 174 0
165 182 0
162 180 0
165 183 0
164 184 0
161 180 0
162 182 0
164 181 0
165 182 0
167 185 0
162 180 0
167 187 0
170 188 0
166 186 0
167 186 0
166 185 0
162 179 0
169 190 0
167 185 0
168 186 0
167 186 0
164 183 0
168 187 0
162 181 0
163 184 0
167 187 0
170 188 0
168 192 67
174 198 76
175 199 99
173 196 76
173 198 88
170 194 84
169 193 57
169 193 72
173 197 67
171 195 76
169 194 84
167 192 72
169 193 72
169 192 67
168 192 84
165 190 76
170 194 84
171 195 67
168 192 88
169 195 88
168 192 88
167 191 84
170 194 72
170 194 99
169 193 76
167 191 76
170 194 62
165 188 84
164 188 80
170 194 80
171 195 72
162 187 62
173 197 80
167 190 57
172 196 84
165 190 99
169 193 62
166 190 67
165 189 99
168 193 88
161 185 80
168 192 92
168 192 72
164 187 84
168 192 76
167 191 88
166 190 80
167 191 102
168 192 111
160 183 67
163 186 72
163 187 80
167 191 92
159 183 84
169 192 95
159 182 62
164 188 76
162 185 88
164 187 67
161 185 72
161 184 84
156 179 57
166 190 108
163 186 84
165 188 76
166 189 88
165 188 62
156 180 88
155 178 80
152 175 72
156 180 76
162 186 88
153 176 57
155 178 84
159 183 80
159 181 67
153 175 76
148 171 67
147 170 76
142 163 51
157 180 95
156 178 92
156 178 67
141 164 72
142 164 65
149 172 80
144 165 76
140 161 76
138 160 44
143 164 51
137 158 78
137 158 80
130 151 84
107 130 115
88 114 113
99 124 121
78 107 118
87 113 111
82 111 118
102 127 128
90 116 122
80 108 129
93 118 129
101 125 139
75 104 112
96 121 116
83 110 126
80 107 119
97 122 140
100 125 143
99 123 130
91 116 131
91 118 121
92 118 141
93 118 132
82 110 124
101 127 129
96 122 135
101 125 135
92 119 128
106 130 142
81 110 125
90 116 141
95 119 140
89 115 137
89 116 147
89 117 152
91 116 139
79 107 149
90 116 144
91 116 151
84 108 132
72 101 139
87 114 146
88 111 134
80 106 138
71 100 126
65 96 129
68 99 134
71 99 120
76 106 142
67 98 117
66 98 129
67 98 109
68 99 125
63 96 120
62 94 115
68 99 115
65 95 107
69 99 123
61 95 121
61 93 127
60 93 120
57 90 124
61 94 118
58 91 120
58 91 114
59 92 124
56 90 113
58 92 111
59 93 126
57 91 121
57 91 124
59 93 113
57 91 126
57 91 118
58 92 115
60 94 129
59 93 121
58 92 124
59 94 126
58 92 121
60 94 125
58 92 115
57 91 122
59 93 125
59 94 126
59 93 120
59 93 120
59 92 125
58 92 126
59 93 121
59 94 120
57 91 114
59 93 111
57 90 117
58 92 120
60 94 133
58 91 111
59 93 126
59 93 121
58 92 121
58 91 120
57 91 108
59 92 117
57 90 108
57 89 115
59 93 122
59 94 115
58 92 118
59 93 124
58 92 124
58 92 111
57 91 122
59 92 118
60 94 125
59 94 122
57 91 105
59 94 120
58 92 122
55 88 100
58 92 115
58 92 118
57 90 111
57 91 114
58 91 117
57 90 105
59 93 122
59 93 111
58 91 115
58 92 115
56 89 97
56 88 100
57 90 107
59 93 124
57 90 113
57 90 107
54 86 95
56 88 100
55 86 95
59 90 88
80 103 76
82 103 74
103 120 44
99 115 47
104 120 0
110 126 0
113 127 0
101 118 0
107 119 0
109 123 0
118 133 0
120 133 0
103 116 0
125 141 0
121 135 0
129 145 0
109 126 0
118 131 0
126 141 0
115 129 0
133 149 0
122 137 0
130 146 0
124 137 0
129 143 0
117 132 0
120 136 0
134 151 0
126 141 0
130 146 0
129 145 0
138 155 0
128 144 0
125 141 0
137 153 0
138 153 0
132 146 0
126 139 0
123 138 0
143 159 0
139 155 0
128 145 0
140 155 0
139 155 0
140 156 0
140 158 0
147 165 0
135 148 0
140 156 0
142 157 0
140 156 0
140 154 0
134 150 0
149 166 0
142 157 0
151 167 0
150 167 0
143 158 0
141 156 0
143 158 0
142 156 0
139 153 0
144 159 0
141 154 0
141 157 0
140 155 0
146 162 0
143 159 0
148 164 0
151 166 0
154 171 0
143 156 0
151 167 0
149 165 0
154 171 0
149 163 0
136 152 0
146 158 0
153 170 0
148 165 0
155 169 0
135 150 0
155 171 0
146 163 0
152 166 0
148 164 0
152 169 0
149 163 0
149 164 0
155 171 0
153 168 0
160 176 0
155 168 0
147 160 0
156 171 0
150 163 0
160 178 0
146 161 0
156 174 0
154 171 0
153 168 0
159 174 0
155 169 0
161 178 0
153 170 0
157 175 0
158 176 0
158 172 0
157 174 0
157 175 0
158 174 0
157 172 0
161 179 0
152 168 0
161 178 0
161 179 0
159 174 0
164 180 0
163 178 0
157 175 0
158 175 0
160 178 0
159 177 0
156 172 0
159 176 0
162 180 0
157 173 0
156 173 0
157 174 0
163 181 0
163 180 0
163 180 0
163 180 0
162 181 0
160 178 0
164 183 0
162 178 0
168 187 0
164 181 0
162 179 0
161 180 0
163 181 0
163 182 0
163 181 0
163 183 0
162 182 0
164 182 0
163 180 0
162 179 0
157 175 0
165 183 0
168 188 0
165 185 0
166 183 0
164 183 0
164 183 0
166 186 0
161 179 0
165 185 0
163 181 0
168 187 0
167 186 0
168 186 0
162 181 0
162 179 0
165 184 0
163 183 0
162 181 0
165 187 0
164 188 44
169 192 44
168 192 72
170 193 62
170 193 62
168 192 62
169 193 62
169 193 80
171 195 76
170 195 72
166 190 51
172 196 88
166 190 84
168 192 72
171 194 72
171 195 80
169 193 84
170 195 88
169 194 92
168 193 67
167 192 76
167 190 51
171 195 67
168 192 57
166 191 92
164 189 84
166 191 80
168 193 105
164 189 72
172 196 72
166 190 80
161 185 51
168 192 67
165 189 80
173 196 76
166 190 84
163 188 62
165 189 80
169 193 88
166 189 62
166 190 80
166 190 99
165 189 76
165 189 76
167 191 88
170 194 72
162 185 95
166 190 108
170 194 92
167 191 92
164 188 80
159 184 99
161 185 72
163 187 88
169 193 102
167 189 88
160 184 95
162 186 80
163 187 88
164 187 80
164 187 99
166 189 67
162 185 76
160 184 76
164 187 67
154 177 84
159 182 80
161 184 92
159 183 76
160 183 105
156 179 57
159 182 72
164 187 99
160 183 76
156 179 72
163 185 84
159 182 92
155 179 80
157 180 76
159 181 84
156 179 84
155 178 99
152 175 74
147 169 62
159 181 92
133 155 51
152 175 84
140 161 62
149 171 92
153 175 57
145 167 62
144 165 62
133 153 70
125 146 88
121 145 136
95 120 102
92 117 121
99 124 122
83 109 101
92 118 120
87 113 111
94 119 137
84 110 111
87 114 119
103 127 134
88 115 120
91 117 133
88 114 130
94 121 143
101 126 130
100 124 129
98 122 126
92 118 133
94 120 138
91 116 126
89 114 120
94 119 124
98 124 139
103 127 125
96 123 141
88 114 130
84 112 131
90 117 136
87 114 143
92 119 149
80 109 147
92 116 139
67 99 136
82 108 136
88 114 136
83 107 131
80 107 135
84 109 137
91 115 146
76 105 138
73 101 139
81 107 129
72 99 125
66 97 120
69 100 123
76 105 139
69 99 115
68 98 124
61 92 114
69 99 122
69 98 125
59 91 111
64 94 117
64 97 124
64 95 104
58 91 103
63 95 113
65 98 120
63 94 109
56 89 103
56 88 113
69 101 129
56 89 118
59 94 137
57 90 110
58 92 114
59 93 134
56 89 116
58 92 125
56 89 118
58 92 117
59 92 120
57 91 111
59 93 134
58 93 121
58 91 124
57 90 105
58 91 113
59 93 126
59 93 126
58 92 114
58 91 122
59 93 132
57 91 121
59 92 117
60 94 125
60 94 125
58 91 118
57 90 111
59 92 115
59 93 120
59 93 120
60 94 124
58 92 115
60 94 130
59 93 121
59 92 118
58 92 115
58 92 114
59 93 125
59 93 118
60 95 127
58 92 114
58 92 118
61 95 139
58 92 115
58 92 115
57 91 113
57 91 102
57 90 110
57 90 115
58 92 110
58 92 114
58 91 122
57 91 113
59 92 122
58 91 121
57 91 114
58 91 131
56 89 108
59 93 121
58 92 117
55 88 105
57 90 113
56 89 111
59 92 118
57 90 115
57 91 111
55 88 105
57 90 107
58 91 103
55 87 103
55 87 110
59 91 103
66 95 84
87 108 82
90 107 65
83 101 44
111 125 0
98 113 0
117 129 0
103 119 0
109 125 0
114 130 0
113 127 0
116 130 0
120 135 0
108 124 0
110 126 0
121 137 0
128 144 0
110 126 0
123 138 0
127 144 0
120 135 0
126 143 0
120 135 0
118 134 0
123 140 0
126 142 0
124 141 0
133 151 0
128 143 0
135 152 0
126 143 0
126 143 0
139 156 0
134 150 0
132 150 0
131 146 0
134 151 0
140 158 0
138 155 0
134 149 0
135 152 0
134 150 0
138 156 0
137 153 0
144 159 0
136 150 0
142 158 0
143 157 0
140 155 0
143 159 0
138 155 0
141 154 0
138 155 0
140 157 0
142 158 0
140 159 0
137 153 0
144 161 0
141 156 0
144 161 0
143 162 0
146 161 0
143 159 0
148 163 0
146 164 0
133 151 0
147 162 0
149 164 0
143 160 0
155 172 0
148 161 0
140 158 0
135 149 0
150 166 0
146 163 0
152 170 0
149 164 0
150 167 0
151 168 0
150 166 0
149 165 0
153 169 0
147 161 0
146 161 0
150 164 0
158 178 0
154 172 0
149 165 0
147 162 0
149 165 0
145 162 0
156 174 0
152 168 0
155 172 0
153 167 0
153 166 0
151 170 0
156 174 0
153 170 0
154 169 0
158 174 0
152 167 0
150 165 0
151 165 0
155 174 0
146 162 0
147 164 0
156 172 0
159 175 0
158 175 0
158 176 0
159 176 0
162 180 0
158 176 0
159 176 0
154 170 0
157 173 0
160 177 0
162 179 0
163 181 0
163 180 0
158 175 0
156 172 0
155 170 0
152 170 0
161 176 0
156 172 0
158 174 0
161 180 0
160 178 0
167 188 0
160 179 0
167 184 0
164 180 0
164 180 0
163 182 0
167 185 0
166 185 0
160 180 0
165 184 0
160 176 0
166 184 0
160 181 0
165 184 0
154 171 0
163 181 0
159 177 0
166 185 0
166 184 0
167 187 0
166 184 0
163 179 0
169 188 0
164 183 0
167 187 0
170 189 0
167 187 0
167 186 0
163 183 0
160 176 0
166 184 0
163 181 0
165 185 0
169 189 0
165 185 0
166 186 0
170 191 0
164 184 0
166 185 0
167 186 0
167 187 0
168 192 67
173 197 84
169 192 57
168 192 76
167 192 62
171 195 62
172 195 36
174 198 88
173 196 72
171 196 67
168 191 51
167 191 92
167 191 72
169 192 67
168 192 67
165 189 67
168 191 44
168 192 80
162 187 72
172 196 76
165 189 76
166 190 76
169 193 72
168 191 72
170 193 88
166 190 67
164 188 62
163 186 67
166 190 92
167 191 62
167 190 72
168 192 72
169 194 72
163 187 76
173 197 95
172 196 99
164 188 95
169 193 99
165 189 84
166 190 95
168 191 76
167 192 92
165 189 76
168 192 88
167 190 80
163 187 80
161 185 67
168 193 92
163 187 99
167 189 76
164 186 92
165 189 72
167 189 80
158 182 67
162 186 72
162 185 72
165 188 95
160 183 67
166 190 62
162 186 92
165 190 117
152 175 76
166 189 62
160 184 67
164 188 99
164 188 92
156 179 76
165 188 102
158 181 76
155 178 88
163 186 92
155 177 72
157 180 88
155 177 95
156 178 67
161 184 67
155 178 67
153 177 84
150 172 84
149 171 72
159 181 72
154 176 80
153 175 105
145 166 62
150 172 80
145 168 92
148 170 65
147 168 67
153 175 62
144 166 80
138 159 80
146 168 72
148 170 84
140 162 74
127 150 115
108 131 100
91 116 110
88 113 99
87 112 108
93 118 114
98 123 139
92 118 120
105 129 126
99 124 131
91 117 115
84 111 124
92 118 120
93 119 125
88 114 127
94 119 125
91 117 125
98 123 131
90 116 130
107 132 148
91 118 122
100 123 129
105 129 132
85 113 134
98 123 136
92 117 137
88 115 142
101 127 136
91 117 146
92 118 139
84 111 137
93 120 143
92 118 141
84 109 143
92 115 138
81 108 139
88 114 146
79 106 131
84 107 128
93 114 134
81 104 123
90 114 134
88 108 119
75 104 127
65 96 120
69 98 123
67 98 125
74 104 127
69 99 111
74 103 119
64 97 124
69 98 117
59 91 118
64 95 120
60 93 117
65 96 115
59 93 125
62 94 115
62 94 115
64 98 127
61 94 118
57 90 115
59 93 135
56 89 105
57 91 115
56 89 103
58 92 114
57 91 115
56 88 120
58 92 126
58 92 120
57 91 111
59 93 118
58 92 111
57 90 118
58 93 122
57 90 115
58 92 113
58 91 127
58 92 115
56 89 120
58 93 114
59 94 122
58 92 127
58 92 129
57 91 122
57 90 108
59 93 118
57 91 115
58 93 120
59 93 124
59 93 122
59 93 120
56 89 113
58 92 122
57 90 110
57 91 108
56 89 107
59 92 118
58 91 120
58 92 118
59 93 126
58 92 117
57 90 114
57 91 118
60 94 127
59 93 129
59 93 129
57 91 107
57 91 114
59 92 124
58 91 113
58 92 113
57 90 117
57 90 113
58 92 121
56 89 105
59 93 124
59 92 122
55 88 111
57 90 110
56 89 110
56 89 99
54 86 95
56 89 107
57 89 113
55 87 97
54 86 97
57 90 108
55 87 94
57 90 105
56 88 111
53 85 103
60 88 86
72 96 88
81 101 57
99 117 62
108 126 44
107 123 25
110 126 0
106 121 0
113 129 0
113 129 0
112 127 0
114 130 0
113 130 0
114 129 0
110 126 0
123 137 0
119 135 0
123 138 0
110 123 0
125 139 0
123 139 0
122 138 0
130 147 0
137 152 0
123 138 0
126 142 0
127 142 0
133 149 0
129 145 0
126 142 0
123 140 0
126 142 0
129 143 0
133 151 0
128 145 0
130 144 0
124 138 0
135 153 0
121 136 0
132 149 0
134 148 0
133 149 0
133 148 0
129 144 0
142 158 0
135 151 0
140 157 0
130 147 0
139 155 0
135 153 0
138 155 0
133 150 0
141 155 0
142 159 0
137 153 0
144 162 0
141 158 0
141 157 0
136 153 0
148 164 0
154 173 0
146 162 0
143 161 0
141 158 0
149 166 0
148 166 0
136 149 0
149 166 0
147 164 0
143 160 0
134 150 0
138 155 0
148 165 0
147 163 0
148 164 0
145 159 0
148 163 0
149 165 0
143 159 0
151 167 0
143 157 0
150 165 0
148 164 0
149 165 0
157 175 0
155 170 0
151 168 0
152 168 0
146 161 0
146 163 0
150 164 0
151 168 0
147 163 0
147 162 0
156 172 0
154 172 0
154 169 0
154 172 0
148 164 0
155 172 0
162 178 0
156 172 0
154 168 0
151 167 0
154 171 0
155 173 0
151 168 0
152 170 0
158 175 0
155 169 0
158 176 0
164 182 0
151 170 0
161 179 0
155 171 0
163 181 0
161 177 0
160 179 0
157 173 0
160 176 0
162 179 0
159 177 0
161 178 0
160 177 0
161 178 0
162 180 0
160 177 0
159 176 0
163 179 0
162 179 0
157 173 0
166 185 0
160 176 0
163 182 0
163 180 0
162 182 0
156 173 0
167 185 0
161 178 0
165 184 0
162 180 0
162 180 0
168 187 0
166 186 0
165 184 0
157 175 0
166 187 0
164 184 0
165 184 0
167 187 0
163 181 0
165 184 0
162 181 0
166 187 0
164 182 0
162 180 0
163 181 0
167 187 0
164 183 0
167 189 0
166 185 0
161 179 0
169 187 0
163 183 0
167 187 0
166 186 0
165 185 0
165 184 0
165 185 0
165 185 0
168 188 0
166 182 0
166 188 0
175 199 105
165 190 76
168 192 84
168 192 62
172 196 92
166 191 62
174 197 72
164 187 67
171 194 62
169 193 67
172 195 67
166 190 51
168 192 67
170 194 76
167 192 51
168 192 57
172 196 92
170 193 67
167 191 72
167 190 76
167 191 84
171 194 67
167 191 62
168 192 62
170 194 80
166 190 76
163 187 67
166 190 72
167 190 67
171 196 80
171 193 80
170 194 88
168 191 80
165 188 72
166 190 62
166 190 92
167 191 88
171 196 99
168 192 72
163 186 57
161 185 84
167 190 99
167 191 84
168 192 92
162 185 88
173 196 111
163 187 99
168 192 92
168 192 108
163 187 72
174 197 84
162 185 80
164 188 92
166 189 84
169 192 76
160 184 76
162 186 84
165 187 92
162 185 88
164 186 67
161 184 62
162 185 92
163 187 102
167 191 114
157 179 76
163 187 108
156 180 62
160 182 95
156 180 102
153 176 57
157 180 80
161 183 84
160 183 99
155 178 88
156 180 92
151 173 80
157 181 80
158 181 84
159 181 102
152 173 76
151 173 72
147 169 84
155 177 57
150 172 76
151 173 67
138 161 62
140 162 72
142 164 67
138 160 72
139 160 72
145 167 84
142 164 88
145 167 84
142 163 72
134 155 73
118 140 99
97 121 116
94 120 121
89 114 121
93 118 124
91 117 118
84 110 118
102 126 140
94 119 118
94 119 122
87 114 138
89 116 116
100 126 140
94 119 134
89 115 116
96 120 128
99 124 107
91 116 122
94 118 130
98 122 109
106 130 131
96 121 131
100 125 131
92 118 132
94 121 129
91 118 125
82 109 143
85 114 140
82 110 140
82 110 132
88 114 136
87 115 136
82 108 134
81 108 122
78 106 126
88 112 143
95 117 140
76 103 126
92 114 141
93 114 122
87 110 130
86 110 132
78 105 131
70 99 127
71 100 122
67 96 109
68 99 125
74 103 134
70 100 124
74 104 124
59 92 120
63 94 114
67 98 122
62 93 109
66 97 115
59 91 117
61 93 119
60 94 118
57 90 108
63 95 108
62 94 113
59 92 103
59 92 113
60 93 111
57 90 118
58 92 114
57 90 114
59 93 122
56 89 102
59 93 122
59 93 126
56 89 97
59 93 121
57 91 108
57 90 107
58 91 113
57 91 117
60 94 134
58 92 115
59 93 115
57 91 114
60 94 126
57 90 114
58 92 124
57 91 114
57 90 126
58 93 115
59 92 122
58 91 117
56 90 113
55 88 99
58 91 113
59 94 125
58 92 113
58 92 111
59 93 124
58 92 130
56 90 114
57 90 110
60 94 131
58 92 121
58 92 111
58 91 124
57 91 117
57 90 122
58 92 118
57 90 108
57 89 105
57 90 118
55 89 110
58 91 125
58 91 115
58 91 113
58 91 117
57 89 108
56 89 120
58 92 113
59 92 118
55 87 97
57 90 114
58 91 118
56 88 103
56 89 99
58 91 111
56 89 100
56 89 113
55 88 99
58 92 115
56 88 94
57 90 108
54 87 97
68 97 110
69 94 88
88 108 65
94 110 51
97 113 36
114 129 25
122 137 0
106 121 0
126 144 0
125 142 0
112 126 0
114 130 0
116 130 0
122 137 0
120 135 0
125 142 0
120 135 0
119 135 0
124 141 0
117 133 0
122 136 0
114 126 0
118 134 0
119 133 0
121 134 0
133 150 0
134 149 0
130 147 0
130 145 0
128 144 0
128 143 0
128 145 0
121 135 0
134 150 0
129 146 0
126 143 0
131 147 0
125 139 0
132 149 0
126 141 0
131 145 0
139 155 0
138 154 0
140 156 0
130 144 0
132 148 0
137 154 0
133 149 0
139 156 0
138 157 0
141 157 0
136 153 0
138 155 0
140 158 0
129 145 0
138 154 0
144 162 0
147 164 0
141 157 0
144 160 0
142 159 0
149 166 0
148 166 0
146 162 0
139 155 0
150 168 0
141 157 0
143 160 0
137 155 0
145 161 0
144 161 0
152 167 0
147 166 0
150 167 0
143 158 0
151 166 0
150 168 0
145 163 0
146 162 0
150 168 0
148 166 0
141 158 0
149 166 0
137 151 0
149 165 0
155 173 0
153 170 0
153 171 0
152 169 0
153 170 0
152 168 0
152 169 0
156 170 0
157 174 0
152 168 0
157 175 0
156 174 0
152 168 0
160 177 0
162 181 0
152 169 0
152 167 0
155 172 0
156 174 0
156 170 0
153 170 0
154 173 0
150 165 0
159 176 0
150 167 0
153 170 0
157 174 0
161 178 0
156 173 0
164 183 0
158 174 0
159 174 0
159 176 0
156 174 0
163 179 0
157 175 0
162 179 0
161 178 0
161 178 0
159 176 0
158 175 0
159 176 0
160 176 0
164 181 0
159 177 0
165 182 0
163 182 0
162 181 0
164 181 0
159 176 0
159 178 0
161 179 0
159 177 0
156 176 0
159 176 0
158 177 0
167 185 0
165 183 0
163 180 0
165 183 0
160 179 0
165 183 0
162 179 0
164 182 0
164 181 0
165 184 0
163 182 0
162 182 0
164 182 0
166 184 0
166 186 0
159 177 0
164 181 0
166 185 0
163 180 0
165 185 0
166 185 0
167 186 0
164 184 0
167 189 0
164 182 0
166 187 0
164 182 0
165 184 0
167 184 0
166 185 0
168 189 0
164 184 0
166 186 0
172 197 95
174 198 84
169 192 57
170 194 80
171 194 57
171 195 88
172 197 84
170 195 62
164 187 44
164 188 72
167 192 92
173 198 62
169 193 67
169 193 80
165 188 57
170 195 84
170 194 84
170 194 72
165 189 67
171 195 80
167 191 62
164 188 76
171 194 84
168 192 67
167 191 72
168 192 57
171 195 88
173 197 105
168 192 84
165 188 57
168 191 92
166 190 80
166 190 88
168 191 95
172 195 102
163 187 105
165 190 95
165 189 80
172 196 92
168 191 88
166 189 84
154 178 67
171 194 84
159 184 95
168 191 92
169 192 80
165 189 88
165 188 99
166 189 88
168 191 84
162 185 72
163 186 99
171 195 102
161 185 84
163 186 105
168 191 72
163 187 102
165 188 95
157 180 88
166 189 92
169 192 114
164 187 92
162 185 92
164 186 88
159 180 92
154 177 88
162 184 84
167 189 111
158 180 92
160 183 92
159 182 72
164 187 114
163 184 88
157 180 84
163 184 92
157 180 84
155 177 95
153 175 92
157 179 88
154 176 92
153 174 95
161 184 72
149 172 62
144 165 88
152 175 99
146 167 76
153 175 88
153 174 92
152 174 72
145 167 67
141 162 62
143 163 72
140 161 80
148 169 102
140 161 94
126 147 80
115 138 108
101 124 103
92 118 124
83 111 121
85 110 120
87 114 113
88 115 113
96 121 120
108 132 129
87 114 127
88 115 129
90 117 110
95 121 115
86 111 119
86 111 110
89 114 112
90 116 115
96 122 131
104 128 131
110 133 130
102 125 132
93 119 126
92 118 127
99 123 134
89 116 135
106 131 142
91 118 137
94 120 143
85 113 132
77 107 143
87 113 134
93 117 141
92 116 132
90 113 124
93 116 133
96 117 130
94 115 128
92 113 130
94 114 131
91 114 141
80 104 111
78 104 126
77 105 130
71 101 131
72 102 127
67 96 118
70 101 118
62 96 134
72 101 115
62 94 118
67 97 120
60 93 120
58 92 113
62 94 108
65 97 115
61 92 111
58 91 115
56 90 111
59 92 108
56 89 114
60 93 116
57 90 110
59 92 122
58 91 104
58 92 111
55 88 110
58 92 117
57 91 111
59 94 125
60 94 124
56 89 107
59 93 126
59 92 126
57 91 111
59 92 120
58 92 125
57 90 105
59 93 125
58 92 130
60 94 127
57 90 107
57 91 117
57 91 115
58 91 113
59 93 121
56 89 118
57 91 118
60 95 129
58 92 117
58 92 120
57 91 111
56 89 107
58 92 113
58 92 126
58 92 126
59 94 126
58 91 126
55 88 107
57 90 108
57 91 113
57 91 122
58 91 115
57 91 107
59 93 122
57 90 115
56 89 108
55 88 95
56 89 111
57 91 108
57 90 107
58 92 113
57 90 108
59 93 126
58 91 115
60 94 122
57 90 114
58 91 108
59 93 122
58 91 122
57 90 111
55 87 97
57 90 111
56 89 107
55 87 97
56 88 97
55 88 100
55 86 105
57 89 113
61 92 110
61 91 103
72 95 62
98 116 62
93 111 51
101 118 47
105 118 0
105 118 0
107 123 0
108 123 0
110 125 0
124 139 0
109 123 0
116 130 0
120 137 0
114 129 0
110 126 0
132 148 0
117 133 0
125 141 0
114 129 0
135 150 0
120 136 0
119 133 0
114 130 0
124 139 0
122 139 0
126 141 0
129 145 0
129 147 0
136 153 0
118 135 0
134 150 0
129 145 0
120 137 0
128 146 0
130 146 0
129 144 0
121 140 0
132 148 0
134 151 0
135 153 0
142 159 0
137 155 0
130 147 0
142 158 0
145 164 0
135 152 0
141 157 0
139 157 0
137 153 0
135 154 0
137 152 0
144 162 0
144 162 0
141 160 0
136 154 0
146 163 0
136 152 0
143 159 0
143 161 0
142 161 0
139 154 0
150 166 0
147 162 0
150 168 0
145 163 0
144 160 0
140 158 0
147 163 0
141 159 0
142 159 0
141 158 0
150 167 0
143 160 0
142 158 0
142 161 0
151 168 0
146 163 0
147 166 0
151 167 0
152 169 0
150 167 0
144 159 0
150 166 0
154 171 0
144 160 0
152 169 0
151 169 0
146 162 0
146 162 0
156 173 0
154 170 0
149 164 0
154 168 0
151 166 0
151 171 0
146 163 0
156 172 0
159 175 0
160 176 0
151 168 0
152 168 0
154 169 0
158 173 0
154 172 0
156 173 0
159 178 0
154 171 0
156 174 0
160 177 0
156 173 0
158 174 0
154 171 0
162 179 0
159 176 0
155 173 0
155 171 0
158 175 0
161 177 0
164 183 0
153 169 0
158 175 0
162 180 0
155 174 0
158 175 0
158 175 0
160 178 0
157 175 0
156 174 0
160 179 0
161 180 0
158 177 0
160 179 0
160 176 0
164 181 0
161 179 0
162 181 0
166 184 0
159 180 0
157 176 0
164 182 0
157 175 0
165 183 0
160 178 0
162 178 0
166 186 0
164 181 0
166 185 0
166 186 0
162 178 0
164 182 0
162 182 0
166 185 0
160 179 0
161 180 0
162 180 0
164 180 0
164 185 0
165 182 0
167 186 0
166 186 0
162 181 0
165 183 0
162 181 0
159 179 0
163 182 0
163 183 0
168 189 0
166 187 0
165 185 0
166 184 0
163 184 0
168 189 0
168 188 0
165 187 0
173 196 57
171 196 76
163 187 36
172 195 72
169 192 44
171 194 44
169 193 67
172 197 88
170 194 88
167 191 72
171 195 80
172 197 88
169 193 88
173 197 76
169 194 80
164 190 92
168 192 62
172 196 57
167 191 80
171 194 67
168 192 80
173 197 88
168 192 72
169 192 95
166 189 44
167 192 95
169 193 88
165 190 80
168 191 76
173 196 95
168 192 72
168 192 88
170 194 84
173 197 105
164 188 76
167 190 95
171 195 95
165 188 84
167 191 88
171 195 102
167 191 95
168 192 99
167 191 105
166 190 114
168 193 114
172 194 102
169 192 117
163 186 102
169 193 105
164 186 95
163 186 88
167 191 95
164 185 99
166 188 105
159 182 95
165 187 95
162 186 80
156 179 92
162 186 105
160 183 102
167 190 80
164 187 102
166 189 125
160 183 78
162 184 88
164 186 120
167 190 88
169 191 99
155 179 92
159 182 84
164 186 92
158 181 88
158 181 88
155 177 92
160 183 95
154 177 84
156 179 102
156 178 99
158 180 67
164 185 84
153 175 82
151 173 80
151 174 92
146 168 62
151 171 108
144 166 51
155 176 108
143 165 80
147 168 67
146 167 51
144 165 84
140 162 72
143 164 84
138 159 80
132 151 80
131 151 60
124 145 86
118 140 100
86 111 88
90 116 113
96 120 118
83 108 102
77 105 115
92 118 136
86 113 124
112 136 143
92 117 127
98 122 122
82 110 118
99 124 125
112 136 144
97 122 129
102 127 130
91 116 127
107 131 134
102 127 125
92 117 127
91 117 129
104 129 137
83 111 131
99 123 112
93 118 125
97 123 145
88 114 133
83 110 135
91 117 139
94 119 136
93 117 134
77 106 129
95 117 121
97 116 120
88 111 121
85 109 123
88 112 127
93 112 129
84 106 116
90 110 118
79 105 133
69 100 140
72 100 126
77 103 115
72 102 122
66 96 107
67 97 103
71 101 125
78 105 115
71 100 118
62 93 115
63 95 118
61 93 111
67 98 105
69 99 100
59 91 110
57 88 94
60 93 122
61 92 120
60 92 115
60 93 114
61 93 105
56 89 113
58 92 114
58 92 117
57 91 122
56 89 114
57 90 111
58 91 111
56 89 108
57 91 112
58 91 120
59 92 122
57 90 105
57 91 117
59 93 126
58 93 112
58 92 116
58 92 114
56 89 105
57 90 107
57 91 107
59 93 121
58 91 119
56 89 103
57 90 118
58 91 121
57 91 115
58 91 113
57 91 118
57 91 115
58 91 122
58 91 110
58 92 121
58 92 114
56 89 111
55 89 102
57 91 118
56 89 108
55 88 110
56 88 107
58 91 114
57 90 108
59 93 122
57 90 118
58 91 121
57 91 113
57 90 107
58 91 117
56 90 115
59 94 117
57 90 107
59 92 117
57 90 100
56 89 102
57 90 111
56 89 103
57 90 108
58 92 111
58 91 115
57 89 107
56 90 110
56 88 108
54 85 99
55 88 95
54 85 94
59 87 86
77 101 80
76 97 72
73 94 67
107 125 40
91 104 0
111 126 0
100 116 0
112 126 0
108 124 0
120 135 0
118 133 0
121 134 0
114 130 0
105 121 0
113 128 0
117 133 0
121 137 0
122 135 0
125 141 0
113 130 0
126 142 0
119 133 0
113 128 0
123 139 0
135 153 0
128 141 0
123 140 0
134 150 0
126 141 0
123 138 0
128 146 0
125 143 0
125 141 0
136 152 0
121 137 0
125 142 0
134 150 0
136 154 0
130 145 0
129 146 0
134 151 0
145 162 0
140 156 0
129 144 0
138 153 0
137 153 0
123 139 0
136 154 0
132 149 0
137 154 0
150 168 0
141 157 0
134 152 0
135 151 0
139 156 0
147 166 0
150 168 0
139 155 0
143 160 0
143 158 0
145 163 0
140 157 0
142 159 0
143 161 0
151 168 0
142 161 0
135 152 0
153 173 0
148 164 0
140 156 0
147 164 0
138 152 0
145 160 0
145 162 0
147 162 0
151 169 0
147 164 0
148 166 0
141 157 0
152 169 0
141 156 0
148 166 0
150 164 0
150 167 0
142 159 0
146 161 0
143 159 0
159 177 0
153 171 0
148 166 0
157 173 0
152 170 0
149 166 0
152 169 0
145 162 0
158 176 0
160 177 0
149 167 0
156 177 0
154 172 0
153 170 0
150 165 0
158 175 0
153 170 0
156 175 0
156 171 0
158 175 0
154 169 0
157 173 0
159 174 0
156 173 0
153 170 0
155 170 0
153 173 0
162 179 0
157 174 0
157 173 0
162 178 0
152 169 0
160 176 0
160 176 0
156 173 0
157 173 0
159 178 0
161 180 0
159 178 0
159 178 0
159 176 0
163 181 0
167 186 0
163 180 0
166 185 0
155 173 0
162 181 0
163 183 0
166 186 0
163 181 0
165 184 0
166 184 0
162 181 0
165 185 0
163 182 0
158 175 0
164 183 0
162 181 0
162 179 0
165 185 0
162 180 0
161 180 0
163 183 0
162 181 0
163 182 0
162 180 0
166 184 0
164 181 0
165 185 0
165 185 0
168 190 0
163 181 0
168 187 0
166 188 0
163 180 0
166 186 0
166 186 0
163 182 0
163 181 0
164 183 0
164 185 0
164 185 0
167 186 0
162 180 0
167 187 0
164 183 0
168 187 0
166 185 0
165 186 0
168 192 67
171 196 92
167 191 72
167 191 62
167 192 67
173 196 62
167 191 51
172 195 80
170 194 67
174 197 92
169 193 80
171 196 92
170 194 88
168 192 72
167 192 76
168 192 80
168 191 62
171 195 84
166 190 76
166 191 92
170 194 102
168 192 88
164 188 92
171 195 95
169 192 80
171 195 80
172 195 99
170 194 99
169 194 95
167 190 80
167 191 92
169 192 76
172 196 95
166 189 80
166 190 51
171 195 111
171 196 88
167 191 99
171 195 88
161 185 84
169 194 105
169 191 92
164 188 99
165 188 92
170 193 84
166 189 102
169 193 111
168 192 99
169 192 80
166 189 111
168 190 80
167 189 102
158 181 62
167 190 67
161 185 76
170 193 111
166 190 88
162 186 100
168 191 105
169 191 99
160 182 92
161 184 108
167 190 99
159 182 84
167 190 99
169 191 111
160 182 95
155 178 95
159 182 111
156 179 95
154 176 84
162 185 99
164 185 108
158 180 102
158 180 92
162 185 108
157 180 105
166 188 95
161 182 111
158 180 99
152 173 88
149 171 84
154 175 84
153 176 105
152 174 102
152 174 105
151 172 88
155 176 84
149 170 72
150 172 88
144 164 67
142 163 62
144 165 72
138 159 72
136 156 57
135 155 62
140 161 92
115 136 67
123 144 108
101 124 103
86 111 115
99 124 141
97 122 118
87 113 116
81 107 98
85 111 110
86 113 113
96 121 131
82 110 127
82 109 123
90 116 114
102 126 126
89 115 113
98 123 134
93 118 126
102 127 127
94 120 129
87 114 115
90 116 121
102 126 136
91 119 134
89 116 129
103 128 148
98 123 126
101 125 145
108 130 149
98 122 146
87 112 126
94 118 135
99 120 127
93 116 141
95 116 129
99 118 119
97 117 123
94 114 125
88 111 134
85 109 121
83 106 121
96 116 124
74 100 127
70 99 115
75 102 117
74 102 121
73 102 116
76 104 107
73 101 110
66 97 108
75 105 114
70 100 120
63 94 121
63 94 115
66 97 118
59 91 115
60 92 107
62 95 119
60 93 122
57 91 115
58 92 121
57 90 120
57 91 107
55 88 103
56 89 97
56 89 104
59 93 122
57 91 108
58 91 111
58 91 121
58 91 115
57 90 113
57 91 108
57 90 114
58 91 107
57 90 118
59 93 121
57 91 124
58 92 113
60 94 135
59 93 120
59 93 125
57 90 115
59 93 125
58 91 111
57 90 111
57 90 122
59 92 118
56 88 110
57 90 111
58 91 117
58 91 126
58 91 111
58 92 114
58 92 120
58 91 113
58 91 121
58 91 115
57 91 113
56 89 102
59 93 126
56 88 108
57 90 113
58 91 118
56 89 111
57 91 103
57 89 105
56 89 107
55 88 97
57 91 108
56 89 117
56 89 105
58 91 117
56 89 107
57 90 108
57 90 110
56 89 113
57 91 118
56 89 103
55 87 97
55 88 99
53 84 86
56 89 108
57 90 103
53 84 94
67 96 92
79 103 82
86 106 57
93 110 31
101 117 18
97 114 25
104 120 18
108 122 0
117 132 0
111 128 0
113 129 0
110 126 0
108 123 0
119 135 0
101 116 0
109 123 0
119 136 0
121 136 0
121 137 0
114 129 0
109 126 0
107 122 0
124 140 0
124 141 0
115 130 0
122 138 0
122 138 0
128 144 0
125 141 0
135 152 0
129 146 0
123 140 0
131 150 0
125 142 0
139 155 0
134 151 0
133 149 0
136 153 0
124 141 0
135 153 0
138 155 0
130 147 0
131 146 0
140 157 0
132 147 0
134 151 0
138 155 0
131 148 0
130 146 0
128 143 0
139 157 0
131 148 0
141 156 0
137 153 0
140 157 0
139 157 0
141 159 0
142 159 0
133 150 0
148 166 0
131 149 0
146 164 0
141 158 0
143 159 0
145 162 0
138 155 0
139 156 0
142 159 0
144 162 0
141 159 0
150 166 0
150 166 0
142 161 0
146 161 0
143 159 0
148 165 0
152 169 0
150 167 0
154 172 0
145 160 0
145 163 0
152 169 0
151 170 0
154 172 0
156 174 0
149 166 0
151 167 0
145 163 0
157 174 0
152 170 0
146 162 0
153 170 0
157 174 0
156 173 0
141 155 0
149 168 0
151 167 0
151 167 0
155 172 0
155 172 0
152 170 0
154 171 0
159 176 0
152 168 0
152 169 0
153 170 0
153 172 0
154 171 0
156 173 0
146 164 0
158 176 0
152 167 0
157 173 0
160 176 0
161 179 0
155 173 0
160 177 0
156 174 0
160 178 0
156 174 0
161 179 0
159 176 0
158 175 0
156 172 0
155 173 0
161 177 0
159 175 0
156 176 0
160 176 0
162 181 0
159 176 0
157 174 0
164 182 0
159 179 0
158 177 0
165 184 0
165 184 0
160 179 0
157 175 0
160 176 0
163 182 0
162 182 0
162 179 0
160 178 0
165 183 0
165 183 0
162 176 0
163 184 0
162 179 0
165 184 0
163 181 0
164 184 0
167 185 0
163 183 0
160 179 0
162 180 0
163 181 0
164 183 0
167 187 0
167 186 0
163 182 0
162 180 0
166 186 0
162 182 0
162 180 0
161 180 0
167 187 0
165 186 0
162 182 0
165 185 0
166 185 0
162 180 0
164 180 0
164 183 0
169 189 0
168 188 0
165 186 0
167 187 0
171 195 67
170 194 84
172 196 62
167 192 72
172 196 72
171 194 80
169 192 51
168 192 57
169 193 67
167 191 44
169 193 72
169 192 67
167 192 57
172 197 92
170 195 67
171 194 80
174 197 72
166 191 67
168 192 99
171 195 80
171 196 88
167 191 88
168 192 62
174 196 72
165 189 80
171 195 67
167 191 76
169 192 102
171 195 76
171 195 88
169 192 95
172 195 92
169 194 95
163 187 72
173 196 108
165 189 57
170 193 84
169 193 84
167 192 84
170 194 111
166 190 80
174 198 92
173 197 88
164 187 102
164 188 76
162 185 84
166 190 88
165 188 99
164 186 111
167 189 80
160 181 67
162 185 84
163 186 84
168 190 111
163 186 99
161 184 84
162 185 105
167 189 114
165 188 99
159 182 105
162 185 105
169 193 99
159 182 92
163 186 95
156 178 72
164 186 105
166 188 105
164 186 111
162 185 88
158 180 88
151 173 84
157 181 95
161 183 95
155 177 84
161 183 105
157 179 80
155 177 99
154 176 88
155 176 92
151 173 95
149 171 67
158 179 92
152 173 95
150 172 92
152 175 67
151 173 88
143 165 51
157 178 102
140 162 57
140 161 84
151 171 92
156 177 92
146 167 102
147 167 76
127 147 36
147 167 67
143 164 62
134 154 76
134 155 102
113 136 100
99 122 105
96 120 107
82 108 108
88 113 111
95 119 113
108 133 141
89 114 115
87 113 126
93 118 130
98 123 123
93 117 107
93 119 120
92 117 133
101 126 127
108 132 132
94 119 105
97 120 115
110 133 130
99 122 115
106 129 135
92 117 129
95 121 135
92 118 127
89 115 124
98 122 124
96 120 133
97 121 126
97 120 142
83 107 121
90 113 116
89 113 130
102 123 129
87 111 135
96 118 109
104 123 129
83 108 115
84 106 110
84 110 105
78 103 121
67 95 122
67 95 114
70 100 127
67 97 114
79 107 107
71 101 114
75 103 118
73 101 115
71 101 114
71 100 114
77 103 113
66 95 106
52 84 84
60 91 100
62 92 111
64 95 107
63 94 105
59 92 111
58 91 113
57 88 103
56 88 108
58 91 103
55 88 100
56 89 97
57 90 110
58 91 117
57 90 110
58 92 113
58 91 108
56 89 102
56 89 105
57 91 110
56 89 113
58 92 114
57 90 114
57 91 105
56 89 100
56 88 102
56 89 103
58 92 111
58 91 114
58 91 113
57 90 111
58 91 121
59 93 121
58 92 118
59 92 125
58 91 113
55 88 99
57 90 118
59 92 130
58 91 118
58 92 121
58 92 111
58 92 122
56 89 105
57 90 105
57 91 107
58 91 113
57 91 107
56 90 111
56 89 117
59 92 125
57 91 103
57 91 113
56 89 113
56 88 102
57 90 97
57 90 102
57 90 113
55 88 88
56 89 103
57 90 108
57 90 107
57 90 102
54 86 103
56 89 103
54 86 99
54 86 94
55 87 94
58 88 97
53 81 78
72 96 80
80 101 65
90 107 60
94 113 60
101 118 18
107 122 0
97 112 0
102 118 0
111 126 0
106 122 0
120 135 0
112 127 0
116 134 0
118 135 0
113 128 0
108 123 0
124 138 0
126 143 0
127 144 0
111 127 0
122 137 0
118 133 0
121 138 0
123 139 0
134 150 0
126 141 0
118 136 0
133 151 0
126 142 0
122 140 0
128 146 0
126 141 0
135 153 0
129 145 0
118 133 0
133 150 0
130 145 0
125 140 0
131 148 0
123 141 0
135 153 0
128 143 0
144 160 0
138 158 0
127 144 0
143 161 0
139 155 0
128 145 0
140 157 0
137 152 0
137 154 0
137 153 0
142 160 0
137 154 0
145 163 0
146 162 0
140 157 0
136 153 0
145 162 0
143 162 0
137 154 0
136 152 0
143 160 0
137 155 0
147 163 0
144 161 0
145 162 0
137 151 0
143 161 0
141 157 0
145 163 0
143 160 0
141 158 0
145 163 0
150 166 0
149 167 0
147 164 0
156 172 0
149 166 0
156 174 0
149 166 0
149 166 0
155 175 0
154 169 0
155 173 0
155 173 0
158 177 0
148 166 0
152 170 0
148 166 0
148 168 0
153 172 0
150 168 0
148 165 0
143 157 0
150 165 0
152 171 0
161 179 0
158 177 0
156 174 0
150 168 0
151 167 0
155 172 0
157 174 0
158 176 0
157 176 0
151 169 0
156 175 0
155 171 0
156 173 0
158 176 0
155 175 0
158 175 0
156 174 0
158 177 0
158 176 0
155 171 0
146 163 0
156 174 0
159 175 0
161 179 0
157 177 0
158 175 0
157 176 0
160 179 0
156 172 0
157 177 0
155 172 0
162 182 0
164 183 0
160 178 0
162 178 0
162 183 0
166 184 0
164 183 0
160 179 0
160 176 0
156 171 0
162 181 0
162 180 0
157 176 0
157 174 0
160 177 0
159 178 0
166 184 0
164 183 0
158 175 0
161 180 0
167 184 0
160 178 0
165 184 0
161 180 0
164 182 0
161 180 0
164 184 0
166 185 0
164 183 0
168 188 0
165 183 0
161 180 0
165 184 0
163 181 0
163 182 0
165 185 0
161 179 0
164 183 0
157 176 0
161 180 0
165 185 0
172 192 0
163 183 0
166 186 0
169 188 0
163 184 0
165 186 0
166 186 0
163 183 0
167 185 0
168 190 0
171 195 84
172 197 92
169 193 76
169 194 84
171 196 62
170 194 80
168 193 62
170 195 84
169 192 57
170 194 67
170 194 72
168 192 80
170 194 72
173 196 92
172 196 80
170 194 76
168 193 80
172 195 88
172 196 80
167 191 88
168 192 76
173 196 67
167 192 88
170 193 92
164 189 67
171 195 76
172 196 108
168 192 84
173 196 95
167 190 88
163 187 88
169 191 76
173 196 114
172 194 92
164 187 88
167 190 72
171 193 102
167 192 80
172 196 95
173 196 99
173 196 95
164 188 92
165 187 76
169 192 108
161 183 92
169 192 88
162 186 99
172 196 117
166 188 105
170 192 105
166 190 88
159 183 102
166 189 102
158 180 95
162 185 97
173 196 125
165 188 111
160 183 88
161 183 99
165 189 102
164 187 111
164 186 114
167 189 84
161 182 80
166 189 108
163 185 92
154 176 88
164 187 108
166 189 108
163 185 105
156 178 76
160 181 99
156 178 99
161 184 88
159 181 84
161 183 76
164 186 111
157 179 120
153 175 62
159 181 92
144 165 80
155 176 105
154 175 95
156 178 111
144 165 92
150 172 84
151 172 111
147 168 88
147 168 80
152 174 80
148 169 80
149 170 92
140 161 76
143 163 80
136 156 72
129 150 51
140 161 76
134 154 76
127 147 80
109 129 82
113 134 110
94 117 88
90 115 113
93 118 117
84 110 117
81 108 99
86 112 118
99 123 116
92 117 126
81 108 117
111 134 137
97 122 137
101 125 131
93 118 125
99 122 142
89 115 122
97 121 133
88 114 124
98 122 118
83 109 109
100 123 118
94 120 136
101 125 134
98 123 130
113 136 137
91 116 122
104 128 130
85 109 119
86 109 128
92 116 137
89 112 133
95 113 106
94 113 132
93 112 125
107 126 113
94 114 118
97 116 119
85 111 113
67 93 110
84 107 115
71 99 110
70 97 105
70 99 128
73 102 108
60 92 121
70 100 110
67 97 103
68 97 95
70 98 108
67 98 105
73 100 100
68 97 105
68 97 105
58 89 111
58 91 108
60 93 115
61 92 95
58 91 103
60 91 108
57 90 113
58 91 115
57 89 111
56 90 109
57 91 111
58 92 121
57 90 116
58 92 114
57 90 111
57 91 111
56 90 113
58 91 114
57 91 105
56 89 113
57 91 115
55 88 102
55 88 102
56 88 90
58 92 113
59 93 111
55 87 105
58 91 111
56 89 103
58 91 122
57 90 103
57 90 111
58 92 118
58 91 107
57 91 113
57 90 118
58 91 117
56 90 102
56 89 117
57 91 102
58 92 113
58 92 113
54 85 95
57 89 111
57 90 113
57 90 114
57 90 115
56 89 107
57 89 105
57 91 114
58 92 113
57 90 97
57 89 113
56 89 103
54 86 95
55 88 102
56 88 103
56 88 103
57 90 102
57 90 105
54 86 92
56 88 97
54 85 102
54 86 90
56 88 90
61 90 97
63 88 76
78 100 78
83 102 62
98 116 44
90 110 40
105 122 31
115 131 0
105 121 0
113 127 0
102 116 0
111 125 0
111 124 0
104 118 0
106 120 0
115 130 0
123 138 0
115 129 0
107 123 0
117 133 0
126 141 0
119 133 0
112 127 0
122 138 0
122 139 0
113 130 0
122 140 0
118 134 0
131 149 0
125 143 0
124 143 0
126 143 0
133 148 0
126 143 0
128 147 0
132 149 0
125 142 0
131 148 0
130 146 0
135 152 0
141 158 0
133 148 0
122 140 0
144 161 0
143 161 0
134 150 0
127 145 0
132 149 0
139 155 0
140 158 0
126 143 0
142 159 0
144 161 0
143 162 0
143 160 0
140 158 0
145 165 0
138 157 0
140 156 0
139 157 0
142 157 0
135 151 0
145 163 0
149 167 0
138 154 0
150 167 0
140 159 0
146 164 0
144 160 0
131 147 0
140 156 0
147 165 0
147 164 0
154 172 0
143 160 0
142 157 0
142 161 0
144 161 0
146 164 0
145 162 0
153 172 0
153 172 0
150 168 0
148 167 0
147 162 0
151 170 0
145 162 0
151 167 0
150 167 0
152 170 0
152 168 0
155 173 0
153 175 0
158 176 0
159 178 0
143 158 0
156 174 0
154 172 0
150 164 0
151 168 0
149 166 0
151 167 0
151 167 0
151 166 0
152 170 0
157 175 0
153 171 0
156 173 0
156 176 0
149 165 0
155 171 0
155 176 0
157 174 0
158 174 0
153 169 0
156 172 0
155 171 0
154 174 0
159 179 0
156 175 0
156 174 0
154 172 0
154 171 0
156 175 0
156 174 0
159 176 0
154 171 0
161 180 0
165 184 0
158 177 0
163 181 0
158 177 0
157 174 0
163 182 0
163 183 0
162 181 0
162 183 0
160 178 0
159 179 0
164 181 0
160 179 0
164 183 0
162 180 0
164 183 0
166 185 0
162 180 0
159 178 0
158 178 0
160 178 0
163 181 0
164 184 0
162 180 0
162 181 0
161 179 0
167 186 0
161 178 0
164 184 0
166 186 0
166 186 0
163 181 0
160 177 0
167 187 0
165 185 0
161 181 0
164 183 0
162 183 0
167 188 0
165 185 0
167 186 0
172 192 0
166 188 0
167 186 0
164 184 0
165 184 0
169 190 0
166 186 0
165 185 0
165 182 0
162 182 0
165 186 0
163 183 0
168 190 0
169 193 88
170 195 67
169 194 84
173 196 44
171 195 72
168 193 67
171 195 80
170 194 57
172 197 95
168 192 84
173 198 95
170 194 72
169 193 92
170 194 72
172 197 76
169 192 72
168 191 57
167 192 76
170 194 84
173 196 102
164 188 67
172 195 92
168 192 92
173 196 92
169 193 105
167 191 80
169 192 92
172 196 102
165 189 76
165 188 95
168 191 105
169 193 67
169 192 92
173 196 117
172 194 80
169 193 80
172 196 102
170 194 88
174 196 127
169 193 84
171 194 105
168 190 99
169 193 95
168 190 88
163 186 99
166 189 72
166 189 92
164 187 114
159 182 84
171 196 108
160 185 95
160 183 99
166 188 95
165 188 95
169 192 105
162 185 97
160 182 88
166 190 84
162 185 103
162 185 82
162 185 105
164 187 95
162 184 80
162 184 108
155 179 72
160 183 95
160 181 84
161 183 80
163 186 105
156 179 88
157 179 102
156 179 84
156 179 84
165 186 111
156 177 102
160 182 102
152 174 99
150 172 80
150 172 95
147 168 76
153 175 88
150 172 95
155 177 92
159 181 108
148 170 67
143 165 67
149 169 88
146 167 88
149 169 80
151 173 111
136 156 76
146 167 72
149 170 72
146 165 80
141 161 51
141 160 80
142 162 72
137 156 67
135 155 67
131 150 67
117 138 88
103 125 100
93 117 84
88 111 116
79 105 97
78 104 103
79 106 104
85 112 115
92 116 113
82 108 105
103 128 127
102 125 129
78 105 114
100 124 135
102 126 130
100 123 139
103 128 129
92 117 125
106 129 126
94 119 116
103 127 137
89 116 122
101 125 142
87 112 129
88 113 117
104 128 118
94 118 129
85 109 114
84 110 127
87 112 122
91 114 113
95 116 121
85 111 115
89 112 117
94 117 118
96 117 114
80 106 115
99 120 108
93 115 106
76 102 114
79 104 120
79 105 105
80 107 120
65 94 108
73 102 100
74 103 114
67 97 105
70 100 110
63 95 118
67 96 99
75 103 107
60 92 113
56 88 88
60 91 97
60 91 102
60 94 113
59 91 107
61 92 99
57 90 115
53 85 78
55 87 100
59 92 129
58 91 115
56 89 100
57 90 105
56 89 110
57 90 119
58 91 115
56 90 103
57 90 110
57 90 100
57 91 97
56 89 107
55 88 100
57 91 105
56 89 102
56 90 102
56 89 113
56 89 108
55 87 108
58 90 103
56 89 117
56 89 108
56 89 108
58 92 111
56 88 114
57 89 113
58 92 114
56 88 110
59 94 120
57 90 102
55 88 99
55 88 102
56 89 115
55 88 92
57 90 105
53 85 96
57 91 113
57 90 108
55 88 105
56 88 99
56 89 107
57 90 114
55 87 100
55 88 99
57 90 115
55 87 108
57 90 113
55 88 102
55 86 110
55 87 92
54 87 97
55 87 108
55 87 94
53 85 82
55 87 86
53 85 92
70 94 72
61 85 76
79 99 60
78 97 40
95 113 44
111 128 25
105 121 18
92 106 0
112 126 0
102 115 0
106 119 0
106 122 0
109 127 0
108 122 0
117 132 0
111 126 0
110 127 0
120 137 0
124 139 0
122 137 0
122 137 0
124 142 0
130 148 0
115 132 0
126 143 0
128 146 0
125 142 0
127 145 0
121 139 0
124 141 0
118 135 0
124 141 0
133 150 0
123 141 0
129 148 0
123 138 0
119 137 0
124 139 0
140 157 0
139 158 0
135 154 0
125 139 0
131 147 0
134 150 0
133 151 0
141 159 0
142 162 0
132 149 0
132 149 0
142 159 0
139 156 0
141 158 0
133 150 0
138 156 0
139 156 0
137 156 0
142 156 0
134 151 0
131 149 0
127 145 0
144 162 0
139 153 0
137 156 0
141 158 0
136 154 0
139 157 0
152 171 0
148 167 0
139 158 0
148 167 0
148 166 0
142 157 0
146 164 0
139 156 0
144 162 0
140 158 0
144 162 0
145 162 0
137 155 0
143 161 0
143 160 0
147 161 0
154 172 0
149 167 0
150 167 0
150 167 0
152 170 0
146 165 0
148 164 0
148 166 0
157 175 0
157 176 0
147 164 0
151 167 0
152 170 0
148 166 0
150 168 0
151 167 0
153 170 0
158 176 0
161 178 0
146 163 0
153 170 0
148 166 0
152 168 0
155 170 0
156 175 0
159 177 0
150 167 0
154 170 0
154 171 0
154 171 0
154 170 0
155 173 0
154 171 0
160 177 0
161 181 0
155 174 0
156 173 0
155 172 0
159 177 0
157 175 0
163 182 0
154 170 0
162 180 0
158 176 0
158 178 0
159 177 0
159 178 0
159 176 0
158 176 0
163 184 0
160 177 0
154 172 0
157 176 0
163 182 0
163 182 0
159 175 0
161 179 0
162 180 0
157 176 0
160 179 0
157 176 0
164 183 0
163 181 0
163 181 0
164 182 0
161 182 0
163 183 0
165 184 0
163 182 0
164 181 0
165 186 0
162 180 0
165 183 0
164 184 0
163 182 0
157 176 0
163 184 0
164 182 0
165 183 0
159 177 0
162 182 0
165 185 0
164 185 0
166 186 0
165 185 0
161 180 0
165 185 0
165 186 0
164 185 0
163 182 0
166 187 0
165 185 0
165 184 0
166 187 0
164 183 0
164 185 0
165 186 0
168 189 0
168 188 0
164 185 0
167 187 0
171 195 62
173 196 88
170 196 99
166 191 51
171 195 76
169 193 80
171 196 67
166 191 80
172 196 95
169 193 72
170 193 57
169 193 92
164 188 72
171 194 95
172 195 84
170 193 80
168 192 67
166 191 57
171 195 92
172 196 92
172 194 99
172 195 84
168 193 99
170 193 92
169 193 76
173 198 105
173 196 125
165 189 88
170 193 76
173 197 99
165 189 99
168 192 95
171 194 95
164 187 88
165 188 76
172 196 105
164 188 88
169 192 95
171 194 92
173 196 102
164 187 99
166 189 76
170 194 105
163 188 99
169 192 125
167 190 88
171 193 78
168 190 108
170 194 111
161 185 95
167 190 99
163 185 92
166 188 95
164 187 88
161 184 95
164 187 92
169 191 99
159 181 114
169 192 111
162 185 92
164 187 100
161 184 102
160 183 95
165 187 105
157 179 67
159 181 99
161 183 99
161 183 99
167 190 108
153 175 76
159 180 99
158 181 72
158 180 99
160 183 76
155 177 76
158 180 105
159 181 105
159 181 76
152 173 88
152 174 95
159 180 114
154 176 99
152 174 95
158 179 76
150 171 92
152 173 92
155 176 111
147 168 84
138 159 76
151 172 84
153 174 95
138 159 62
150 170 80
140 160 67
141 161 99
135 155 67
141 161 76
134 154 76
121 141 62
132 151 57
124 144 86
118 139 105
104 127 90
103 128 82
84 109 105
91 115 115
83 110 116
89 115 110
99 125 128
83 110 110
103 127 127
96 119 111
95 120 124
88 114 109
102 125 110
101 124 129
106 128 131
90 115 124
103 128 129
98 123 131
98 122 129
86 113 129
95 118 113
97 121 131
95 120 131
90 114 126
100 123 115
99 123 115
107 129 129
102 122 125
95 117 120
101 122 105
94 117 117
100 123 114
96 117 107
103 126 114
85 110 103
98 119 110
101 125 120
91 115 111
82 107 113
85 108 105
72 99 108
78 105 111
73 100 100
74 101 110
72 99 92
77 106 111
83 111 110
68 97 94
66 95 105
73 102 113
54 86 98
63 93 94
68 96 100
56 89 113
58 90 105
53 85 98
59 91 110
62 93 107
55 86 103
55 88 95
56 88 103
55 87 103
56 89 114
59 92 120
54 86 91
56 90 102
56 89 110
56 89 105
55 87 110
58 91 118
56 89 102
58 91 116
59 93 121
58 91 113
56 90 111
58 91 108
57 90 103
57 91 113
55 87 99
57 90 102
58 91 118
56 89 99
56 89 103
57 91 107
56 89 110
57 91 107
57 90 111
55 88 99
56 89 107
57 90 110
57 89 107
56 88 94
56 89 114
55 88 103
58 91 113
57 89 114
57 90 111
56 89 97
56 89 102
57 90 108
56 89 102
55 88 110
55 88 102
55 88 105
55 87 97
55 88 102
56 89 107
55 87 99
56 89 103
54 86 84
54 86 88
53 85 90
55 86 84
57 85 80
67 91 72
79 101 60
85 103 36
78 97 47
107 123 31
93 106 18
110 126 0
105 118 0
99 111 0
109 124 0
109 125 0
99 115 0
112 129 0
98 111 0
122 137 0
124 139 0
115 131 0
121 138 0
114 129 0
111 126 0
125 140 0
121 138 0
112 128 0
127 141 0
114 131 0
132 149 0
118 136 0
130 149 0
122 139 0
121 138 0
126 144 0
125 142 0
125 141 0
131 147 0
127 143 0
129 147 0
124 141 0
128 145 0
136 153 0
135 152 0
145 162 0
135 152 0
138 156 0
127 143 0
132 148 0
130 146 0
141 159 0
127 144 0
138 155 0
143 161 0
139 158 0
136 152 0
135 153 0
141 159 0
142 160 0
139 157 0
142 158 0
137 155 0
134 152 0
139 158 0
142 159 0
135 153 0
144 163 0
141 160 0
148 166 0
141 159 0
132 148 0
141 159 0
140 158 0
147 162 0
143 160 0
142 159 0
143 161 0
142 159 0
148 168 0
153 171 0
139 157 0
144 161 0
149 166 0
139 154 0
150 168 0
149 168 0
153 172 0
142 159 0
147 165 0
155 171 0
146 161 0
147 165 0
154 173 0
148 165 0
149 168 0
149 168 0
151 171 0
152 169 0
144 163 0
149 167 0
149 167 0
154 172 0
151 170 0
154 169 0
153 171 0
159 178 0
149 168 0
162 180 0
154 173 0
158 178 0
156 174 0
153 169 0
158 176 0
149 166 0
149 165 0
153 170 0
152 172 0
158 177 0
153 173 0
152 169 0
156 174 0
155 172 0
153 172 0
156 172 0
163 183 0
162 181 0
157 176 0
159 177 0
154 172 0
163 182 0
158 177 0
156 175 0
161 180 0
161 180 0
159 178 0
158 178 0
160 178 0
155 172 0
163 183 0
164 183 0
156 174 0
161 177 0
165 184 0
160 179 0
160 179 0
162 183 0
161 183 0
161 180 0
162 180 0
160 179 0
163 185 0
154 174 0
161 181 0
160 178 0
169 188 0
165 183 0
161 180 0
167 184 0
162 179 0
167 186 0
162 180 0
166 186 0
163 182 0
163 183 0
162 181 0
167 188 0
161 180 0
165 183 0
161 182 0
163 181 0
167 188 0
165 183 0
166 185 0
165 186 0
160 180 0
166 186 0
164 184 0
166 185 0
167 188 0
160 179 0
166 186 0
170 190 0
165 186 0
168 188 0
167 189 0
169 189 0
168 188 0
163 183 0
168 192 57
171 195 80
168 192 72
171 195 84
172 195 62
168 192 51
169 193 57
168 193 76
171 194 84
173 197 80
170 194 67
173 196 84
164 188 57
170 194 57
173 196 76
174 197 95
171 194 99
174 197 105
171 195 80
169 192 95
168 192 76
169 192 102
168 193 80
168 191 95
169 193 92
172 196 111
172 195 88
171 195 117
165 189 84
173 196 111
167 190 95
167 191 92
172 194 99
166 189 92
169 192 84
164 188 92
172 195 95
168 192 102
165 188 92
171 193 95
167 190 72
165 189 99
172 196 122
171 195 111
171 195 95
171 195 105
167 191 102
168 191 95
165 188 92
170 194 108
170 193 102
163 187 125
164 187 95
169 191 120
169 192 122
162 185 86
165 188 88
166 188 99
161 185 115
167 189 92
163 187 80
170 192 103
157 179 102
159 181 99
165 187 105
163 186 88
159 182 102
157 178 92
158 181 88
158 179 105
167 188 117
161 184 92
160 182 80
163 185 127
158 181 114
154 176 84
159 179 102
143 163 99
151 172 88
164 185 105
151 172 80
148 171 76
158 180 102
147 169 84
138 158 80
156 177 114
155 176 105
146 167 84
159 180 84
152 172 99
146 167 62
154 174 105
155 176 99
136 156 88
132 152 72
133 152 51
144 164 105
145 165 80
134 154 80
134 154 67
134 153 84
121 141 72
110 132 88
109 130 94
99 121 88
89 113 95
86 111 97
91 114 110
94 120 122
82 109 116
89 115 118
82 109 107
91 116 126
115 137 146
101 124 131
90 113 103
89 116 105
97 123 121
105 128 132
108 131 123
98 123 125
95 120 115
88 114 110
92 118 121
76 103 124
101 125 126
92 116 129
102 126 120
100 122 125
87 111 96
93 115 107
94 114 115
99 121 114
102 122 113
92 115 118
99 120 103
101 122 99
92 116 114
101 121 115
95 119 126
101 121 99
87 111 95
71 99 114
80 106 96
81 108 107
70 100 106
73 102 111
72 100 99
64 95 80
69 98 107
69 97 90
67 94 86
64 94 103
55 88 103
63 93 102
59 91 99
60 93 103
55 88 107
61 92 102
54 86 107
56 89 97
55 88 92
56 89 102
57 90 108
56 89 102
55 88 105
57 90 107
55 87 94
57 90 108
54 85 102
54 86 90
55 88 98
59 93 108
53 85 92
56 89 95
55 88 94
57 89 99
57 90 117
58 91 121
56 89 100
56 88 104
58 92 105
55 87 95
58 91 111
56 89 114
58 91 105
55 87 99
55 87 94
58 92 108
56 88 102
55 88 99
55 88 100
56 88 115
55 88 97
55 87 95
56 88 111
53 84 90
56 89 108
55 87 94
53 85 86
58 91 110
55 87 94
55 88 102
56 89 110
54 86 88
54 86 94
56 89 99
56 89 113
56 88 95
54 86 100
55 87 97
53 84 100
56 87 94
57 86 74
82 104 70
79 101 74
87 107 54
89 107 60
106 122 31
108 123 0
106 123 18
98 111 0
100 117 0
114 130 0
114 129 0
112 127 0
96 113 0
126 141 0
111 128 0
113 129 0
105 122 0
107 123 0
117 133 0
115 129 0
113 129 0
107 124 0
109 124 0
115 132 0
125 142 0
122 139 0
112 130 0
128 147 0
127 143 0
122 138 0
121 138 0
120 137 0
134 151 0
116 132 0
122 139 0
121 137 0
126 143 0
132 151 0
131 150 0
143 162 0
135 150 0
133 151 0
133 152 0
124 141 0
132 150 0
138 155 0
138 155 0
136 152 0
140 158 0
135 152 0
133 149 0
137 154 0
141 159 0
138 155 0
134 150 0
141 156 0
135 152 0
141 158 0
135 153 0
142 158 0
136 154 0
146 164 0
138 155 0
143 163 0
136 154 0
141 160 0
141 158 0
140 156 0
145 163 0
143 162 0
140 159 0
142 162 0
140 159 0
137 154 0
147 166 0
143 160 0
146 165 0
144 162 0
148 165 0
148 165 0
145 165 0
149 168 0
150 168 0
143 159 0
149 168 0
145 164 0
153 173 0
150 169 0
145 164 0
153 171 0
151 169 0
155 172 0
155 174 0
159 179 0
151 170 0
156 175 0
153 171 0
153 171 0
155 174 0
158 175 0
153 169 0
148 167 0
156 175 0
151 167 0
158 176 0
158 175 0
150 169 0
158 176 0
153 173 0
151 168 0
158 177 0
159 177 0
161 179 0
148 167 0
161 183 0
162 181 0
158 175 0
153 171 0
162 182 0
157 175 0
160 177 0
163 182 0
161 180 0
154 173 0
154 171 0
161 179 0
154 169 0
160 179 0
150 166 0
163 182 0
161 178 0
155 172 0
159 178 0
158 177 0
163 182 0
156 176 0
160 180 0
160 180 0
161 179 0
165 185 0
159 177 0
161 179 0
165 183 0
165 183 0
166 182 0
161 180 0
159 177 0
162 181 0
163 183 0
163 183 0
157 177 0
162 184 0
161 180 0
160 180 0
166 183 0
165 183 0
166 185 0
168 186 0
160 180 0
164 182 0
165 185 0
166 185 0
165 183 0
163 184 0
162 181 0
166 186 0
164 186 0
164 181 0
162 180 0
164 183 0
166 186 0
161 181 0
165 186 0
168 188 0
166 186 0
167 188 0
169 189 0
163 183 0
167 189 0
168 189 0
163 183 0
166 185 0
166 186 0
166 187 0
160 180 0
165 183 0
171 195 57
168 192 76
173 196 67
176 199 72
170 193 51
168 191 62
172 196 76
168 191 36
168 192 44
171 194 80
174 198 102
170 194 84
169 192 62
171 195 95
175 198 105
168 192 67
168 192 80
167 191 76
170 193 95
173 196 88
173 195 67
167 190 95
172 195 95
167 191 72
170 193 80
170 194 72
167 191 84
167 190 105
171 194 95
168 191 105
171 194 102
170 193 122
165 190 57
169 192 84
168 192 114
168 191 111
171 193 84
170 193 88
164 187 88
164 188 80
169 192 92
168 191 92
174 197 117
171 194 108
169 192 88
164 188 67
171 194 100
164 188 99
171 194 102
160 184 95
168 191 103
164 188 84
164 186 102
168 192 111
168 191 99
159 181 80
161 184 99
167 189 84
164 188 92
162 186 88
165 187 100
159 182 84
160 182 80
161 184 82
160 183 84
163 185 113
162 184 111
155 178 78
163 187 88
165 187 97
165 187 110
161 183 102
149 170 76
160 182 102
161 182 102
160 181 102
162 183 95
156 178 88
153 175 88
149 169 72
158 179 88
155 177 80
156 176 108
162 183 108
146 166 76
148 169 99
153 174 92
144 165 92
148 169 62
151 171 76
142 163 80
138 158 80
145 166 57
142 163 62
144 164 95
153 173 95
141 161 80
144 163 88
139 158 92
139 158 67
129 148 57
132 151 80
120 138 62
106 124 80
116 134 82
102 126 126
91 115 102
88 112 90
96 120 113
94 119 122
96 119 103
93 118 122
96 121 117
90 116 112
89 114 120
89 115 128
98 122 124
91 117 115
95 121 104
89 114 113
92 117 110
93 119 124
95 118 117
97 122 110
93 118 122
98 121 114
103 125 133
104 126 115
95 118 133
91 115 111
107 126 117
111 129 117
102 123 121
107 128 110
90 113 92
117 136 106
111 132 93
92 114 99
95 117 108
88 111 103
89 113 105
92 116 122
87 113 107
82 107 102
73 100 107
75 101 99
73 100 92
66 93 80
68 97 98
72 100 94
66 93 74
64 95 103
62 93 110
57 87 84
58 88 90
60 90 90
64 92 80
60 93 105
60 92 92
58 90 104
56 89 113
56 89 94
54 86 80
54 86 99
56 89 99
56 89 110
55 87 102
58 91 113
55 88 98
56 89 109
57 90 103
55 88 100
57 90 107
55 87 92
55 88 108
55 88 102
56 89 99
56 89 102
57 90 114
55 88 97
57 90 102
57 90 100
56 88 108
54 87 94
55 87 105
58 92 105
56 89 108
57 90 110
56 88 113
56 88 94
57 89 111
55 88 107
56 89 99
56 88 97
58 92 117
57 90 107
55 88 95
55 87 105
56 89 100
55 86 97
55 87 111
56 88 97
55 87 94
56 88 107
54 86 94
54 86 97
55 87 97
53 85 86
51 82 80
50 81 80
57 85 92
67 95 90
73 97 76
90 111 65
70 90 47
98 114 31
85 101 40
100 117 18
97 112 18
107 122 0
106 119 0
100 116 0
95 110 0
106 121 0
114 130 0
104 118 0
102 116 0
116 132 0
118 131 0
115 129 0
119 134 0
113 129 0
127 144 0
114 131 0
109 125 0
105 121 0
119 132 0
116 132 0
123 140 0
111 128 0
130 148 0
134 152 0
124 141 0
129 146 0
120 138 0
117 135 0
118 134 0
126 142 0
135 152 0
124 141 0
121 139 0
118 134 0
125 144 0
130 147 0
141 159 0
124 141 0
133 150 0
130 147 0
133 151 0
142 161 0
132 150 0
131 147 0
137 154 0
137 155 0
133 148 0
143 162 0
139 157 0
143 161 0
145 165 0
139 156 0
141 157 0
132 149 0
140 159 0
146 165 0
143 162 0
142 159 0
153 171 0
138 155 0
144 162 0
144 163 0
149 170 0
143 158 0
140 157 0
144 162 0
143 160 0
147 166 0
143 160 0
151 171 0
148 165 0
144 165 0
142 159 0
145 162 0
145 165 0
146 165 0
140 159 0
152 170 0
154 173 0
151 171 0
152 172 0
147 167 0
155 171 0
149 167 0
138 154 0
146 165 0
156 176 0
153 169 0
157 178 0
153 173 0
149 166 0
147 166 0
152 171 0
150 168 0
152 170 0
155 172 0
157 175 0
153 172 0
157 176 0
156 173 0
156 174 0
154 172 0
152 169 0
153 172 0
153 171 0
148 166 0
157 175 0
162 182 0
153 172 0
158 177 0
155 172 0
157 174 0
161 180 0
154 175 0
159 178 0
158 177 0
158 175 0
158 176 0
158 178 0
158 176 0
161 179 0
160 179 0
151 166 0
164 184 0
157 174 0
161 178 0
156 173 0
158 177 0
156 174 0
161 180 0
149 166 0
157 176 0
165 182 0
158 175 0
163 181 0
160 179 0
163 183 0
158 175 0
164 184 0
161 180 0
162 180 0
159 178 0
165 184 0
158 178 0
157 177 0
163 181 0
158 178 0
158 178 0
166 188 0
156 172 0
161 180 0
167 185 0
165 184 0
165 184 0
164 181 0
163 183 0
162 181 0
161 180 0
166 186 0
166 185 0
165 186 0
161 179 0
165 183 0
164 181 0
164 184 0
162 182 0
165 184 0
169 188 0
166 185 0
162 180 0
166 188 0
170 191 0
166 185 0
161 183 0
169 189 0
163 183 0
171 192 0
164 184 0
167 186 0
168 188 0
162 181 0
164 184 0
169 193 72
171 195 67
172 196 76
171 195 99
169 194 92
172 195 80
166 189 84
167 191 67
166 190 80
170 194 72
171 195 102
173 196 84
171 195 76
176 199 95
171 195 88
165 189 84
169 191 88
168 191 76
169 192 95
165 188 72
171 194 95
170 193 111
173 196 95
173 196 92
173 195 95
166 190 76
168 191 84
172 195 102
166 189 88
170 193 102
175 198 105
169 192 102
163 186 80
168 192 92
173 196 111
171 195 108
164 188 102
165 188 84
172 195 105
164 186 95
165 189 92
164 188 88
166 188 88
167 190 76
170 193 95
159 182 84
158 181 72
168 191 92
166 189 103
165 189 80
165 188 95
165 187 88
172 195 99
156 180 80
164 187 92
167 190 125
160 183 80
166 188 95
162 185 105
160 182 102
160 183 88
156 180 80
162 185 100
164 187 115
165 188 80
162 184 95
160 182 84
164 186 84
152 173 107
166 189 84
158 180 92
157 177 102
158 180 76
150 172 88
155 178 102
164 185 114
155 177 102
165 186 114
164 186 120
159 181 105
154 175 92
159 180 88
154 175 108
148 169 84
156 177 102
152 174 84
152 174 80
154 174 92
158 179 95
151 172 84
140 160 88
148 168 95
146 166 95
142 163 95
146 166 95
144 163 84
138 157 80
141 161 80
136 154 51
132 153 57
136 155 76
130 149 62
130 148 88
124 143 80
123 144 82
101 121 78
93 116 99
87 110 106
84 111 88
78 102 93
89 113 97
84 110 116
88 113 105
102 125 126
91 115 108
103 126 129
101 124 126
82 108 100
74 102 111
87 113 102
80 106 109
89 114 112
111 133 121
101 124 130
97 120 125
97 121 116
105 129 120
105 128 108
112 133 117
102 125 114
107 128 117
103 121 115
94 118 110
109 132 105
105 124 97
102 122 105
107 127 105
98 123 97
87 110 108
96 119 108
94 118 107
95 117 95
90 113 112
90 113 97
77 103 108
82 106 95
79 105 97
69 98 95
74 100 78
74 101 105
81 107 99
66 95 86
60 92 100
69 96 99
66 95 92
60 90 94
55 88 102
59 91 108
59 90 94
58 90 95
58 90 102
56 89 111
55 87 99
56 88 103
57 89 102
57 90 100
55 88 95
56 89 107
55 87 92
57 91 97
56 89 102
54 87 86
55 87 97
56 89 103
53 85 97
58 91 107
57 90 105
57 90 111
55 87 102
55 87 103
56 89 105
56 88 97
56 89 95
55 88 100
56 89 100
54 86 97
56 89 95
54 86 97
53 85 86
54 86 97
56 88 100
55 87 102
57 90 121
57 89 108
54 86 87
56 89 95
56 89 110
54 86 97
55 87 95
52 84 88
56 89 92
52 84 80
56 89 105
56 89 90
54 85 99
55 87 92
53 85 88
53 84 99
65 93 82
77 101 80
78 100 65
77 97 40
73 93 54
66 85 47
99 116 44
96 112 18
99 114 18
98 111 0
97 112 0
100 116 0
105 122 0
111 128 0
111 127 0
106 120 0
104 119 0
108 124 0
113 128 0
108 123 0
110 125 0
114 130 0
110 127 0
125 141 0
118 134 0
126 143 0
118 135 0
113 130 0
134 149 0
115 130 0
120 138 0
122 138 0
124 142 0
125 143 0
121 138 0
125 141 0
125 144 0
138 157 0
132 149 0
129 146 0
137 154 0
136 155 0
127 144 0
128 146 0
130 148 0
134 151 0
133 150 0
129 146 0
136 154 0
140 158 0
125 143 0
129 147 0
137 156 0
139 157 0
126 143 0
136 156 0
131 148 0
140 159 0
139 158 0
134 151 0
137 156 0
137 155 0
145 162 0
143 162 0
144 162 0
143 162 0
149 167 0
133 149 0
142 161 0
134 150 0
139 156 0
138 156 0
143 161 0
145 162 0
145 162 0
144 160 0
154 172 0
148 170 0
147 166 0
146 163 0
151 169 0
149 168 0
144 163 0
149 167 0
146 166 0
150 168 0
148 166 0
151 170 0
145 165 0
145 159 0
149 167 0
156 176 0
150 168 0
145 165 0
150 170 0
151 171 0
152 171 0
150 169 0
153 172 0
143 162 0
144 160 0
152 171 0
153 172 0
150 169 0
147 167 0
153 170 0
154 173 0
159 179 0
154 172 0
153 174 0
152 168 0
156 176 0
152 170 0
159 177 0
155 172 0
156 176 0
154 171 0
158 176 0
156 171 0
155 173 0
154 172 0
158 177 0
161 180 0
154 173 0
158 175 0
157 176 0
156 174 0
158 178 0
162 179 0
155 173 0
158 176 0
161 180 0
160 180 0
159 177 0
158 176 0
153 170 0
156 174 0
154 173 0
155 172 0
153 171 0
161 179 0
158 176 0
160 180 0
162 181 0
160 180 0
166 186 0
161 179 0
162 182 0
162 181 0
158 176 0
160 180 0
160 180 0
160 180 0
162 180 0
162 181 0
170 193 0
162 183 0
159 179 0
163 184 0
156 173 0
169 188 0
165 187 0
166 187 0
165 186 0
167 188 0
164 184 0
164 184 0
159 178 0
162 182 0
159 177 0
164 183 0
166 185 0
165 184 0
161 180 0
169 189 0
165 185 0
168 187 0
166 187 0
164 184 0
166 187 0
166 186 0
168 189 0
167 188 0
167 187 0
163 183 0
167 186 0
167 186 0
168 189 0
167 187 0
167 189 0
168 190 0
165 184 0
171 195 76
169 192 57
170 193 84
172 196 72
169 193 84
168 192 76
168 190 80
172 195 76
170 194 108
170 194 95
171 194 95
171 195 84
171 195 92
169 192 76
173 196 76
171 194 105
171 195 95
175 198 114
169 192 95
171 195 111
170 195 99
174 198 105
172 196 88
169 192 76
173 197 102
171 195 114
171 194 76
171 194 92
170 193 99
166 190 95
176 199 114
167 190 88
164 187 92
163 187 88
170 194 95
164 188 99
174 197 102
168 191 76
169 193 88
173 196 102
167 190 76
168 191 117
168 192 88
169 192 108
166 190 92
163 186 102
163 187 88
162 186 92
167 190 102
163 186 113
160 183 105
163 186 80
160 182 86
164 187 95
159 183 80
161 185 92
166 188 102
165 187 88
163 187 105
163 186 111
161 184 92
165 187 105
166 189 103
159 182 74
158 181 88
164 186 92
163 185 111
162 185 102
165 188 102
160 183 102
161 183 92
159 181 99
153 175 102
161 183 102
152 175 88
155 176 88
166 189 102
160 182 88
162 184 88
156 177 88
152 173 99
151 172 95
156 177 95
160 180 105
152 172 105
151 172 105
146 167 92
154 175 99
158 179 105
152 173 111
152 172 99
154 174 95
147 167 95
142 163 99
150 170 99
151 170 95
145 165 84
138 157 92
136 156 84
138 157 80
143 161 88
141 159 92
135 153 72
134 153 78
122 140 79
117 137 90
114 133 111
106 127 111
96 119 100
83 108 88
88 113 107
90 114 107
81 108 110
96 119 117
92 117 110
87 112 113
94 119 131
96 120 114
106 128 121
87 113 120
105 129 126
99 125 112
105 128 115
94 119 114
86 112 106
103 125 120
90 116 107
101 124 118
100 121 106
104 126 110
98 120 103
113 136 117
98 120 108
112 132 107
106 124 103
122 142 88
110 129 90
108 130 99
110 132 105
110 132 92
96 121 111
87 111 100
96 118 99
86 111 110
95 118 97
89 114 100
79 104 84
75 100 95
81 106 90
78 105 92
77 103 94
66 94 82
66 94 92
64 93 104
63 91 92
62 92 92
62 92 95
55 87 97
62 92 107
60 89 86
58 90 100
58 89 86
55 88 101
54 86 95
55 87 102
54 87 100
54 86 92
53 85 90
56 89 102
57 91 103
54 86 95
55 87 99
58 91 99
54 86 102
54 86 82
53 84 88
56 89 97
54 85 94
52 83 90
58 91 107
55 86 97
57 90 115
54 86 97
53 85 90
56 89 117
57 90 103
56 88 100
57 90 110
56 89 100
55 87 94
54 86 97
54 85 86
53 84 95
55 87 94
54 85 88
57 90 100
53 84 86
54 86 88
54 87 84
54 86 100
54 85 103
55 87 107
52 83 94
54 86 99
54 86 88
60 88 94
59 85 67
68 95 80
73 97 60
66 89 76
78 96 47
73 93 51
88 106 18
100 114 18
99 114 18
93 108 0
97 109 0
79 93 0
106 122 0
99 113 0
110 126 0
109 124 0
105 121 0
113 130 0
106 122 0
111 127 0
111 127 0
118 134 0
113 127 0
119 136 0
101 115 0
127 143 0
119 134 0
114 130 0
109 125 0
111 128 0
113 129 0
107 122 0
114 128 0
119 136 0
125 142 0
124 141 0
127 143 0
116 134 0
129 145 0
118 136 0
121 139 0
127 142 0
124 142 0
138 155 0
130 149 0
137 154 0
138 156 0
137 155 0
142 161 0
126 144 0
133 152 0
134 150 0
136 154 0
132 150 0
136 155 0
142 161 0
150 168 0
130 149 0
145 164 0
134 151 0
136 155 0
141 159 0
127 144 0
139 157 0
138 157 0
139 155 0
132 149 0
132 150 0
143 163 0
143 162 0
145 165 0
147 166 0
148 167 0
146 163 0
144 164 0
147 165 0
155 174 0
154 171 0
150 169 0
136 156 0
144 163 0
151 170 0
147 166 0
146 162 0
143 162 0
147 167 0
142 161 0
151 170 0
147 164 0
144 163 0
149 167 0
152 170 0
149 166 0
148 166 0
157 174 0
151 170 0
149 167 0
149 168 0
154 175 0
155 174 0
150 169 0
150 167 0
153 171 0
153 169 0
148 165 0
156 175 0
154 173 0
152 172 0
157 175 0
144 163 0
150 169 0
155 174 0
146 162 0
159 179 0
147 164 0
152 170 0
156 175 0
160 177 0
160 179 0
157 176 0
148 166 0
148 165 0
160 179 0
157 176 0
161 178 0
157 176 0
157 175 0
157 175 0
153 171 0
154 176 0
151 169 0
159 178 0
157 176 0
158 177 0
155 173 0
157 175 0
158 179 0
161 182 0
161 179 0
162 181 0
162 182 0
159 179 0
157 176 0
157 176 0
164 183 0
159 177 0
156 175 0
162 181 0
161 180 0
155 173 0
155 174 0
164 183 0
166 186 0
164 183 0
157 177 0
164 183 0
162 180 0
162 181 0
156 174 0
164 184 0
164 182 0
159 178 0
165 185 0
163 183 0
159 178 0
167 186 0
166 185 0
162 180 0
164 183 0
169 189 0
162 184 0
162 182 0
164 184 0
167 187 0
165 185 0
163 184 0
166 185 0
165 185 0
164 184 0
164 182 0
167 188 0
166 187 0
167 188 0
166 187 0
170 191 0
167 188 0
163 183 0
168 186 0
166 186 0
165 184 0
167 188 0
165 187 0
165 186 0
164 184 0
167 190 51
170 193 72
170 195 84
170 193 80
170 194 62
167 191 76
169 193 72
174 197 80
171 194 80
171 195 95
167 191 99
172 195 105
175 197 84
171 195 92
171 195 88
169 192 67
166 190 95
170 194 105
174 197 102
168 191 92
171 194 99
174 198 102
165 188 80
171 194 92
170 194 95
170 193 92
172 195 102
170 193 102
169 192 80
173 197 102
170 193 120
171 194 102
171 194 84
173 196 117
169 192 84
171 196 108
166 189 92
169 193 102
171 193 105
171 194 95
175 198 114
165 189 88
167 191 92
162 186 57
167 190 105
166 189 95
164 186 95
169 193 80
170 193 111
170 194 114
164 186 99
166 189 108
163 187 92
170 193 108
166 190 114
166 190 99
164 187 94
169 193 80
166 189 111
166 189 95
158 180 67
160 183 95
168 191 108
167 191 99
162 185 99
164 187 99
160 181 95
159 181 92
157 179 88
165 188 95
152 174 84
155 177 105
158 180 100
156 179 95
161 182 108
162 184 117
156 178 80
154 175 99
155 177 99
154 175 105
161 182 88
157 179 120
158 179 99
156 177 88
147 168 95
149 170 92
153 174 105
151 171 95
141 162 88
155 176 102
151 172 84
145 166 62
141 161 84
138 157 99
150 168 102
139 160 62
148 168 84
139 158 67
138 159 76
146 165 92
137 156 72
129 147 62
133 152 92
136 154 88
145 163 97
124 143 82
119 137 90
116 137 111
95 117 100
98 121 86
92 115 104
104 127 125
96 120 115
88 113 102
93 117 121
90 114 100
96 120 115
96 120 103
96 120 118
94 119 100
96 120 114
98 122 105
104 126 111
81 109 113
99 123 118
101 122 114
99 120 110
96 120 114
102 123 108
99 121 108
105 127 110
103 122 95
105 126 92
118 138 107
106 126 99
104 125 94
112 132 97
111 130 80
100 121 95
113 133 97
92 113 84
99 121 92
107 129 82
89 110 97
90 112 82
85 111 100
87 112 100
70 97 102
69 97 94
73 100 82
70 98 94
70 97 95
65 93 94
68 94 76
71 99 86
64 93 90
63 93 80
61 91 74
57 89 94
54 86 97
59 90 99
57 88 84
55 87 107
55 87 90
55 88 95
57 90 107
54 87 88
54 87 94
56 89 100
51 82 62
57 89 97
54 86 92
54 87 90
53 85 94
56 88 100
56 88 102
53 85 80
56 88 105
54 86 95
56 88 102
55 88 105
54 86 95
54 86 92
55 86 95
55 87 84
55 88 103
55 87 114
55 87 86
56 88 110
57 90 100
56 89 102
55 87 100
55 88 95
52 84 86
56 88 102
53 85 92
52 84 88
55 87 88
55 87 88
56 88 110
54 86 86
54 86 99
55 87 103
58 88 84
61 86 65
69 92 76
76 98 62
80 99 44
83 103 51
87 104 51
93 108 36
90 106 18
86 99 0
85 99 0
100 114 0
103 117 0
102 117 0
106 122 0
109 124 0
97 112 0
116 131 0
116 132 0
103 116 0
115 131 0
117 134 0
102 118 0
115 131 0
121 137 0
124 141 0
116 132 0
112 129 0
120 137 0
115 130 0
129 147 0
111 127 0
131 150 0
118 136 0
126 142 0
132 147 0
125 143 0
124 141 0
118 136 0
122 140 0
117 135 0
122 139 0
129 147 0
120 137 0
129 145 0
126 144 0
139 158 0
128 148 0
134 150 0
122 139 0
127 144 0
130 148 0
128 146 0
138 155 0
132 148 0
132 152 0
138 155 0
135 153 0
127 143 0
144 163 0
136 152 0
135 153 0
147 166 0
132 150 0
147 166 0
141 161 0
139 157 0
144 164 0
135 152 0
146 165 0
140 157 0
139 155 0
140 158 0
144 163 0
133 149 0
146 163 0
140 156 0
148 167 0
145 162 0
145 164 0
150 168 0
146 166 0
142 160 0
149 168 0
149 167 0
154 173 0
139 157 0
149 168 0
156 175 0
150 171 0
149 168 0
145 164 0
147 166 0
145 163 0
150 169 0
149 167 0
150 169 0
156 175 0
149 167 0
150 169 0
152 171 0
146 164 0
149 167 0
148 165 0
149 169 0
154 172 0
157 176 0
157 174 0
153 171 0
152 170 0
152 170 0
151 170 0
152 170 0
158 177 0
154 171 0
159 177 0
152 171 0
158 177 0
150 167 0
154 171 0
145 162 0
157 175 0
160 179 0
156 174 0
159 178 0
156 176 0
158 179 0
160 180 0
157 175 0
155 174 0
154 171 0
156 176 0
160 178 0
161 181 0
158 177 0
158 176 0
161 180 0
161 180 0
153 172 0
165 183 0
151 171 0
159 179 0
161 182 0
163 181 0
157 176 0
159 178 0
158 178 0
160 179 0
157 175 0
162 179 0
161 180 0
158 178 0
163 183 0
167 186 0
156 175 0
159 177 0
159 179 0
166 187 0
161 181 0
164 183 0
160 178 0
161 181 0
162 180 0
163 182 0
162 181 0
167 186 0
166 185 0
163 183 0
155 175 0
166 183 0
163 181 0
164 184 0
163 183 0
165 187 0
168 189 0
169 191 0
166 186 0
164 183 0
163 184 0
164 185 0
165 186 0
165 185 0
165 186 0
167 186 0
166 186 0
165 185 0
166 186 0
168 186 0
170 191 0
161 182 0
170 192 0
166 186 0
168 189 0
167 187 0
163 183 0
163 183 0
169 188 0
171 194 72
167 190 84
172 196 84
168 192 88
168 192 72
171 194 95
164 187 67
169 193 72
170 194 72
169 192 84
167 191 57
167 190 80
174 197 80
175 198 111
173 196 108
172 195 102
168 192 102
172 197 102
165 189 95
174 197 95
163 187 80
172 195 80
173 197 99
173 196 92
168 192 80
170 193 102
168 192 72
169 193 117
169 192 88
169 191 105
169 193 88
164 187 72
173 195 99
170 193 92
170 192 108
166 189 117
166 189 95
172 195 99
168 191 95
165 188 99
171 194 105
168 191 114
168 191 99
167 190 95
168 191 76
170 193 108
158 182 92
164 187 92
168 191 114
169 191 107
166 189 114
167 189 92
164 188 107
171 194 114
166 188 108
167 191 117
159 181 94
162 184 90
161 184 76
163 186 92
169 192 95
159 182 99
166 188 121
173 196 108
159 181 108
163 185 105
158 181 92
158 181 108
152 176 88
159 182 102
161 184 102
162 184 99
147 169 76
162 185 107
154 176 92
159 181 111
152 173 99
153 175 99
156 177 105
159 180 95
153 174 80
157 178 99
159 181 117
155 176 117
143 164 72
157 177 114
148 170 92
150 172 57
152 173 102
150 171 76
155 175 84
151 172 84
146 166 105
146 167 99
135 154 84
151 170 88
139 158 88
136 154 88
143 163 88
132 151 72
132 151 72
138 157 72
127 146 72
129 145 92
124 142 72
128 146 72
128 147 84
114 132 65
111 130 105
115 137 105
91 113 84
72 98 92
93 117 103
90 113 117
87 111 107
96 118 99
95 119 108
101 125 125
113 135 141
96 121 111
100 123 122
87 112 113
105 126 117
110 131 103
111 133 121
100 122 122
108 129 113
108 126 105
109 129 94
103 125 90
103 125 102
110 132 100
114 132 111
119 138 103
120 139 97
110 129 92
98 117 76
113 133 90
109 128 82
106 126 78
103 124 105
99 121 99
93 117 95
86 111 92
85 109 95
82 104 78
75 102 84
75 100 99
74 100 82
87 113 95
67 95 84
84 108 83
82 107 90
67 93 86
61 90 86
71 99 82
65 93 88
58 89 92
54 84 72
56 87 86
57 88 90
58 89 102
54 85 95
55 87 97
56 89 95
55 88 88
55 88 100
55 87 97
56 88 99
55 87 92
55 87 92
54 86 95
55 88 82
54 86 97
56 89 105
52 83 96
53 85 88
52 84 84
56 89 103
55 87 99
57 89 110
54 86 82
54 86 95
55 88 90
52 83 92
54 85 99
55 88 102
54 86 94
53 85 99
52 82 84
52 83 78
53 84 94
54 86 97
52 83 76
54 85 92
51 81 76
54 87 86
53 85 88
53 84 84
53 84 86
66 94 86
69 94 86
71 94 65
76 97 57
72 93 57
85 104 47
80 98 25
80 97 25
92 109 31
89 104 0
87 101 0
105 121 0
102 118 0
104 121 0
84 96 0
107 122 0
107 123 0
115 129 0
104 120 0
108 124 0
101 117 0
108 128 0
114 130 0
116 133 0
110 126 0
117 132 0
108 123 0
107 122 0
125 140 0
101 118 0
119 136 0
116 130 0
118 136 0
123 138 0
117 132 0
114 133 0
121 138 0
119 137 0
129 148 0
116 133 0
109 126 0
116 133 0
124 143 0
116 134 0
126 145 0
124 142 0
120 138 0
122 140 0
129 145 0
135 151 0
129 146 0
136 154 0
127 144 0
124 141 0
140 155 0
138 155 0
119 136 0
139 156 0
136 154 0
137 155 0
138 158 0
130 149 0
140 158 0
134 152 0
138 157 0
134 152 0
138 156 0
153 171 0
140 158 0
142 161 0
140 159 0
132 149 0
148 168 0
142 162 0
137 156 0
148 167 0
135 154 0
139 157 0
139 156 0
143 163 0
137 154 0
141 159 0
141 159 0
148 166 0
152 171 0
147 165 0
148 167 0
148 168 0
150 167 0
144 163 0
148 168 0
152 171 0
152 171 0
148 167 0
143 163 0
148 166 0
146 163 0
145 163 0
147 165 0
152 171 0
141 158 0
152 171 0
149 167 0
153 172 0
149 168 0
154 174 0
144 161 0
155 176 0
151 168 0
157 177 0
158 176 0
151 170 0
150 169 0
161 179 0
155 174 0
160 178 0
151 169 0
154 173 0
158 177 0
155 173 0
158 176 0
156 174 0
152 171 0
157 178 0
162 182 0
162 182 0
152 172 0
152 172 0
156 176 0
160 180 0
159 177 0
159 178 0
152 169 0
159 178 0
159 178 0
158 177 0
155 173 0
155 174 0
156 176 0
162 179 0
158 177 0
158 176 0
153 172 0
162 183 0
162 182 0
160 178 0
157 174 0
157 175 0
165 186 0
160 180 0
164 182 0
165 185 0
159 179 0
164 184 0
157 174 0
164 184 0
161 181 0
160 179 0
163 183 0
161 180 0
163 183 0
165 186 0
167 186 0
160 180 0
160 180 0
164 182 0
164 184 0
158 178 0
169 188 0
162 182 0
161 180 0
159 178 0
167 187 0
165 184 0
162 179 0
160 180 0
162 182 0
166 188 0
164 185 0
159 179 0
165 184 0
165 184 0
164 184 0
170 192 0
164 185 0
164 183 0
167 187 0
167 187 0
166 186 0
166 188 0
164 184 0
164 185 0
166 187 0
164 184 0
166 185 0
164 184 0
159 181 0
166 187 0
168 189 0
161 184 0
172 195 84
173 197 80
171 196 84
168 192 67
176 200 95
170 194 80
174 199 108
171 195 99
169 192 76
171 195 95
169 193 76
169 193 84
173 196 102
169 193 88
174 198 95
175 198 95
173 197 95
171 195 80
168 191 88
167 190 84
173 196 92
174 197 102
170 193 80
173 196 102
173 195 108
170 193 92
172 195 108
171 194 88
169 193 105
172 196 99
171 195 117
167 191 95
168 192 88
169 192 99
172 196 84
171 194 114
167 190 92
168 192 102
170 193 114
168 191 92
166 188 99
163 187 95
170 193 120
160 183 72
168 192 107
165 188 108
163 187 84
170 192 117
162 185 84
163 187 105
166 189 105
163 186 105
164 188 102
162 185 92
162 185 102
160 183 86
163 186 99
165 188 105
163 186 114
168 191 120
158 182 80
156 179 84
163 187 105
163 186 95
170 194 105
152 174 95
162 185 117
163 184 95
158 181 105
158 181 80
150 172 80
166 188 105
158 180 102
160 182 99
158 179 108
163 186 102
156 178 80
155 177 80
153 175 80
158 179 95
151 173 102
159 180 111
157 180 102
155 176 84
150 170 99
151 172 117
152 173 108
154 175 105
160 180 95
144 164 72
148 168 92
150 170 117
149 169 111
150 170 88
138 158 95
136 155 88
148 168 88
152 172 102
143 162 84
138 157 84
122 141 80
128 147 62
130 147 88
130 149 84
131 150 92
135 152 99
113 130 44
123 141 62
111 128 108
118 137 74
94 114 90
98 118 101
85 108 90
88 112 95
99 121 113
95 118 99
95 119 122
104 126 122
103 126 122
101 124 105
92 117 95
94 119 107
101 125 108
104 126 113
94 119 103
96 118 99
104 125 102
98 121 92
111 135 90
110 131 92
103 125 97
115 136 82
115 134 82
113 132 82
108 131 108
120 140 84
105 126 92
118 139 94
113 133 84
110 129 78
118 137 76
100 123 80
96 117 74
100 121 82
101 123 80
85 110 88
89 113 78
92 115 82
87 111 94
83 106 76
71 96 70
82 106 76
67 93 74
63 91 82
63 92 82
69 96 82
61 90 94
61 90 76
57 86 95
55 87 94
53 85 80
52 83 84
54 85 92
50 80 60
55 88 84
54 85 95
54 86 84
54 86 94
54 85 78
53 85 90
52 83 82
55 87 102
53 84 84
57 90 102
54 86 95
54 85 88
54 85 92
54 86 102
56 88 100
54 86 78
52 84 78
54 86 80
54 86 99
56 88 100
54 85 90
55 87 102
56 88 99
53 84 97
54 85 82
54 86 102
51 81 80
53 85 84
52 83 82
54 86 92
54 85 84
55 85 94
58 85 70
61 90 88
67 90 65
67 91 65
62 84 60
74 96 72
76 96 54
73 92 54
85 99 36
88 104 36
98 113 18
82 96 0
100 116 0
101 116 0
94 106 0
97 111 0
96 111 0
94 109 0
112 127 0
104 118 0
99 115 0
107 123 0
106 122 0
112 129 0
105 122 0
103 118 0
110 126 0
115 131 0
116 133 0
107 123 0
110 125 0
111 126 0
119 137 0
112 129 0
110 127 0
122 138 0
126 143 0
110 128 0
115 130 0
119 135 0
123 142 0
127 144 0
126 146 0
113 132 0
110 126 0
118 136 0
115 133 0
137 155 0
125 143 0
131 150 0
135 152 0
124 141 0
123 140 0
121 138 0
140 160 0
139 156 0
135 150 0
137 156 0
133 152 0
121 140 0
135 152 0
133 152 0
138 157 0
132 152 0
134 151 0
136 155 0
137 155 0
127 145 0
144 163 0
133 152 0
144 164 0
141 160 0
140 159 0
137 155 0
136 154 0
146 165 0
132 150 0
141 159 0
139 156 0
141 160 0
142 161 0
147 165 0
146 167 0
136 152 0
140 158 0
152 170 0
146 163 0
145 163 0
142 161 0
143 162 0
152 172 0
143 161 0
138 157 0
155 173 0
149 170 0
148 166 0
145 163 0
151 170 0
143 162 0
153 172 0
150 170 0
147 166 0
147 164 0
147 166 0
150 167 0
158 175 0
150 169 0
152 170 0
161 179 0
149 167 0
145 166 0
150 169 0
151 171 0
151 171 0
150 169 0
150 167 0
154 174 0
148 167 0
158 176 0
157 176 0
150 168 0
159 175 0
147 166 0
162 181 0
158 177 0
161 179 0
153 171 0
157 176 0
157 175 0
156 176 0
145 164 0
161 180 0
159 179 0
151 169 0
158 176 0
150 168 0
158 176 0
154 174 0
155 172 0
159 178 0
159 178 0
160 180 0
155 175 0
164 184 0
156 176 0
154 173 0
158 176 0
156 174 0
162 182 0
162 182 0
167 188 0
156 173 0
157 176 0
169 188 0
161 181 0
166 184 0
160 176 0
161 180 0
161 180 0
160 176 0
164 182 0
165 185 0
164 184 0
161 180 0
160 179 0
163 183 0
161 180 0
156 175 0
154 174 0
162 182 0
160 181 0
165 187 0
161 182 0
165 184 0
162 183 0
164 184 0
165 186 0
162 183 0
166 187 0
160 179 0
164 182 0
163 183 0
157 178 0
164 186 0
163 184 0
166 186 0
166 186 0
169 187 0
163 181 0
166 186 0
166 186 0
164 186 0
166 185 0
167 187 0
165 187 0
168 189 0
167 188 0
163 183 0
164 184 0
168 190 0
167 189 0
164 184 0
168 189 0
170 190 0
170 194 92
169 193 72
170 193 67
173 196 88
170 194 62
171 195 80
172 195 88
170 195 105
167 191 88
169 193 67
172 197 105
170 195 120
168 192 84
171 194 95
171 193 84
171 193 99
174 198 111
170 194 95
171 194 95
168 192 76
170 194 84
169 192 111
172 196 122
172 194 95
170 193 88
169 192 92
170 194 108
171 195 99
171 194 88
167 189 102
173 197 114
165 189 99
165 189 95
176 199 125
167 191 108
171 194 111
163 186 92
170 193 102
167 190 80
166 190 102
165 188 95
169 193 99
168 191 102
163 187 102
169 193 102
164 187 92
157 178 92
161 184 102
165 188 102
161 185 84
158 180 80
168 192 108
164 189 80
169 192 105
166 189 110
165 187 103
163 186 95
163 187 99
156 180 117
165 189 108
157 179 76
162 186 102
166 189 105
160 183 80
163 187 102
162 184 84
158 181 103
164 187 92
159 182 122
159 182 102
163 185 95
157 178 84
160 183 88
160 182 88
150 172 84
160 182 99
160 182 120
160 181 88
157 178 88
160 181 84
152 173 111
153 175 99
141 162 84
154 176 95
155 176 95
154 175 95
149 170 84
146 166 88
152 174 80
142 162 76
146 166 102
162 183 111
148 169 99
142 162 76
142 162 95
142 163 80
141 159 99
142 162 117
149 168 105
147 167 95
138 157 88
151 171 99
133 153 88
120 138 72
133 151 84
138 155 76
129 147 84
121 138 76
121 139 76
121 138 102
104 123 78
101 119 80
97 118 97
90 112 88
100 123 107
85 109 99
91 116 111
88 113 96
104 126 124
90 115 107
96 120 125
102 124 105
100 124 115
92 115 95
106 128 124
110 130 97
104 126 102
114 136 115
116 137 102
118 136 97
111 131 88
105 121 99
117 136 72
112 131 76
118 137 90
111 128 88
113 131 82
115 135 86
109 126 80
100 123 92
101 121 74
91 115 108
107 124 84
96 117 72
102 123 72
86 110 74
86 108 71
94 117 65
82 106 84
87 108 74
84 106 74
86 109 84
82 104 67
79 103 70
80 102 65
69 93 70
75 98 76
59 87 65
53 83 72
56 85 67
54 86 94
56 86 88
55 87 94
51 82 70
51 81 78
55 87 95
53 85 83
50 80 86
54 85 90
52 84 80
53 84 92
53 84 92
52 83 88
53 84 99
54 86 97
53 84 90
52 83 90
52 83 80
52 84 80
53 84 86
55 87 102
55 87 94
54 86 86
54 86 97
53 84 86
51 82 82
53 83 80
53 85 90
54 85 86
53 84 86
60 88 80
50 80 78
55 83 78
60 88 80
58 85 88
69 91 70
74 95 65
74 94 62
73 92 51
64 85 44
99 115 25
73 88 40
88 104 31
84 100 18
98 112 0
97 113 0
103 118 0
90 106 0
110 125 0
90 105 0
104 120 0
100 117 0
109 124 0
100 117 0
111 126 0
99 115 0
100 116 0
104 119 0
106 122 0
109 124 0
98 115 0
111 127 0
113 129 0
108 123 0
106 121 0
111 129 0
114 130 0
119 135 0
120 136 0
113 132 0
106 122 0
126 142 0
127 144 0
117 133 0
119 136 0
124 141 0
132 149 0
122 137 0
114 131 0
129 148 0
126 145 0
125 142 0
132 151 0
121 140 0
129 146 0
129 147 0
135 154 0
129 147 0
129 147 0
133 151 0
123 143 0
136 156 0
124 143 0
127 147 0
134 151 0
147 165 0
139 157 0
131 151 0
127 145 0
132 150 0
130 146 0
128 147 0
146 165 0
140 160 0
141 161 0
140 158 0
143 158 0
144 161 0
134 152 0
142 162 0
138 157 0
150 169 0
140 159 0
138 155 0
145 163 0
145 165 0
146 165 0
144 163 0
147 165 0
150 168 0
145 163 0
148 168 0
153 172 0
145 163 0
145 165 0
139 156 0
153 172 0
138 156 0
145 164 0
151 168 0
143 161 0
149 168 0
151 171 0
149 167 0
151 172 0
136 156 0
149 167 0
150 168 0
147 166 0
152 170 0
156 175 0
148 167 0
154 175 0
152 171 0
144 163 0
157 178 0
146 166 0
154 172 0
151 168 0
154 170 0
154 173 0
155 177 0
152 171 0
154 173 0
150 169 0
151 171 0
155 176 0
148 166 0
157 176 0
160 177 0
158 176 0
161 179 0
160 178 0
153 171 0
160 179 0
158 177 0
157 177 0
162 181 0
155 174 0
158 177 0
159 179 0
162 181 0
159 180 0
157 176 0
159 179 0
147 164 0
155 174 0
160 179 0
156 176 0
155 176 0
160 180 0
159 177 0
163 182 0
160 181 0
158 177 0
159 180 0
160 178 0
165 185 0
161 181 0
163 182 0
161 181 0
158 178 0
158 177 0
157 176 0
161 181 0
157 176 0
163 184 0
167 186 0
163 183 0
164 185 0
160 179 0
163 180 0
162 180 0
159 178 0
165 184 0
160 179 0
158 179 0
160 179 0
163 183 0
163 183 0
160 180 0
166 186 0
163 182 0
158 178 0
164 184 0
163 184 0
164 184 0
162 183 0
166 188 0
169 189 0
161 183 0
164 185 0
169 190 0
169 190 0
167 187 0
167 187 0
166 187 0
166 187 0
167 188 0
168 189 0
165 184 0
166 188 0
164 185 0
165 186 0
160 179 0
166 187 0
167 187 0
168 189 0
167 187 0
166 187 0
171 194 80
172 196 99
169 192 76
168 192 92
170 193 88
171 194 76
173 197 102
175 198 72
170 194 84
175 198 92
168 192 99
172 195 84
173 196 92
169 193 114
177 200 95
169 192 105
169 192 84
169 192 84
169 192 95
175 198 114
167 190 92
174 197 108
171 195 88
166 189 99
170 193 88
173 195 102
172 195 108
172 195 111
168 192 92
173 196 105
171 194 111
174 198 108
170 193 84
177 200 122
168 191 102
170 193 108
168 192 105
168 191 84
172 195 111
172 196 102
172 195 99
171 195 111
169 192 105
166 189 80
168 191 99
169 192 102
163 186 80
169 193 117
165 188 95
169 192 92
164 188 102
163 187 105
160 183 76
167 190 84
168 191 105
164 187 108
167 189 88
156 177 78
157 181 95
163 185 107
163 186 84
169 191 111
156 179 114
162 185 57
163 186 97
162 185 114
160 181 92
156 177 84
167 190 105
154 177 100
155 177 111
162 185 76
164 185 95
158 180 88
156 177 88
162 184 114
150 172 80
157 178 99
163 184 105
160 181 95
145 166 80
160 182 92
161 182 102
161 182 108
155 176 84
152 173 108
153 174 102
152 173 122
152 173 105
151 171 88
160 180 117
146 166 92
149 170 72
146 166 99
134 154 99
149 169 92
146 165 92
134 152 84
139 159 80
142 161 88
137 155 76
137 155 92
128 147 72
143 161 92
125 143 92
139 156 88
127 145 67
117 134 51
128 145 84
110 128 67
104 120 74
125 142 103
103 122 82
99 119 94
95 116 102
90 114 110
100 122 125
89 115 107
92 115 102
91 115 97
88 112 103
88 113 88
104 127 110
110 133 100
113 135 113
94 118 99
123 143 110
103 125 112
112 131 84
106 126 84
110 130 94
110 132 94
120 140 80
121 140 86
115 136 80
120 140 94
118 134 67
115 132 70
116 135 86
112 130 88
106 123 74
110 130 60
104 127 74
106 126 80
90 114 84
92 114 72
99 120 80
82 105 74
89 111 74
86 108 62
86 108 70
87 107 76
83 103 62
86 106 62
82 104 57
87 107 47
79 101 72
75 97 80
57 82 60
60 86 65
56 83 54
58 86 70
58 86 92
57 88 78
54 84 62
58 87 82
52 83 92
52 82 86
50 80 88
52 84 74
52 83 82
52 82 84
52 84 88
50 80 74
53 84 88
53 85 86
52 84 78
53 85 92
53 84 84
52 83 82
54 85 108
52 83 84
52 82 76
55 85 84
54 84 70
52 82 84
56 85 78
61 88 80
68 92 76
60 87 74
60 86 65
65 87 65
69 90 57
66 87 70
78 96 40
82 100 40
75 92 31
66 84 54
89 104 0
81 96 25
100 115 18
101 115 0
102 117 25
90 104 0
86 101 0
93 107 0
97 113 0
105 121 0
97 110 0
109 125 0
95 112 0
106 122 0
102 119 0
109 125 0
101 116 0
94 109 0
102 120 0
116 131 0
98 113 0
114 130 0
110 128 0
108 124 0
110 128 0
109 124 0
117 134 0
130 146 0
113 131 0
115 131 0
111 127 0
126 144 0
112 129 0
108 125 0
119 136 0
118 136 0
121 139 0
124 140 0
122 140 0
121 139 0
121 139 0
127 144 0
111 131 0
115 132 0
131 147 0
125 142 0
129 149 0
135 154 0
129 147 0
127 146 0
137 157 0
128 145 0
125 143 0
125 143 0
119 136 0
133 152 0
122 139 0
136 155 0
131 151 0
141 159 0
132 149 0
145 165 0
132 152 0
139 159 0
144 163 0
144 165 0
135 153 0
138 157 0
142 158 0
131 148 0
143 162 0
143 161 0
143 164 0
140 157 0
144 164 0
135 154 0
145 163 0
141 161 0
147 166 0
137 155 0
147 166 0
149 168 0
150 169 0
148 168 0
147 166 0
148 166 0
155 176 0
152 170 0
138 156 0
148 166 0
147 167 0
139 158 0
146 166 0
151 169 0
135 151 0
149 167 0
146 166 0
148 167 0
142 161 0
153 169 0
158 179 0
159 178 0
148 168 0
153 171 0
148 165 0
156 174 0
157 178 0
153 170 0
155 175 0
152 171 0
150 170 0
152 172 0
153 172 0
153 172 0
152 173 0
149 168 0
159 178 0
154 174 0
160 180 0
155 176 0
159 178 0
153 173 0
157 176 0
153 173 0
152 171 0
160 179 0
160 179 0
157 175 0
160 177 0
154 173 0
158 177 0
158 178 0
154 172 0
157 177 0
158 177 0
155 174 0
159 180 0
154 172 0
161 180 0
161 179 0
161 181 0
167 188 0
157 176 0
162 181 0
154 175 0
156 176 0
155 174 0
161 181 0
156 176 0
160 177 0
162 181 0
158 177 0
158 176 0
162 183 0
162 183 0
162 180 0
161 181 0
161 181 0
157 175 0
165 187 0
161 180 0
165 187 0
160 179 0
159 180 0
162 180 0
158 179 0
165 185 0
159 178 0
166 186 0
159 179 0
169 190 0
158 179 0
162 181 0
165 186 0
166 185 0
161 178 0
163 183 0
165 185 0
162 181 0
163 183 0
168 188 0
165 186 0
166 187 0
162 182 0
171 192 0
165 186 0
165 186 0
165 184 0
164 185 0
169 189 0
166 186 0
164 185 0
167 189 0
168 190 0
166 188 0
169 190 0
165 185 0
167 188 0
166 188 0
169 191 0
168 189 0
166 187 0
169 192 84
174 197 84
173 196 84
176 199 95
170 194 88
171 195 67
173 196 92
170 193 80
168 192 88
171 195 84
169 192 95
170 192 92
176 199 114
172 195 99
171 194 102
171 194 76
170 193 102
175 197 105
174 198 99
163 186 76
171 194 99
172 196 95
171 194 108
168 192 92
174 197 99
172 196 114
172 195 117
168 192 80
171 195 92
165 188 88
167 191 102
168 191 108
167 191 84
167 190 95
168 191 84
163 187 108
166 190 99
173 197 111
166 190 95
171 195 99
165 189 88
159 182 76
166 190 105
165 188 76
168 191 105
168 192 99
157 180 99
162 185 97
167 191 122
164 187 108
158 180 74
161 185 95
159 182 78
168 191 90
163 186 102
161 183 86
166 190 97
164 186 92
161 184 107
164 187 99
165 188 125
157 179 95
162 184 88
161 184 86
163 187 107
164 187 110
156 179 62
167 190 117
160 182 105
160 184 120
158 180 84
159 181 95
164 186 117
159 183 92
157 179 120
163 186 108
161 184 76
158 180 102
155 177 111
154 175 76
158 180 102
160 182 102
148 169 84
152 173 80
147 168 95
157 178 111
159 181 111
152 173 88
142 162 92
153 174 99
147 168 105
143 164 88
150 169 95
148 168 95
140 160 67
142 161 88
152 171 117
140 160 80
149 168 111
132 151 76
141 160 92
134 152 84
138 157 80
125 142 80
140 159 80
131 148 102
139 157 80
120 138 67
127 144 92
121 139 76
113 130 78
95 112 57
113 130 86
114 132 95
99 120 84
97 116 95
103 123 107
99 122 111
80 104 93
110 132 122
103 124 95
106 127 139
97 123 110
101 123 114
92 116 92
91 115 91
115 135 100
112 132 82
123 142 95
115 136 99
105 126 95
117 137 78
125 143 70
108 129 80
124 141 80
127 146 67
119 137 88
118 137 74
120 140 80
104 122 73
117 136 78
110 129 65
104 124 67
103 122 72
93 113 70
89 110 60
94 116 60
92 114 60
92 113 44
97 117 66
84 105 60
83 102 47
87 108 47
88 107 51
96 116 51
97 117 47
85 103 44
95 114 60
82 102 51
87 107 40
78 99 62
60 83 76
63 87 71
59 84 70
64 88 72
66 89 51
61 87 72
56 84 94
57 84 60
54 80 65
57 84 65
52 81 78
54 82 76
59 85 62
62 88 62
59 86 74
58 84 82
58 85 70
53 80 78
63 87 62
48 75 57
60 86 74
55 83 78
63 86 70
66 89 54
57 82 57
75 97 67
61 84 54
78 100 47
77 97 57
77 96 44
80 97 31
81 98 36
75 91 36
89 105 36
100 116 40
81 95 18
90 106 0
97 113 0
97 112 0
107 123 0
82 98 0
100 113 0
100 114 0
89 103 0
103 118 0
104 120 0
105 121 0
96 111 0
87 103 0
114 129 0
117 131 0
109 125 0
108 124 0
106 122 0
107 124 0
112 129 0
106 122 0
120 137 0
105 121 0
97 114 0
123 138 0
98 116 0
123 139 0
120 138 0
121 137 0
117 134 0
105 120 0
121 138 0
108 125 0
116 135 0
131 150 0
115 132 0
120 137 0
128 146 0
131 148 0
126 145 0
133 151 0
131 149 0
115 135 0
117 136 0
125 143 0
132 150 0
141 160 0
126 143 0
132 151 0
129 149 0
129 149 0
130 149 0
132 150 0
142 158 0
139 156 0
133 153 0
127 145 0
136 154 0
142 161 0
136 154 0
137 155 0
140 158 0
140 159 0
127 145 0
133 151 0
133 152 0
145 164 0
139 158 0
147 165 0
136 155 0
148 166 0
145 165 0
145 165 0
131 150 0
143 165 0
139 158 0
143 162 0
142 159 0
143 162 0
148 169 0
148 167 0
148 167 0
150 169 0
140 159 0
153 173 0
142 160 0
147 166 0
152 168 0
147 166 0
150 170 0
150 168 0
143 163 0
144 163 0
144 163 0
147 167 0
148 169 0
161 181 0
155 175 0
153 172 0
153 171 0
151 170 0
158 178 0
154 171 0
151 170 0
148 166 0
149 168 0
147 165 0
149 167 0
154 171 0
152 171 0
157 178 0
157 178 0
157 177 0
152 170 0
158 178 0
155 172 0
156 176 0
158 178 0
151 170 0
157 177 0
155 175 0
155 176 0
155 176 0
156 174 0
160 180 0
160 179 0
160 180 0
153 173 0
156 178 0
162 182 0
153 172 0
160 180 0
162 181 0
155 175 0
161 179 0
158 177 0
159 177 0
162 182 0
163 182 0
160 180 0
155 175 0
161 181 0
156 175 0
163 181 0
163 181 0
157 175 0
159 177 0
160 181 0
156 174 0
158 179 0
159 181 0
159 178 0
157 176 0
163 182 0
156 176 0
163 181 0
158 177 0
161 180 0
161 180 0
165 182 0
163 181 0
164 183 0
164 185 0
162 183 0
167 188 0
161 183 0
158 176 0
163 182 0
162 182 0
167 185 0
166 188 0
168 188 0
166 185 0
165 186 0
167 189 0
157 177 0
163 183 0
164 184 0
165 185 0
159 182 0
167 187 0
166 186 0
164 182 0
165 186 0
163 183 0
171 192 0
162 182 0
164 183 0
164 184 0
166 188 0
170 190 0
167 188 0
169 190 0
165 187 0
164 183 0
164 185 0
166 188 0
166 187 0
164 185 0
168 190 0
169 189 0
161 182 0
169 188 0
169 193 76
175 199 92
172 196 99
173 196 92
171 195 88
170 194 72
173 196 95
175 199 111
174 197 95
169 192 102
171 194 76
172 195 102
167 191 72
176 199 120
168 191 76
174 197 108
173 197 105
177 200 117
166 190 72
167 191 99
170 193 76
177 199 92
166 190 92
163 186 72
171 195 102
168 192 84
164 187 92
172 195 88
170 193 95
168 192 57
170 193 80
171 194 95
169 193 92
161 184 95
169 192 88
172 195 114
164 187 84
173 197 111
165 189 108
168 190 80
168 192 108
172 195 95
160 184 76
159 182 62
164 188 99
166 189 95
166 189 99
164 187 92
158 181 76
165 188 84
167 190 105
171 194 111
167 190 105
157 181 95
169 193 107
162 186 108
167 190 125
159 182 105
166 189 80
152 175 80
160 183 95
159 182 84
157 180 105
158 181 76
162 185 95
158 180 102
160 183 110
164 186 92
164 186 84
142 165 80
164 187 95
155 177 80
148 170 84
160 182 114
153 176 57
164 185 103
153 175 88
163 186 102
154 176 95
155 176 105
154 176 114
161 183 99
155 177 88
163 185 99
153 174 95
153 174 92
157 178 122
161 182 117
156 177 88
149 170 84
147 168 84
154 177 108
148 168 92
139 158 95
151 172 95
150 170 95
141 162 84
140 159 102
144 163 95
147 165 88
132 151 72
128 146 92
139 157 108
132 151 88
146 164 92
128 146 57
130 147 88
131 148 84
138 156 95
125 142 72
119 136 76
121 138 78
110 127 86
116 133 74
108 127 72
102 121 88
91 112 97
98 118 86
96 119 110
92 115 76
102 126 110
98 122 114
92 116 97
97 120 103
99 121 94
109 130 110
97 119 94
108 130 88
111 132 99
113 132 82
111 131 88
116 134 82
123 141 57
126 145 76
123 141 100
118 135 67
122 140 65
121 138 60
118 135 60
128 147 60
127 145 62
119 139 74
98 117 70
112 132 65
101 121 65
93 114 60
100 122 44
94 114 70
75 96 65
91 113 62
93 113 60
93 113 62
89 107 51
90 108 31
103 122 47
92 109 47
100 117 36
90 106 40
78 94 31
79 96 40
95 112 31
89 107 47
81 98 33
74 92 40
74 90 44
68 88 44
73 93 40
73 93 47
83 102 44
69 90 60
70 92 67
69 89 60
65 88 36
74 95 54
58 81 47
67 89 60
67 88 57
61 84 57
58 78 51
79 97 51
79 97 36
84 103 36
87 105 31
67 87 36
78 96 52
80 98 40
71 88 36
70 88 36
82 98 36
105 121 18
91 107 31
81 96 18
80 93 0
95 110 0
94 107 18
95 109 0
94 110 0
99 114 0
76 91 0
94 107 0
90 105 0
89 104 0
93 108 0
102 116 0
100 115 0
111 126 0
94 108 0
97 113 0
101 117 0
97 114 0
104 121 0
100 115 0
99 115 0
120 136 0
109 124 0
111 127 0
124 141 0
118 135 0
111 126 0
101 118 0
105 121 0
120 137 0
108 126 0
113 132 0
126 143 0
119 137 0
121 136 0
110 128 0
121 140 0
126 143 0
124 141 0
112 129 0
121 139 0
115 130 0
124 141 0
134 153 0
125 143 0
127 146 0
130 148 0
122 139 0
125 142 0
133 152 0
138 157 0
118 136 0
128 146 0
128 146 0
139 157 0
132 152 0
128 147 0
125 143 0
134 152 0
139 156 0
138 156 0
144 163 0
129 148 0
136 155 0
136 153 0
137 156 0
138 157 0
143 161 0
132 152 0
137 154 0
142 163 0
129 149 0
146 165 0
146 164 0
138 157 0
143 162 0
150 168 0
143 162 0
139 157 0
141 160 0
138 158 0
148 168 0
147 166 0
154 172 0
149 168 0
144 163 0
144 164 0
144 165 0
143 163 0
140 159 0
148 166 0
145 163 0
148 167 0
150 168 0
146 164 0
153 172 0
143 162 0
147 167 0
151 170 0
150 171 0
147 166 0
149 169 0
152 172 0
157 177 0
148 168 0
152 171 0
152 172 0
144 165 0
146 165 0
158 177 0
159 178 0
151 170 0
148 166 0
154 174 0
154 173 0
153 174 0
152 171 0
158 177 0
150 168 0
152 171 0
155 174 0
156 175 0
162 182 0
156 176 0
157 177 0
158 179 0
158 179 0
155 174 0
159 179 0
156 176 0
156 174 0
156 174 0
160 181 0
157 176 0
151 170 0
159 178 0
160 182 0
157 175 0
158 176 0
160 180 0
152 171 0
160 179 0
158 177 0
152 171 0
156 176 0
157 177 0
160 177 0
160 179 0
158 179 0
159 179 0
156 177 0
164 184 0
160 179 0
162 182 0
163 183 0
157 176 0
167 186 0
161 182 0
165 186 0
161 182 0
162 182 0
166 186 0
161 181 0
164 185 0
162 182 0
164 184 0
162 182 0
161 180 0
166 187 0
168 189 0
163 183 0
165 186 0
162 182 0
166 185 0
161 182 0
162 181 0
166 186 0
162 183 0
169 190 0
163 181 0
163 183 0
163 184 0
167 189 0
166 187 0
164 186 0
165 185 0
169 191 0
166 186 0
166 187 0
164 185 0
167 188 0
167 187 0
163 182 0
166 186 0
166 186 0
166 186 0
169 189 0
164 185 0
168 189 0
168 189 0
167 189 0
168 189 0
163 185 0
164 185 0
168 190 0
168 190 0
169 190 0
167 187 0
171 195 62
174 197 84
170 193 99
171 194 99
171 194 99
175 199 102
173 197 117
175 198 92
169 192 108
174 198 102
173 196 99
175 197 92
168 191 67
171 195 99
173 195 105
170 194 99
169 192 92
172 195 105
172 196 99
172 194 92
173 197 111
163 187 72
172 196 92
166 190 102
164 187 95
172 196 105
170 193 120
172 196 84
164 188 84
166 189 95
172 194 102
168 191 95
168 191 95
166 190 105
163 187 84
167 191 88
172 195 84
171 195 92
169 192 99
165 188 105
169 192 102
161 185 105
164 188 92
165 188 88
166 190 92
166 189 97
165 188 97
166 189 99
163 186 88
167 190 99
166 190 108
165 189 102
162 185 92
157 181 76
166 189 100
162 185 84
165 187 80
164 188 111
166 189 99
161 183 88
159 182 84
160 183 105
160 182 102
159 182 88
160 183 108
158 181 84
162 183 92
159 180 84
156 178 76
159 181 100
159 182 99
150 172 76
147 170 97
157 179 84
155 177 76
156 178 95
155 177 84
155 176 114
169 190 135
154 176 99
157 179 76
151 173 88
158 179 102
152 174 76
153 174 105
160 181 105
154 175 92
157 178 99
156 177 76
163 183 111
149 170 108
147 167 80
154 175 84
149 168 99
146 166 95
149 169 102
136 156 62
151 171 102
147 166 84
153 173 92
136 154 88
142 160 88
143 162 84
142 161 105
137 156 72
138 156 88
131 149 76
136 153 99
131 148 67
116 133 76
126 143 88
124 141 72
134 151 95
111 128 72
109 127 72
91 109 65
102 121 82
98 119 86
93 114 88
98 120 97
91 115 96
89 111 100
91 114 99
97 121 102
99 120 95
90 111 84
107 129 105
114 133 84
111 131 84
121 141 95
120 139 67
120 139 74
123 143 82
132 151 82
117 136 57
123 144 62
121 139 67
129 147 67
128 149 62
122 137 62
123 142 60
115 134 65
113 129 40
106 126 60
96 118 74
101 122 62
103 124 65
98 118 54
108 127 51
105 124 54
90 110 54
100 121 47
102 121 47
101 121 57
103 122 44
107 125 40
95 113 40
71 88 18
96 112 0
97 113 18
107 122 18
92 107 25
89 106 18
79 96 18
88 103 18
81 96 25
82 99 25
86 102 18
81 96 25
84 100 36
83 99 31
81 98 31
76 93 40
72 90 54
87 103 25
83 100 40
84 101 25
72 88 31
67 84 36
86 101 31
60 77 25
77 92 31
79 96 36
85 100 18
72 86 25
74 89 31
96 112 18
78 92 18
73 87 0
87 100 0
83 98 0
102 118 0
89 104 0
96 109 0
93 106 0
96 112 0
82 96 0
98 113 0
99 116 0
84 97 0
92 107 0
87 101 0
104 120 0
91 106 0
104 121 0
117 133 0
108 126 0
102 119 0
95 110 0
105 121 0
105 122 0
105 121 0
104 119 0
114 131 0
102 117 0
105 122 0
89 104 0
112 128 0
126 143 0
113 129 0
103 120 0
114 131 0
119 137 0
119 135 0
117 134 0
111 128 0
122 140 0
114 131 0
123 141 0
127 143 0
119 133 0
117 130 0
127 145 0
130 147 0
123 139 0
122 141 0
126 144 0
138 156 0
126 143 0
123 140 0
116 134 0
134 152 0
133 151 0
130 149 0
125 143 0
136 155 0
127 146 0
123 139 0
133 152 0
127 146 0
137 156 0
135 154 0
140 160 0
128 147 0
142 162 0
134 151 0
134 153 0
138 158 0
139 158 0
136 153 0
126 145 0
130 150 0
138 156 0
137 155 0
131 149 0
143 162 0
138 157 0
142 161 0
138 158 0
149 167 0
149 169 0
138 157 0
142 161 0
147 166 0
150 170 0
138 157 0
141 159 0
149 167 0
154 174 0
143 162 0
146 166 0
150 171 0
144 162 0
149 169 0
148 169 0
141 160 0
147 167 0
150 168 0
144 162 0
148 168 0
149 168 0
152 171 0
150 171 0
150 169 0
147 167 0
147 167 0
146 165 0
152 172 0
158 179 0
157 176 0
155 174 0
145 164 0
153 173 0
155 174 0
157 178 0
150 170 0
156 174 0
149 168 0
158 178 0
152 172 0
155 174 0
155 173 0
160 179 0
153 173 0
149 168 0
154 173 0
151 170 0
161 182 0
156 176 0
154 173 0
159 179 0
162 182 0
158 176 0
165 185 0
154 173 0
164 184 0
156 176 0
156 175 0
152 172 0
156 176 0
162 181 0
159 179 0
159 181 0
160 177 0
151 170 0
159 178 0
161 181 0
160 179 0
160 180 0
165 185 0
160 180 0
156 175 0
159 178 0
158 178 0
160 181 0
160 181 0
155 175 0
157 175 0
161 179 0
164 186 0
158 178 0
163 183 0
153 173 0
158 178 0
162 183 0
164 184 0
160 180 0
164 183 0
163 183 0
160 181 0
161 180 0
160 180 0
162 183 0
158 179 0
164 183 0
160 181 0
166 185 0
164 185 0
165 187 0
166 188 0
160 180 0
166 185 0
169 190 0
162 182 0
168 189 0
160 181 0
165 188 0
164 185 0
163 183 0
165 185 0
163 183 0
162 183 0
163 184 0
166 186 0
164 184 0
167 186 0
165 184 0
167 189 0
167 188 0
168 188 0
166 187 0
167 187 0
165 187 0
163 186 0
168 189 0
166 188 0
168 189 0
167 187 0
167 188 0
166 186 0
170 194 95
175 198 92
174 196 99
172 195 92
173 197 111
173 196 84
176 198 84
169 192 95
173 197 95
173 196 92
172 195 99
175 199 105
174 197 111
171 195 92
170 195 92
167 189 84
169 192 105
175 199 111
172 196 125
169 192 76
173 196 99
173 195 84
170 193 102
171 194 95
169 192 84
170 194 105
172 195 102
172 195 102
168 191 95
172 196 105
171 195 114
166 188 99
168 192 120
170 193 95
166 189 76
172 196 111
164 187 80
169 192 92
169 192 92
168 191 72
166 189 99
169 192 92
165 189 122
167 189 92
162 185 95
165 188 76
157 181 67
164 187 84
170 193 105
161 185 84
166 188 70
174 197 108
167 190 80
169 191 102
158 180 86
166 189 102
168 191 95
159 182 92
164 186 92
158 181 102
157 180 86
164 187 105
167 189 99
162 185 99
166 188 120
162 185 84
160 183 80
160 183 108
155 177 72
155 177 110
163 186 114
163 186 88
161 183 102
150 172 80
159 181 99
158 180 111
161 183 92
153 175 108
153 175 84
159 182 108
149 170 88
158 179 120
149 171 84
159 181 72
148 170 102
160 181 99
162 183 122
155 176 108
147 167 92
153 174 102
158 180 120
144 164 95
140 160 84
141 162 76
156 177 111
148 168 108
145 165 80
130 149 95
137 157 88
138 157 95
149 168 108
157 176 114
135 153 80
153 173 102
142 160 92
131 149 102
139 157 105
129 145 84
139 157 105
130 147 72
128 145 84
130 148 95
120 137 67
128 145 54
112 129 57
106 122 62
106 123 78
104 121 97
98 118 76
103 125 92
99 120 95
101 123 100
100 122 107
88 111 74
103 126 95
109 130 100
110 130 92
131 148 70
111 130 65
108 128 88
118 138 76
127 146 86
120 139 67
123 139 62
121 139 65
136 152 65
135 154 51
122 140 57
126 143 47
123 140 57
119 136 51
105 122 54
109 127 54
93 113 51
113 131 44
110 129 47
103 122 60
112 131 44
91 110 44
87 106 36
90 109 40
93 113 47
106 123 18
109 126 44
105 123 25
99 115 31
101 117 25
107 123 25
76 90 0
92 109 18
89 105 0
94 108 0
86 100 0
90 103 0
93 107 0
79 94 0
86 99 0
79 93 0
99 111 0
102 116 0
84 99 0
80 94 0
85 99 18
90 104 0
97 112 0
89 104 18
93 107 0
92 106 0
86 101 18
69 84 0
80 95 18
86 101 18
92 106 18
99 114 0
75 89 0
87 100 0
98 112 0
75 87 0
92 107 0
79 94 0
100 114 0
90 105 0
98 113 0
92 107 0
91 107 0
99 112 0
88 103 0
97 112 0
102 118 0
92 108 0
98 114 0
99 114 0
102 118 0
106 121 0
103 119 0
106 121 0
91 107 0
115 131 0
110 127 0
113 130 0
112 129 0
107 123 0
108 124 0
108 125 0
126 143 0
116 133 0
122 138 0
120 136 0
106 124 0
111 129 0
108 125 0
107 125 0
114 129 0
121 139 0
120 138 0
113 131 0
118 135 0
117 136 0
115 134 0
123 141 0
129 147 0
124 142 0
128 146 0
122 138 0
129 146 0
131 150 0
127 145 0
129 148 0
136 153 0
125 142 0
132 150 0
129 145 0
132 150 0
140 158 0
133 150 0
126 143 0
141 161 0
125 143 0
132 149 0
132 150 0
147 166 0
132 150 0
134 153 0
142 160 0
139 158 0
131 151 0
145 164 0
132 151 0
139 157 0
125 145 0
132 153 0
138 156 0
130 150 0
141 160 0
136 155 0
138 157 0
137 154 0
143 163 0
131 149 0
134 152 0
144 163 0
145 165 0
145 164 0
140 160 0
142 162 0
144 164 0
141 157 0
150 171 0
145 164 0
153 172 0
148 167 0
156 175 0
141 159 0
146 164 0
149 168 0
147 166 0
146 164 0
138 159 0
143 162 0
150 169 0
151 171 0
153 174 0
148 169 0
151 171 0
154 173 0
152 169 0
148 165 0
147 165 0
145 164 0
151 170 0
149 170 0
151 168 0
151 172 0
155 175 0
153 173 0
153 173 0
154 174 0
158 179 0
154 174 0
156 175 0
148 167 0
155 175 0
155 175 0
154 174 0
154 175 0
156 176 0
158 180 0
157 178 0
158 179 0
159 178 0
155 174 0
152 170 0
162 182 0
156 174 0
154 173 0
157 176 0
152 173 0
154 174 0
160 179 0
162 183 0
159 180 0
160 179 0
157 177 0
155 175 0
153 172 0
159 180 0
162 183 0
162 181 0
163 182 0
161 179 0
157 177 0
158 176 0
152 171 0
162 183 0
163 183 0
159 180 0
162 184 0
162 182 0
164 185 0
161 182 0
161 180 0
161 182 0
158 177 0
161 181 0
163 184 0
162 182 0
164 185 0
161 180 0
166 185 0
163 183 0
166 187 0
167 189 0
164 185 0
161 182 0
167 188 0
163 183 0
167 188 0
158 180 0
163 183 0
163 183 0
162 184 0
157 176 0
167 189 0
163 183 0
165 185 0
168 187 0
163 182 0
162 181 0
164 184 0
158 179 0
165 185 0
169 189 0
170 191 0
161 183 0
164 185 0
172 192 0
167 188 0
165 185 0
165 185 0
165 188 0
167 187 0
167 188 0
161 179 0
167 189 0
165 187 0
164 185 0
164 186 0
164 184 0
165 186 0
163 184 0
174 197 95
172 195 80
170 194 88
173 197 99
174 198 92
173 196 84
175 198 99
169 193 99
169 192 105
174 197 108
177 200 108
174 196 95
173 196 102
174 198 111
177 201 105
177 201 117
169 192 88
170 193 102
176 199 105
173 196 108
172 195 76
170 193 88
168 191 88
170 193 72
167 191 95
169 192 92
169 192 80
168 192 84
168 191 99
172 196 95
174 198 120
170 193 99
169 192 105
168 191 99
168 192 92
164 187 92
171 194 105
166 190 105
168 191 99
168 192 99
170 193 99
162 186 99
162 186 105
161 184 92
163 186 80
165 189 114
160 183 92
166 189 76
160 183 102
161 184 74
168 192 80
170 193 92
162 185 99
157 180 88
162 185 113
159 182 76
172 195 117
159 181 80
162 185 90
165 188 95
160 182 72
165 189 105
161 184 94
165 187 125
158 180 105
161 182 80
160 183 90
163 186 114
161 184 102
153 175 99
164 187 114
161 184 92
157 179 95
161 183 108
164 187 117
153 175 72
161 183 99
161 183 117
163 185 111
146 168 88
158 180 114
151 172 92
154 175 108
149 170 99
160 181 88
153 172 84
153 174 105
142 164 67
154 175 92
156 176 122
156 177 80
158 178 120
156 176 108
164 184 105
148 169 99
147 167 102
136 155 80
148 168 99
145 165 80
144 163 102
132 151 72
144 163 102
145 164 95
135 154 95
125 143 51
134 153 72
127 145 88
134 152 57
128 147 62
129 145 88
136 153 72
122 138 62
100 116 57
125 142 80
126 143 80
126 142 74
109 126 51
102 120 88
106 125 78
102 121 74
102 121 90
99 120 100
100 120 100
82 106 74
93 114 94
111 132 80
109 127 90
107 128 84
111 132 80
113 131 70
121 142 60
123 143 84
131 150 70
118 137 67
132 150 62
130 147 54
115 134 57
131 150 44
123 142 40
132 151 31
121 140 67
113 131 40
118 135 60
120 136 47
112 128 44
103 122 51
114 134 44
106 123 0
116 133 36
100 119 47
109 125 18
99 118 18
112 128 25
101 116 25
109 125 0
103 120 18
97 112 18
100 117 0
107 123 0
93 108 0
111 128 0
92 107 0
90 105 0
98 113 0
99 114 0
95 108 0
98 113 0
99 114 0
77 92 0
79 95 0
97 112 0
82 96 0
83 97 0
96 109 0
100 114 0
92 107 0
88 103 0
95 110 0
109 123 0
86 101 0
83 96 0
91 105 0
93 108 0
89 103 0
81 95 0
100 113 0
97 111 0
83 99 0
87 103 0
99 114 0
90 106 0
100 115 0
84 99 0
83 99 0
102 116 0
103 120 0
97 112 0
112 127 0
90 106 0
112 129 0
105 120 0
120 137 0
105 120 0
120 136 0
106 124 0
102 119 0
99 115 0
106 121 0
119 135 0
113 131 0
119 136 0
109 125 0
97 113 0
113 130 0
111 128 0
112 127 0
108 126 0
123 140 0
114 131 0
113 131 0
115 132 0
114 133 0
118 135 0
128 145 0
122 140 0
114 131 0
123 142 0
119 136 0
133 153 0
118 135 0
128 146 0
121 139 0
123 141 0
117 135 0
123 142 0
135 153 0
134 152 0
120 139 0
130 148 0
134 153 0
123 141 0
120 138 0
141 159 0
127 146 0
134 152 0
140 160 0
129 147 0
133 149 0
133 153 0
140 159 0
126 144 0
143 162 0
134 153 0
142 161 0
142 162 0
139 158 0
144 164 0
139 157 0
133 152 0
141 160 0
138 157 0
133 150 0
140 160 0
145 165 0
139 157 0
135 153 0
144 163 0
137 155 0
153 174 0
142 161 0
145 166 0
149 168 0
150 171 0
150 169 0
150 170 0
144 164 0
140 160 0
143 162 0
153 175 0
143 161 0
150 169 0
144 165 0
153 172 0
147 168 0
148 168 0
138 157 0
155 177 0
149 169 0
150 171 0
154 173 0
148 169 0
145 162 0
144 163 0
153 173 0
149 168 0
156 176 0
153 173 0
152 171 0
156 176 0
155 175 0
156 175 0
153 172 0
155 174 0
152 174 0
157 177 0
156 175 0
155 174 0
153 172 0
148 169 0
150 169 0
148 168 0
153 173 0
159 177 0
155 175 0
159 180 0
163 184 0
155 175 0
159 179 0
153 174 0
152 173 0
150 170 0
153 172 0
155 175 0
153 171 0
154 171 0
155 174 0
154 175 0
157 175 0
160 181 0
155 173 0
156 178 0
156 177 0
157 177 0
155 175 0
155 174 0
162 183 0
165 185 0
159 179 0
157 177 0
156 175 0
158 178 0
154 172 0
156 176 0
159 179 0
160 181 0
160 180 0
166 187 0
159 179 0
157 176 0
159 179 0
161 181 0
162 184 0
161 180 0
159 179 0
161 182 0
161 180 0
161 183 0
163 184 0
157 179 0
158 179 0
163 184 0
161 181 0
162 182 0
162 182 0
163 183 0
163 184 0
159 179 0
165 185 0
165 184 0
164 186 0
165 185 0
163 184 0
164 184 0
165 184 0
164 185 0
162 183 0
165 185 0
163 183 0
170 189 0
162 183 0
164 185 0
166 187 0
163 185 0
170 191 0
169 189 0
167 189 0
165 184 0
166 185 0
165 188 0
167 188 0
168 189 0
171 193 0
164 182 0
166 187 0
166 186 0
165 184 0
161 181 0
169 190 0
167 189 0
166 186 0
176 199 95
165 188 57
173 195 88
176 199 92
171 194 88
174 197 92
175 198 80
176 199 102
176 199 108
169 193 84
169 194 108
170 193 84
171 194 88
168 191 92
174 197 111
169 192 92
173 196 88
170 193 76
171 195 99
167 190 99
171 195 111
171 195 92
169 191 88
171 194 102
166 189 72
169 192 111
169 192 105
172 196 99
164 188 72
172 195 117
174 197 114
170 193 88
164 187 99
173 197 114
170 194 108
168 192 99
172 195 105
168 192 108
165 189 84
172 195 125
164 187 92
169 193 105
168 191 99
164 188 92
168 191 108
165 188 95
163 186 76
164 187 84
157 181 88
165 188 97
172 194 95
160 183 102
166 188 84
165 189 88
162 185 95
164 187 108
165 187 105
161 184 108
171 195 114
164 187 88
169 192 111
162 185 78
160 181 76
164 187 88
163 185 105
158 181 88
160 183 111
164 186 92
157 180 92
156 178 97
153 176 92
162 184 100
161 182 80
165 188 117
160 182 117
155 177 99
159 181 108
154 175 84
156 178 108
152 174 92
154 174 92
157 178 84
161 182 105
153 175 84
160 182 84
150 171 95
161 182 84
155 176 72
148 168 105
150 170 67
159 180 102
149 169 88
142 163 88
149 169 108
138 159 92
148 168 95
136 155 99
156 176 114
148 166 102
143 162 84
144 164 80
142 161 105
134 153 67
132 150 67
137 154 92
129 148 57
143 160 88
132 150 76
129 146 76
130 149 67
127 146 67
129 147 84
127 144 84
115 132 67
127 143 76
123 138 67
117 134 80
113 129 72
113 131 78
115 132 84
98 116 62
93 112 78
99 118 84
106 126 86
91 110 80
97 116 54
98 120 72
118 137 82
108 128 44
113 132 65
113 131 62
123 142 54
128 145 51
142 160 47
143 161 40
137 155 40
125 141 57
134 152 31
120 138 36
128 145 31
125 143 31
117 133 18
133 151 25
121 140 25
109 127 36
116 133 25
115 133 25
114 131 31
124 140 0
116 133 0
105 122 18
102 118 0
105 121 18
110 126 0
108 124 0
102 119 0
97 114 0
106 122 0
102 118 0
102 117 0
107 123 0
97 113 0
106 121 0
96 111 0
104 119 0
96 112 0
81 96 0
87 102 0
104 120 0
90 105 0
91 105 0
80 95 0
96 111 0
83 98 0
104 120 0
82 96 0
92 105 0
96 111 0
102 118 0
93 109 0
90 105 0
96 110 0
101 117 0
87 101 0
87 101 0
90 104 0
96 110 0
97 112 0
90 105 0
96 112 0
104 119 0
95 109 0
100 115 0
92 107 0
92 108 0
103 119 0
112 128 0
88 106 0
107 123 0
104 119 0
100 116 0
101 117 0
103 119 0
99 115 0
108 124 0
118 134 0
114 131 0
94 111 0
108 125 0
101 118 0
99 117 0
109 124 0
114 131 0
108 126 0
113 129 0
112 130 0
117 134 0
108 125 0
115 133 0
118 135 0
120 136 0
119 137 0
117 136 0
115 132 0
122 139 0
130 148 0
123 142 0
115 134 0
127 145 0
119 137 0
123 141 0
118 136 0
126 143 0
129 148 0
135 154 0
119 137 0
126 145 0
126 146 0
126 143 0
125 142 0
121 140 0
130 149 0
134 153 0
123 142 0
140 159 0
133 151 0
140 157 0
133 152 0
137 157 0
139 158 0
133 152 0
136 155 0
141 160 0
130 148 0
135 154 0
139 159 0
137 156 0
144 162 0
141 160 0
142 162 0
142 162 0
142 162 0
135 154 0
145 165 0
142 160 0
142 162 0
141 162 0
141 161 0
137 157 0
141 161 0
148 167 0
141 162 0
138 158 0
149 168 0
143 163 0
144 163 0
148 168 0
145 165 0
147 167 0
152 172 0
144 164 0
152 172 0
143 163 0
149 168 0
151 172 0
148 167 0
152 171 0
161 182 0
149 167 0
147 167 0
149 168 0
146 166 0
155 176 0
147 167 0
148 167 0
146 164 0
157 177 0
156 175 0
146 166 0
160 180 0
151 172 0
155 173 0
152 169 0
154 174 0
151 169 0
147 164 0
157 178 0
154 174 0
159 180 0
153 173 0
152 172 0
161 180 0
153 173 0
156 175 0
145 164 0
158 178 0
160 182 0
157 176 0
158 176 0
161 183 0
156 177 0
154 173 0
163 184 0
155 174 0
154 174 0
156 175 0
154 174 0
159 179 0
161 182 0
158 178 0
161 181 0
158 179 0
162 181 0
153 172 0
157 177 0
159 180 0
162 181 0
160 180 0
164 183 0
152 173 0
156 177 0
161 181 0
161 181 0
156 175 0
162 181 0
162 182 0
161 181 0
162 182 0
167 188 0
160 180 0
160 179 0
165 187 0
165 185 0
162 183 0
157 178 0
160 180 0
170 190 0
160 179 0
160 181 0
166 186 0
170 191 0
165 186 0
161 182 0
167 188 0
164 183 0
161 183 0
167 187 0
163 185 0
159 179 0
162 183 0
167 188 0
166 187 0
168 188 0
164 185 0
169 191 0
161 180 0
163 182 0
159 180 0
164 183 0
165 185 0
164 185 0
164 184 0
168 188 0
159 181 0
167 187 0
164 183 0
166 188 0
168 188 0
163 183 0
166 188 0
160 182 0
165 185 0
164 184 0
168 188 0
162 184 0
162 183 0
168 188 0
169 190 0
166 186 0
164 186 0
174 197 80
176 199 102
172 195 105
173 196 105
171 194 99
165 189 99
177 201 102
167 190 84
171 195 92
171 195 102
174 196 102
172 196 102
172 195 80
169 192 102
174 197 108
175 198 105
173 196 102
173 196 105
172 195 99
172 196 99
169 193 111
169 193 84
169 192 80
174 198 99
172 196 111
168 191 80
170 194 92
169 194 95
169 193 88
166 189 88
171 195 122
176 200 120
172 196 84
167 191 67
172 195 92
169 193 111
162 185 84
167 190 114
171 194 102
161 183 84
164 186 95
168 191 102
162 185 80
162 184 84
162 184 72
168 191 105
171 194 80
164 188 114
163 186 88
161 185 88
161 184 84
166 189 92
165 188 99
160 183 102
158 181 95
163 186 88
165 188 88
163 186 95
166 189 117
164 187 117
157 180 82
161 185 88
164 186 90
165 188 86
162 184 90
163 186 114
157 179 99
165 188 102
155 178 84
160 182 105
168 190 105
170 192 99
166 188 105
158 181 84
155 178 84
153 174 95
159 181 117
158 180 99
154 176 80
160 182 99
154 175 111
155 176 111
160 181 88
160 181 92
156 177 114
150 170 105
149 170 72
155 176 92
141 162 80
159 179 127
139 158 88
152 172 102
141 162 72
145 165 92
139 160 76
154 173 105
154 173 114
140 159 92
143 162 92
144 163 88
140 159 105
144 164 102
139 158 80
145 164 99
142 160 105
140 158 84
141 158 108
143 159 105
132 150 92
134 152 88
130 147 72
133 151 76
119 138 51
129 145 62
128 144 57
128 143 99
124 141 72
111 127 62
116 132 67
126 144 70
110 127 47
94 112 70
108 126 70
95 113 82
113 130 84
102 119 70
110 127 80
106 124 74
122 142 57
116 133 47
128 146 51
128 147 62
134 154 51
138 158 54
144 163 31
139 155 31
131 150 25
130 147 31
135 152 31
133 152 36
134 151 36
125 142 25
129 143 18
122 139 0
130 146 0
123 139 0
118 136 0
116 132 0
116 133 0
107 124 0
109 126 0
121 137 0
125 142 0
101 117 0
112 130 0
103 120 0
117 133 0
109 125 0
101 118 0
106 123 0
114 131 0
84 99 0
107 122 0
103 118 0
80 97 0
101 116 0
92 107 0
105 121 0
98 114 0
86 100 0
103 119 0
94 110 0
90 106 0
93 108 0
104 119 0
91 107 0
97 113 0
97 112 0
93 110 0
90 106 0
80 97 0
104 119 0
99 114 0
85 100 0
101 117 0
91 107 0
96 111 0
97 111 0
113 129 0
96 113 0
98 114 0
106 122 0
103 119 0
101 118 0
94 109 0
105 121 0
110 126 0
107 125 0
106 124 0
109 125 0
114 131 0
89 106 0
107 124 0
107 121 0
102 119 0
107 123 0
116 133 0
104 122 0
119 135 0
119 136 0
120 137 0
102 119 0
125 143 0
109 127 0
106 123 0
125 143 0
114 130 0
122 139 0
114 130 0
126 144 0
119 136 0
118 136 0
128 147 0
125 142 0
122 140 0
123 141 0
126 145 0
123 141 0
112 130 0
137 154 0
137 155 0
126 144 0
123 140 0
138 157 0
130 149 0
131 150 0
115 133 0
127 148 0
113 131 0
137 155 0
128 147 0
129 148 0
136 155 0
134 152 0
127 147 0
139 157 0
141 161 0
136 156 0
143 160 0
139 158 0
130 148 0
145 164 0
135 155 0
128 148 0
140 160 0
131 151 0
149 168 0
139 159 0
133 152 0
144 163 0
144 163 0
144 164 0
136 155 0
135 154 0
146 165 0
148 169 0
146 164 0
140 158 0
137 156 0
138 159 0
148 169 0
145 164 0
143 163 0
147 167 0
146 167 0
146 166 0
147 166 0
139 159 0
149 168 0
147 168 0
140 159 0
150 168 0
157 177 0
147 167 0
147 167 0
153 172 0
144 162 0
146 165 0
149 169 0
147 168 0
154 172 0
153 173 0
151 170 0
150 171 0
152 171 0
152 170 0
150 170 0
149 169 0
144 163 0
150 170 0
154 173 0
149 168 0
155 174 0
158 178 0
155 175 0
157 178 0
146 167 0
152 172 0
157 177 0
152 171 0
159 178 0
153 173 0
159 181 0
158 179 0
150 171 0
150 171 0
155 174 0
161 182 0
154 174 0
155 174 0
158 178 0
158 178 0
157 179 0
151 170 0
155 174 0
164 185 0
151 169 0
152 172 0
158 179 0
157 177 0
159 181 0
158 178 0
158 178 0
160 179 0
156 176 0
157 178 0
160 180 0
162 181 0
155 176 0
157 176 0
165 185 0
155 175 0
161 182 0
163 183 0
154 173 0
165 184 0
162 183 0
157 176 0
164 185 0
163 184 0
165 184 0
164 186 0
161 179 0
156 178 0
164 184 0
163 183 0
164 184 0
161 183 0
163 182 0
157 178 0
159 179 0
159 179 0
164 184 0
164 188 0
164 184 0
159 180 0
166 187 0
163 183 0
164 185 0
169 192 0
164 185 0
164 184 0
162 182 0
162 182 0
163 184 0
164 185 0
166 188 0
159 181 0
163 184 0
165 186 0
161 182 0
167 188 0
166 186 0
168 189 0
164 185 0
168 189 0
169 190 0
160 181 0
167 186 0
168 188 0
164 186 0
161 181 0
166 188 0
165 185 0
168 188 0
167 187 0
166 187 0
166 187 0
169 188 0
165 188 0
176 199 114
170 194 72
172 196 114
173 196 72
169 192 76
175 198 102
171 194 111
171 195 105
170 192 88
173 197 125
172 195 99
174 196 88
172 194 108
173 195 105
170 194 92
175 198 108
174 195 95
170 193 102
171 195 92
170 193 105
168 191 92
170 193 99
167 191 102
171 194 111
165 189 62
172 194 102
164 188 92
169 192 80
169 193 108
166 189 95
167 191 99
172 195 95
166 189 88
167 191 88
168 190 84
163 187 95
170 194 108
162 186 72
168 192 105
165 189 84
160 184 84
163 186 76
167 191 95
165 189 92
164 188 95
171 194 117
165 188 108
158 182 95
161 185 99
167 191 117
161 184 76
161 184 80
164 188 102
159 182 84
161 185 92
166 190 102
169 192 127
165 188 92
161 184 84
163 186 102
157 180 92
156 179 88
167 189 113
159 182 95
162 184 102
164 186 95
164 187 95
163 186 80
158 181 88
160 181 100
164 186 111
157 180 99
163 185 95
158 180 92
155 177 84
163 185 88
154 177 92
161 183 102
158 179 108
160 182 99
158 180 108
157 178 102
156 179 92
153 175 99
153 174 95
151 172 99
156 177 105
149 171 92
160 181 117
148 170 88
156 176 111
147 168 76
151 171 95
147 167 105
152 172 92
157 178 102
153 173 88
144 164 76
146 166 84
151 171 105
151 171 95
149 168 102
141 160 84
144 163 76
142 161 95
138 157 99
136 154 80
125 143 84
131 149 62
133 151 95
131 149 80
135 153 88
123 140 72
125 141 62
130 146 80
132 148 80
122 138 72
116 133 57
118 133 67
118 133 78
94 110 62
112 128 76
113 130 82
88 105 54
117 134 67
105 123 62
119 137 47
132 149 54
115 131 31
129 146 65
130 148 57
132 151 25
128 144 47
138 157 36
147 166 36
144 162 25
146 165 44
128 146 18
132 149 18
126 142 0
130 149 18
122 138 18
136 151 0
120 137 0
119 136 0
107 124 0
117 134 0
117 135 0
104 120 0
112 129 0
107 124 0
113 130 0
111 127 0
113 131 0
122 140 0
113 130 0
101 119 0
108 126 0
108 126 0
113 130 0
104 120 0
95 111 0
99 114 0
110 126 0
110 127 0
104 121 0
91 106 0
90 105 0
92 107 0
97 112 0
92 108 0
113 130 0
88 104 0
99 114 0
102 117 0
106 123 0
89 105 0
93 110 0
88 102 0
88 103 0
76 92 0
98 114 0
100 116 0
91 105 0
98 114 0
91 107 0
109 125 0
91 107 0
108 125 0
110 126 0
103 118 0
107 124 0
96 112 0
109 126 0
114 131 0
109 126 0
97 113 0
104 121 0
92 109 0
117 134 0
117 135 0
107 124 0
99 116 0
113 130 0
104 121 0
110 127 0
125 143 0
110 129 0
99 116 0
109 127 0
108 124 0
114 132 0
113 131 0
119 137 0
109 125 0
118 134 0
115 132 0
108 126 0
118 137 0
110 129 0
119 137 0
132 150 0
125 141 0
129 146 0
117 135 0
122 139 0
119 138 0
121 141 0
129 147 0
129 146 0
133 152 0
132 150 0
122 140 0
133 152 0
131 151 0
133 151 0
125 145 0
143 162 0
132 151 0
132 150 0
133 152 0
125 145 0
132 151 0
115 135 0
130 151 0
133 153 0
138 157 0
133 152 0
133 152 0
130 148 0
130 149 0
138 158 0
130 147 0
138 157 0
142 161 0
136 156 0
140 159 0
143 162 0
133 151 0
151 171 0
136 156 0
150 169 0
141 158 0
146 164 0
141 161 0
136 155 0
138 157 0
142 160 0
145 164 0
143 161 0
146 165 0
152 172 0
143 162 0
142 161 0
134 155 0
144 165 0
143 163 0
149 169 0
145 164 0
145 164 0
144 164 0
149 168 0
149 168 0
150 170 0
152 170 0
154 175 0
147 165 0
149 169 0
144 164 0
144 163 0
155 175 0
144 163 0
149 166 0
154 174 0
154 174 0
152 172 0
154 174 0
151 171 0
144 162 0
149 169 0
149 168 0
151 168 0
153 174 0
154 175 0
156 177 0
154 172 0
147 168 0
158 179 0
150 170 0
155 175 0
152 174 0
161 181 0
157 174 0
157 178 0
162 182 0
157 177 0
154 174 0
155 175 0
158 180 0
164 184 0
153 174 0
158 178 0
161 183 0
154 174 0
154 174 0
162 182 0
157 176 0
158 180 0
158 179 0
150 170 0
157 177 0
161 182 0
159 179 0
163 184 0
157 176 0
157 178 0
161 182 0
161 182 0
159 177 0
164 184 0
159 178 0
155 176 0
163 185 0
161 181 0
160 180 0
164 186 0
159 179 0
157 177 0
163 185 0
157 178 0
159 181 0
162 182 0
160 181 0
165 186 0
159 181 0
166 187 0
163 185 0
166 187 0
164 183 0
157 177 0
162 181 0
166 187 0
166 186 0
167 187 0
160 180 0
165 187 0
163 182 0
161 181 0
166 188 0
165 187 0
163 183 0
164 183 0
166 185 0
166 186 0
166 187 0
162 183 0
164 186 0
165 186 0
162 184 0
168 189 0
162 182 0
169 190 0
163 184 0
165 185 0
165 186 0
166 189 0
168 188 0
165 188 0
164 185 0
167 188 0
166 187 0
164 186 0
165 186 0
167 188 0
167 188 0
168 190 0
167 188 0
163 186 0
165 187 0
166 188 0
173 197 95
175 197 102
173 197 111
175 198 99
174 198 88
176 198 102
173 196 88
174 197 111
176 199 95
169 193 99
176 199 120
168 192 84
168 192 84
171 194 102
174 198 111
168 191 84
169 193 88
168 191 99
171 194 111
168 190 92
169 192 105
168 191 76
172 195 99
168 191 95
175 198 102
169 192 114
175 199 111
171 195 95
171 194 92
170 193 111
173 196 72
172 195 114
164 187 99
162 186 76
169 192 108
168 192 95
164 188 80
168 192 99
163 186 88
164 187 99
168 190 102
167 191 102
167 190 84
165 188 84
169 193 125
164 187 108
166 189 114
166 189 102
163 185 88
163 185 80
164 187 114
165 188 102
164 187 88
171 193 105
158 182 80
159 183 110
160 182 84
157 181 84
164 187 99
156 179 72
160 184 102
158 180 84
163 186 84
160 183 95
157 180 84
158 180 84
157 180 84
161 183 84
165 189 102
159 183 90
161 184 99
155 178 88
156 177 82
155 177 80
155 177 99
152 174 102
155 178 76
160 182 114
157 179 92
161 183 108
157 178 102
155 176 95
161 183 105
157 178 105
150 171 84
151 173 102
151 172 105
153 174 92
146 168 76
151 172 88
141 161 62
162 184 99
144 165 92
149 169 88
159 180 105
142 161 92
156 175 120
152 172 92
158 178 92
153 172 88
155 174 92
148 167 102
146 166 72
146 165 105
150 168 105
130 149 80
142 160 102
130 148 67
134 152 80
138 156 88
121 139 36
131 148 72
126 142 84
123 139 88
117 136 25
130 147 95
112 127 51
122 138 51
130 147 76
127 144 67
114 129 65
118 135 74
119 135 84
112 129 44
122 137 74
116 132 57
110 127 40
124 142 51
123 140 46
132 149 40
130 145 44
129 146 31
136 153 25
140 158 0
145 163 0
135 152 0
145 164 44
141 158 0
139 157 0
140 158 0
144 163 25
127 145 0
128 146 0
124 140 0
128 146 0
117 133 0
116 134 0
113 129 0
104 122 0
123 142 0
120 137 0
107 123 0
113 131 0
109 127 0
113 130 0
116 133 0
106 122 0
112 129 0
121 139 0
103 119 0
117 134 0
107 125 0
95 110 0
97 112 0
98 115 0
95 112 0
106 122 0
96 112 0
90 107 0
115 130 0
99 115 0
100 118 0
109 126 0
99 116 0
97 114 0
93 109 0
95 110 0
90 105 0
104 120 0
104 120 0
103 120 0
97 114 0
110 126 0
100 117 0
104 121 0
95 111 0
113 129 0
102 118 0
107 123 0
94 110 0
97 112 0
115 131 0
110 127 0
100 117 0
93 111 0
116 133 0
106 124 0
107 124 0
99 115 0
103 120 0
111 128 0
89 106 0
111 128 0
112 128 0
116 134 0
104 122 0
116 132 0
99 116 0
108 126 0
108 126 0
117 135 0
112 128 0
118 136 0
115 134 0
115 132 0
118 136 0
114 133 0
114 131 0
119 134 0
116 135 0
110 129 0
129 147 0
117 135 0
112 128 0
130 148 0
117 135 0
122 140 0
122 139 0
128 145 0
111 129 0
130 149 0
120 140 0
127 146 0
127 146 0
129 148 0
137 154 0
131 151 0
135 154 0
133 152 0
124 142 0
134 152 0
128 146 0
130 148 0
130 148 0
138 158 0
128 148 0
136 155 0
139 158 0
143 162 0
134 153 0
127 146 0
138 157 0
134 154 0
141 160 0
134 154 0
142 162 0
134 152 0
143 162 0
147 168 0
140 161 0
144 164 0
145 166 0
141 162 0
138 158 0
150 170 0
141 161 0
147 167 0
136 156 0
143 163 0
142 163 0
147 166 0
139 159 0
139 160 0
144 164 0
141 160 0
144 166 0
147 164 0
139 158 0
145 166 0
153 173 0
144 163 0
147 166 0
146 165 0
153 172 0
146 166 0
149 168 0
141 161 0
155 175 0
151 169 0
148 169 0
155 175 0
154 174 0
152 172 0
152 171 0
152 171 0
152 173 0
153 173 0
148 167 0
149 168 0
153 173 0
155 176 0
155 174 0
154 175 0
160 180 0
152 171 0
144 164 0
154 175 0
164 185 0
157 178 0
152 172 0
156 176 0
153 176 0
157 178 0
158 178 0
157 178 0
153 173 0
155 176 0
155 176 0
164 184 0
156 176 0
154 174 0
154 175 0
147 170 0
165 186 0
160 180 0
154 175 0
147 166 0
156 176 0
160 182 0
156 177 0
161 180 0
162 183 0
163 184 0
159 179 0
162 182 0
157 177 0
159 180 0
164 184 0
163 183 0
164 182 0
158 180 0
159 178 0
165 187 0
165 186 0
158 179 0
166 187 0
162 181 0
162 183 0
163 183 0
163 185 0
167 187 0
165 185 0
163 183 0
160 181 0
161 182 0
160 181 0
163 184 0
157 177 0
165 186 0
165 185 0
164 185 0
166 187 0
165 187 0
162 183 0
166 187 0
166 187 0
165 187 0
164 184 0
166 188 0
165 185 0
163 183 0
161 181 0
169 190 0
163 184 0
161 180 0
165 185 0
162 185 0
166 186 0
166 186 0
165 186 0
166 188 0
164 184 0
164 185 0
164 185 0
166 188 0
163 184 0
163 183 0
168 189 0
165 185 0
164 185 0
165 188 0
164 184 0
166 187 0
170 191 0
167 190 0
167 189 0
162 183 0
167 188 0
171 193 0
168 190 0
173 196 92
170 193 105
174 197 95
173 195 80
176 199 114
172 195 95
174 197 99
169 192 84
178 201 102
176 199 95
175 198 105
174 197 122
172 195 84
168 192 92
171 195 108
173 196 102
168 192 92
159 182 67
172 195 108
170 193 108
173 196 92
167 190 80
173 196 92
172 195 108
172 195 99
170 192 99
174 197 88
171 194 95
174 198 114
175 198 95
171 194 127
166 189 111
166 189 95
168 191 102
172 195 111
165 189 108
162 185 72
169 193 99
167 189 95
162 186 80
163 186 88
169 192 105
166 188 92
169 193 99
162 185 95
167 191 108
162 185 99
166 189 72
159 183 88
166 190 102
169 193 92
167 190 88
162 185 95
165 188 108
167 191 114
155 177 84
158 182 84
162 185 107
170 192 111
165 187 95
161 184 95
161 184 99
159 181 88
149 172 72
165 188 88
165 188 105
159 182 107
156 178 84
160 182 78
164 186 92
164 186 80
161 184 113
161 183 84
161 183 102
155 177 80
159 181 105
153 175 84
163 185 117
158 179 88
152 173 72
162 184 99
156 177 76
153 174 88
150 171 72
156 179 102
160 181 88
159 181 105
159 180 114
157 178 114
149 169 84
154 176 102
154 175 108
155 175 102
164 183 117
148 168 92
151 171 102
155 175 114
150 170 88
146 165 102
144 163 99
138 158 76
135 154 84
150 169 111
147 167 76
145 164 92
143 162 92
137 155 88
134 153 76
145 164 92
139 158 102
132 149 80
145 163 99
125 142 51
131 148 80
140 158 84
117 135 57
118 134 62
132 149 57
123 139 44
112 129 51
123 140 62
99 116 57
115 131 74
115 130 36
121 137 44
127 143 40
130 149 31
129 147 47
121 138 25
126 143 25
118 137 18
135 152 47
145 163 36
137 155 25
135 153 25
133 151 0
138 157 0
143 161 0
142 161 0
132 150 0
125 141 0
141 160 0
125 141 0
130 147 0
122 140 0
123 139 0
128 145 0
120 137 0
123 140 0
106 125 0
116 134 0
117 133 0
120 138 0
104 121 0
116 132 0
115 132 0
114 133 0
121 138 0
116 132 0
117 132 0
107 123 0
97 114 0
106 123 0
104 120 0
109 126 0
102 119 0
105 122 0
98 115 0
97 114 0
109 127 0
98 115 0
99 115 0
96 113 0
117 133 0
96 112 0
114 130 0
92 108 0
100 116 0
104 121 0
103 119 0
116 133 0
103 120 0
109 125 0
99 114 0
110 127 0
101 118 0
115 132 0
95 111 0
120 136 0
115 132 0
106 122 0
114 130 0
110 126 0
106 122 0
93 110 0
111 129 0
109 126 0
108 125 0
101 120 0
118 135 0
108 124 0
101 117 0
106 122 0
124 142 0
118 134 0
111 128 0
124 143 0
115 130 0
110 128 0
128 146 0
108 125 0
122 139 0
120 138 0
121 139 0
110 129 0
111 130 0
120 139 0
121 139 0
120 138 0
125 143 0
123 141 0
130 149 0
126 144 0
123 142 0
120 138 0
116 135 0
124 142 0
108 127 0
113 131 0
130 148 0
135 154 0
116 134 0
134 152 0
125 142 0
132 150 0
129 149 0
131 150 0
142 162 0
135 155 0
147 166 0
134 154 0
134 153 0
134 153 0
135 156 0
135 155 0
136 156 0
130 150 0
138 156 0
136 155 0
138 156 0
135 155 0
128 147 0
135 154 0
140 159 0
137 156 0
135 154 0
139 158 0
138 158 0
141 162 0
139 161 0
142 161 0
136 156 0
139 160 0
138 157 0
142 161 0
136 154 0
144 163 0
142 162 0
141 160 0
145 164 0
149 169 0
142 163 0
138 158 0
149 170 0
150 170 0
139 159 0
153 173 0
152 172 0
146 167 0
144 164 0
137 155 0
149 170 0
138 156 0
142 164 0
140 159 0
148 169 0
148 168 0
152 173 0
152 171 0
159 180 0
141 160 0
150 171 0
148 167 0
150 170 0
151 171 0
153 173 0
152 171 0
150 169 0
147 166 0
151 171 0
152 172 0
160 181 0
155 175 0
151 169 0
156 174 0
160 180 0
151 172 0
153 173 0
154 174 0
162 184 0
154 173 0
159 180 0
157 177 0
151 171 0
159 177 0
158 179 0
144 165 0
158 180 0
158 181 0
157 178 0
155 177 0
157 177 0
154 174 0
161 181 0
155 176 0
156 178 0
161 182 0
162 182 0
158 178 0
160 179 0
160 180 0
164 184 0
155 175 0
163 184 0
158 178 0
164 183 0
157 177 0
165 186 0
158 178 0
164 185 0
160 181 0
160 182 0
158 178 0
157 177 0
162 183 0
160 181 0
157 179 0
163 182 0
162 182 0
162 182 0
162 183 0
154 176 0
159 181 0
164 185 0
166 187 0
159 178 0
163 184 0
162 180 0
166 189 0
161 182 0
160 179 0
161 181 0
167 188 0
165 184 0
165 187 0
162 182 0
162 182 0
163 181 0
165 186 0
156 175 0
163 183 0
168 189 0
168 189 0
162 184 0
161 181 0
167 186 0
169 190 0
162 184 0
165 188 0
163 184 0
165 186 0
167 186 0
163 184 0
166 186 0
168 187 0
166 186 0
168 189 0
167 190 0
161 181 0
164 184 0
167 189 0
164 184 0
162 182 0
166 188 0
169 189 0
170 191 0
166 187 0
166 187 0
166 188 0
169 191 0
173 197 105
171 194 76
171 195 67
174 196 88
172 195 99
171 195 102
174 197 105
173 196 84
171 194 99
174 197 108
172 195 95
173 196 95
167 191 99
170 194 92
171 194 95
173 196 88
174 197 88
170 194 72
168 192 88
168 191 80
173 195 102
169 193 84
169 192 105
171 194 117
170 193 76
167 191 92
169 192 102
168 192 95
167 190 92
170 193 99
166 189 76
171 195 92
172 196 111
162 185 80
168 191 108
166 190 95
170 194 108
166 189 111
170 193 76
166 190 108
169 193 111
167 190 84
170 193 95
168 192 117
166 190 80
166 189 108
166 189 88
164 187 88
166 189 88
171 195 105
156 178 99
169 193 114
162 186 72
162 185 92
169 192 107
163 187 92
153 177 62
165 188 117
155 178 80
162 185 92
152 175 88
165 188 88
166 189 95
155 178 80
161 183 95
160 183 111
160 183 105
159 180 95
165 187 114
162 185 88
155 178 95
169 191 113
161 183 88
157 180 92
155 176 99
153 175 92
155 178 92
157 179 86
158 180 99
150 171 80
156 178 88
151 173 99
154 176 80
152 173 92
157 179 111
160 181 111
152 173 102
155 176 105
154 175 111
153 175 99
160 180 95
160 181 120
150 169 99
159 179 99
153 173 105
157 177 111
160 180 111
145 165 95
152 171 95
148 168 99
152 172 120
147 165 99
148 167 95
153 172 92
150 169 95
135 153 88
137 156 72
136 155 92
145 164 99
142 160 72
130 148 76
134 152 76
133 150 72
135 153 76
125 143 62
131 148 76
133 149 84
111 128 57
133 150 76
122 138 67
122 138 44
115 132 57
129 147 57
120 138 51
124 141 51
118 136 44
123 140 60
123 140 54
128 146 0
124 143 25
131 149 57
139 158 51
139 157 44
133 152 0
141 160 25
141 160 0
136 154 0
142 160 25
144 165 0
134 153 0
132 152 0
142 160 0
130 150 0
122 140 0
133 151 0
135 152 0
122 139 0
115 132 0
121 139 0
110 127 0
122 141 0
123 141 0
118 137 0
111 129 0
118 136 0
110 127 0
112 129 0
114 132 0
106 124 0
116 134 0
105 124 0
104 122 0
105 122 0
115 132 0
105 123 0
118 136 0
104 121 0
109 123 0
101 117 0
110 125 0
88 105 0
111 128 0
100 116 0
100 117 0
97 115 0
104 120 0
108 124 0
99 116 0
114 131 0
107 125 0
110 127 0
117 134 0
100 116 0
100 115 0
103 119 0
99 116 0
109 128 0
99 116 0
105 121 0
111 126 0
111 128 0
103 120 0
116 133 0
108 124 0
108 124 0
117 134 0
118 135 0
106 122 0
108 124 0
121 139 0
116 134 0
129 147 0
102 120 0
109 127 0
114 132 0
116 134 0
117 134 0
113 130 0
116 134 0
118 134 0
121 140 0
119 137 0
119 137 0
117 134 0
132 149 0
120 138 0
125 142 0
125 143 0
124 141 0
121 139 0
121 140 0
127 146 0
120 138 0
131 149 0
135 154 0
129 147 0
123 142 0
133 151 0
125 144 0
124 143 0
120 139 0
124 142 0
120 137 0
130 151 0
132 151 0
137 156 0
134 153 0
133 152 0
126 144 0
137 156 0
130 150 0
129 148 0
142 160 0
135 154 0
137 155 0
130 148 0
140 160 0
132 150 0
138 157 0
134 151 0
143 161 0
150 170 0
142 160 0
143 163 0
137 157 0
144 165 0
138 158 0
138 156 0
136 157 0
140 161 0
142 161 0
135 156 0
146 167 0
147 165 0
134 153 0
152 171 0
143 161 0
144 164 0
146 166 0
148 168 0
145 163 0
148 166 0
145 165 0
154 176 0
153 173 0
145 166 0
145 165 0
154 176 0
144 164 0
141 162 0
152 171 0
153 172 0
145 167 0
153 174 0
147 166 0
151 173 0
159 179 0
157 179 0
162 181 0
146 166 0
158 179 0
157 177 0
151 174 0
159 180 0
153 174 0
154 173 0
144 163 0
151 171 0
151 172 0
155 175 0
150 171 0
150 171 0
153 175 0
158 178 0
158 180 0
158 179 0
154 174 0
155 176 0
156 177 0
146 168 0
159 179 0
156 176 0
161 181 0
160 181 0
158 179 0
160 180 0
157 177 0
159 181 0
151 170 0
160 180 0
156 177 0
158 179 0
159 179 0
158 179 0
164 184 0
153 174 0
156 174 0
164 183 0
157 177 0
156 177 0
158 178 0
150 170 0
161 181 0
162 181 0
153 174 0
157 178 0
161 181 0
162 184 0
164 184 0
159 179 0
163 184 0
160 180 0
162 183 0
161 183 0
159 179 0
156 178 0
163 184 0
161 182 0
162 183 0
163 184 0
161 180 0
163 183 0
162 182 0
162 180 0
169 190 0
163 184 0
165 184 0
165 186 0
162 185 0
164 185 0
161 182 0
159 178 0
164 184 0
166 186 0
159 180 0
165 185 0
157 179 0
167 189 0
165 187 0
158 176 0
167 188 0
168 190 0
161 182 0
167 188 0
162 183 0
165 186 0
165 184 0
166 187 0
166 187 0
167 189 0
165 187 0
167 188 0
166 186 0
166 188 0
166 185 0
163 182 0
168 188 0
166 187 0
168 188 0
169 189 0
169 191 0
168 190 0
168 188 0
164 187 0
165 187 0
168 189 0
168 190 0
164 185 0
167 189 0
165 187 0
172 195 95
166 189 111
174 197 95
170 193 80
173 196 76
169 192 80
172 195 102
172 195 84
171 194 95
170 193 88
172 195 92
171 194 88
170 193 84
175 198 108
173 197 92
174 196 111
174 197 108
174 197 99
167 191 99
176 200 114
167 190 92
170 193 102
171 194 108
167 189 88
168 192 72
163 187 95
174 198 120
170 193 95
169 192 88
166 189 114
170 194 105
175 198 99
172 195 80
166 190 67
162 185 84
164 187 84
170 193 102
166 189 102
168 192 99
166 189 76
167 191 88
166 189 80
163 185 88
168 192 102
166 190 111
167 190 102
165 188 88
169 193 111
162 186 80
168 191 108
170 194 102
160 182 88
152 175 72
164 187 88
161 185 88
166 189 88
158 181 102
161 184 90
167 191 105
155 177 92
163 186 99
159 183 102
153 176 80
165 188 95
162 184 97
164 188 88
153 176 102
161 184 88
158 180 92
155 178 102
151 174 88
162 184 120
157 179 92
160 183 88
158 180 84
163 185 92
154 175 95
160 182 105
153 175 95
158 179 88
157 178 88
162 184 108
151 173 88
155 177 95
162 184 120
155 176 111
152 174 102
165 186 102
151 172 105
146 167 76
151 172 102
159 180 117
146 167 102
156 177 114
152 171 99
147 168 102
153 173 102
150 170 111
148 167 95
139 159 99
154 173 108
154 173 102
147 166 95
153 172 105
148 167 99
144 162 102
139 158 80
150 168 88
139 157 84
145 163 102
142 160 95
146 164 95
139 158 51
128 147 62
135 153 36
128 146 62
118 137 57
120 138 80
121 138 62
130 148 57
132 150 44
127 144 62
133 152 44
126 144 51
116 131 51
119 135 44
135 152 51
125 143 36
121 138 57
141 159 25
140 158 57
130 148 36
131 150 25
144 162 25
140 158 25
138 157 36
137 156 0
124 142 0
136 157 0
145 164 0
140 158 0
140 159 0
127 145 0
129 148 0
123 141 0
126 143 0
136 157 0
118 136 0
115 133 0
117 136 0
122 141 0
128 146 0
128 147 0
128 147 0
111 129 0
122 140 0
117 134 0
117 134 0
114 131 0
110 127 0
114 132 0
109 127 0
107 124 0
109 126 0
111 127 0
105 122 0
101 119 0
102 119 0
104 122 0
103 121 0
106 123 0
107 124 0
110 127 0
109 126 0
118 136 0
120 138 0
112 129 0
115 133 0
106 123 0
96 113 0
103 120 0
113 128 0
113 129 0
111 127 0
104 120 0
108 126 0
119 137 0
108 124 0
103 120 0
97 114 0
118 135 0
106 124 0
105 123 0
110 128 0
104 121 0
106 123 0
108 127 0
109 127 0
119 136 0
107 124 0
103 120 0
115 133 0
108 127 0
115 134 0
119 136 0
114 132 0
121 139 0
113 130 0
122 139 0
120 138 0
123 141 0
123 141 0
129 145 0
120 137 0
116 134 0
127 145 0
122 139 0
131 150 0
125 144 0
117 135 0
132 151 0
118 138 0
122 140 0
125 144 0
129 149 0
116 134 0
125 144 0
133 151 0
119 137 0
126 145 0
125 144 0
125 144 0
136 156 0
129 149 0
126 144 0
142 161 0
134 153 0
133 152 0
129 147 0
132 150 0
134 154 0
139 158 0
136 155 0
141 161 0
146 166 0
139 159 0
143 164 0
133 152 0
132 152 0
134 154 0
146 166 0
138 156 0
148 168 0
143 163 0
140 159 0
132 151 0
147 168 0
144 165 0
137 157 0
145 165 0
147 167 0
150 169 0
139 158 0
140 158 0
148 167 0
143 164 0
147 168 0
141 162 0
145 165 0
148 168 0
144 165 0
149 168 0
150 171 0
149 169 0
142 160 0
147 167 0
147 167 0
141 160 0
150 170 0
147 166 0
155 176 0
152 172 0
156 177 0
154 176 0
146 164 0
144 165 0
150 172 0
147 165 0
153 174 0
158 177 0
152 172 0
149 170 0
153 174 0
147 166 0
150 171 0
155 175 0
155 176 0
150 169 0
157 178 0
154 174 0
156 176 0
150 169 0
157 179 0
149 170 0
154 172 0
151 172 0
158 179 0
150 170 0
155 175 0
156 176 0
152 171 0
157 177 0
159 179 0
160 179 0
162 181 0
157 179 0
160 181 0
159 180 0
159 180 0
156 177 0
158 179 0
160 180 0
159 180 0
157 177 0
152 170 0
160 180 0
162 185 0
157 179 0
155 176 0
161 180 0
156 176 0
160 179 0
161 182 0
160 181 0
165 184 0
159 178 0
163 184 0
160 182 0
163 183 0
162 183 0
160 182 0
161 182 0
166 185 0
159 180 0
157 178 0
155 176 0
163 184 0
163 184 0
164 185 0
153 175 0
161 183 0
163 183 0
164 186 0
161 184 0
163 184 0
163 182 0
164 187 0
162 183 0
164 184 0
167 188 0
160 181 0
165 188 0
162 183 0
164 186 0
167 188 0
160 181 0
161 182 0
164 184 0
162 183 0
163 183 0
166 188 0
160 180 0
163 184 0
163 183 0
166 188 0
167 189 0
166 188 0
165 186 0
167 187 0
164 186 0
165 186 0
167 188 0
170 190 0
168 189 0
166 188 0
165 186 0
167 188 0
169 190 0
166 187 0
165 186 0
166 188 0
169 189 0
170 191 0
158 179 0
165 187 0
170 192 0
171 192 0
166 187 0
165 186 0
166 189 0
174 198 92
173 196 117
176 199 114
172 195 92
174 197 99
172 195 88
175 198 114
171 194 88
171 195 105
172 194 102
171 194 88
172 195 102
168 192 67
171 194 92
168 192 88
174 198 114
173 196 108
169 192 111
171 194 92
167 190 80
166 189 95
171 194 76
171 194 99
173 196 108
170 193 99
171 195 105
169 193 84
174 198 105
168 193 102
167 190 88
171 195 105
167 191 105
168 191 108
170 194 92
166 189 111
165 188 92
169 193 108
167 190 102
166 189 95
165 189 99
167 191 105
161 185 108
163 187 105
168 192 84
166 190 111
160 182 84
163 187 111
173 197 114
161 184 92
163 187 111
163 186 95
158 181 88
163 187 78
155 179 82
166 189 105
161 184 95
164 187 95
157 179 82
153 176 76
164 187 88
159 182 95
159 182 80
158 181 88
155 177 84
160 183 84
162 184 90
166 188 84
162 184 105
164 188 88
163 185 88
168 190 80
159 181 99
158 181 102
164 186 108
158 180 95
150 172 92
156 176 99
160 181 99
150 172 92
159 181 108
148 170 80
154 175 92
152 173 84
155 176 92
155 177 95
156 177 84
157 179 95
150 171 102
151 172 114
147 168 108
153 173 117
158 179 102
153 174 102
154 174 102
156 176 111
152 172 80
151 172 84
154 174 102
155 174 95
150 169 114
146 167 80
145 165 84
147 167 80
146 164 95
143 162 92
148 166 108
144 163 95
135 153 92
140 160 84
148 166 95
144 161 95
139 157 84
137 155 84
123 140 62
139 156 72
123 141 67
131 150 72
114 131 67
127 146 62
138 157 67
119 136 51
137 155 76
124 141 44
121 138 44
133 151 44
126 144 36
137 156 62
118 136 25
132 151 44
138 156 0
133 152 44
141 158 62
133 153 0
135 154 36
140 159 0
134 153 0
135 153 25
135 156 0
148 168 25
137 155 0
137 156 0
127 144 0
129 148 0
139 157 0
129 149 0
124 143 0
123 142 0
128 148 0
124 141 0
117 135 0
118 137 0
125 144 0
117 135 0
115 133 0
109 126 0
109 127 0
123 141 0
121 139 0
110 127 0
116 134 0
111 128 0
123 140 0
117 134 0
105 124 0
116 134 0
107 125 0
106 125 0
104 121 0
107 124 0
113 131 0
108 125 0
111 128 0
107 125 0
110 127 0
115 131 0
108 125 0
104 121 0
112 130 0
102 120 0
90 107 0
119 136 0
116 133 0
110 127 0
110 127 0
113 131 0
103 120 0
108 125 0
113 130 0
109 126 0
95 111 0
111 129 0
113 131 0
118 135 0
119 136 0
112 130 0
95 113 0
106 125 0
119 137 0
109 126 0
113 130 0
117 134 0
108 124 0
126 144 0
111 129 0
106 124 0
115 134 0
115 132 0
113 131 0
130 147 0
126 145 0
122 140 0
129 148 0
126 143 0
119 137 0
121 139 0
126 144 0
107 125 0
130 148 0
122 140 0
129 148 0
131 152 0
120 138 0
121 141 0
133 151 0
130 150 0
125 146 0
140 159 0
111 130 0
126 145 0
124 145 0
128 148 0
130 148 0
132 152 0
137 157 0
136 156 0
135 155 0
133 152 0
123 142 0
141 161 0
132 152 0
137 157 0
131 151 0
131 149 0
131 151 0
135 156 0
126 146 0
138 157 0
144 163 0
122 141 0
139 160 0
134 155 0
141 164 0
129 148 0
138 160 0
123 144 0
148 169 0
146 165 0
142 162 0
147 170 0
146 165 0
129 149 0
150 169 0
149 171 0
142 164 0
150 172 0
150 171 0
142 161 0
144 165 0
149 168 0
147 166 0
146 168 0
143 163 0
144 164 0
142 163 0
149 167 0
150 170 0
148 168 0
151 171 0
156 176 0
151 171 0
141 160 0
148 168 0
147 167 0
152 170 0
137 158 0
159 179 0
151 171 0
150 169 0
153 175 0
145 167 0
145 164 0
151 169 0
149 169 0
152 172 0
149 169 0
155 175 0
152 173 0
155 175 0
153 175 0
150 169 0
157 176 0
153 173 0
153 173 0
157 176 0
157 177 0
152 172 0
153 172 0
156 174 0
151 172 0
156 176 0
161 181 0
158 179 0
158 180 0
160 181 0
156 177 0
157 179 0
155 177 0
161 181 0
157 177 0
156 176 0
161 181 0
164 185 0
157 177 0
160 178 0
159 179 0
157 177 0
159 180 0
157 177 0
153 173 0
162 183 0
160 179 0
161 182 0
163 183 0
161 182 0
156 177 0
160 181 0
164 184 0
164 185 0
161 182 0
164 185 0
161 184 0
164 186 0
162 182 0
160 181 0
164 186 0
164 182 0
163 185 0
157 176 0
160 180 0
164 186 0
162 182 0
167 188 0
163 184 0
159 180 0
165 186 0
163 184 0
166 187 0
155 177 0
157 178 0
164 184 0
161 181 0
166 187 0
167 190 0
162 183 0
160 178 0
161 182 0
159 179 0
167 188 0
166 189 0
160 181 0
161 182 0
166 187 0
161 181 0
160 179 0
165 185 0
162 182 0
164 185 0
162 182 0
165 185 0
164 184 0
161 181 0
164 186 0
171 191 0
168 188 0
168 190 0
167 189 0
162 183 0
162 183 0
165 186 0
163 182 0
169 193 0
165 186 0
164 185 0
168 189 0
165 186 0
164 185 0
164 185 0
166 188 0
172 193 0
169 191 0
171 194 95
177 200 111
172 195 105
174 197 95
173 196 102
172 194 84
174 198 99
168 192 92
172 195 114
169 192 88
166 190 72
178 201 108
175 198 84
171 195 84
176 198 95
174 197 92
174 197 80
172 194 76
170 194 111
171 194 92
175 199 95
168 191 99
170 194 99
170 194 84
167 190 99
167 190 92
173 196 99
169 192 111
165 189 108
172 195 95
170 194 95
162 185 57
170 193 92
165 188 88
166 190 105
163 186 92
167 190 92
173 195 108
161 184 76
168 191 102
171 194 80
166 190 99
165 188 105
166 190 92
165 188 92
163 186 80
165 189 84
171 194 108
166 189 102
161 185 95
163 186 88
169 193 111
169 192 102
160 183 92
166 190 105
167 190 120
163 187 99
152 175 80
167 190 94
161 183 99
156 179 99
162 185 80
161 184 108
164 187 114
159 182 72
158 181 114
166 189 92
157 180 95
160 182 92
161 183 95
161 184 99
160 182 84
155 177 92
163 185 111
158 180 95
158 180 72
152 174 72
158 180 92
158 179 102
161 183 80
162 184 84
159 181 95
156 178 114
157 179 117
156 178 92
159 181 80
158 179 95
150 171 99
154 176 92
155 176 108
152 173 108
154 175 88
148 168 80
148 169 95
149 168 105
151 171 105
154 174 99
152 173 84
149 169 88
152 172 108
145 165 84
152 171 102
148 167 84
152 171 102
139 158 88
140 158 80
150 169 108
132 151 76
156 175 102
143 162 88
141 160 92
131 150 84
135 153 72
126 144 67
145 164 80
128 147 76
128 146 80
123 140 62
113 131 36
120 138 62
126 144 51
124 141 51
133 151 36
137 156 57
131 147 67
122 140 25
128 147 25
130 148 36
131 149 25
142 161 25
134 152 25
145 165 36
135 154 0
136 156 0
135 155 0
140 160 0
142 161 36
137 154 25
144 163 0
138 158 0
142 162 0
145 164 0
131 147 0
124 144 0
142 160 0
118 137 0
136 156 0
127 146 0
120 138 0
113 131 0
118 137 0
126 145 0
110 128 0
121 139 0
110 127 0
114 133 0
114 133 0
122 141 0
107 126 0
107 124 0
109 128 0
110 128 0
104 122 0
118 135 0
103 122 0
112 129 0
108 126 0
108 125 0
119 137 0
116 134 0
111 129 0
101 118 0
116 133 0
105 124 0
110 128 0
106 123 0
114 132 0
113 130 0
115 133 0
117 135 0
103 121 0
105 122 0
110 128 0
111 128 0
110 127 0
109 126 0
114 133 0
113 131 0
118 137 0
116 134 0
111 129 0
121 141 0
126 145 0
117 134 0
121 139 0
112 131 0
114 133 0
112 132 0
110 127 0
117 135 0
110 129 0
120 138 0
122 140 0
114 132 0
97 115 0
105 122 0
116 134 0
128 146 0
115 133 0
128 145 0
132 152 0
125 145 0
103 121 0
122 140 0
124 144 0
130 149 0
119 136 0
123 142 0
128 147 0
122 140 0
131 150 0
133 151 0
126 145 0
135 155 0
121 139 0
129 147 0
124 144 0
130 150 0
137 158 0
119 137 0
139 158 0
125 143 0
136 156 0
129 148 0
119 137 0
132 151 0
129 147 0
136 156 0
139 159 0
147 168 0
135 155 0
138 158 0
130 149 0
135 155 0
144 162 0
123 143 0
135 154 0
127 147 0
135 155 0
130 150 0
132 150 0
133 152 0
135 155 0
146 166 0
141 161 0
141 162 0
145 164 0
145 166 0
139 160 0
146 167 0
144 165 0
141 160 0
154 173 0
150 170 0
142 162 0
138 159 0
143 165 0
144 164 0
151 171 0
148 169 0
148 168 0
152 171 0
146 165 0
150 169 0
150 170 0
150 170 0
154 175 0
147 168 0
144 164 0
156 176 0
152 172 0
152 173 0
150 170 0
154 175 0
157 178 0
152 173 0
148 169 0
152 172 0
155 176 0
153 173 0
156 174 0
152 172 0
148 169 0
149 169 0
155 175 0
160 179 0
151 172 0
155 176 0
149 167 0
152 173 0
150 170 0
152 172 0
152 172 0
151 173 0
147 167 0
153 173 0
153 174 0
150 170 0
160 181 0
158 178 0
160 182 0
157 177 0
159 181 0
159 177 0
155 174 0
154 176 0
157 176 0
155 175 0
159 178 0
165 188 0
156 178 0
161 182 0
160 181 0
152 174 0
157 178 0
161 181 0
160 181 0
160 180 0
162 182 0
158 179 0
165 186 0
164 184 0
161 182 0
157 177 0
161 183 0
161 182 0
156 175 0
160 180 0
164 184 0
157 178 0
159 178 0
160 181 0
160 181 0
165 186 0
161 184 0
157 178 0
160 180 0
159 178 0
166 186 0
165 185 0
157 177 0
161 182 0
163 184 0
159 181 0
169 189 0
168 188 0
167 187 0
165 187 0
161 182 0
157 178 0
164 186 0
162 182 0
162 182 0
159 178 0
161 182 0
163 185 0
162 184 0
159 178 0
161 182 0
168 189 0
164 184 0
164 185 0
159 179 0
165 186 0
168 187 0
163 183 0
165 188 0
163 185 0
167 188 0
164 186 0
162 182 0
166 187 0
168 189 0
167 188 0
167 187 0
165 186 0
166 188 0
162 182 0
162 183 0
166 187 0
165 186 0
165 187 0
168 190 0
165 186 0
167 189 0
169 191 0
168 189 0
163 182 0
167 188 0
164 185 0
174 198 92
175 198 99
176 200 105
173 196 95
175 198 95
167 190 99
171 194 99
172 195 108
173 196 105
172 195 92
171 193 92
173 196 84
176 199 108
174 196 111
178 202 120
170 193 88
168 191 76
170 194 99
172 194 92
169 193 99
172 196 111
166 190 88
165 190 88
171 193 114
169 192 95
169 193 84
170 193 99
168 192 102
166 189 88
167 191 95
169 192 92
163 187 88
162 185 92
166 190 92
169 192 95
164 187 88
168 191 95
170 195 117
169 191 84
165 188 114
168 191 88
166 189 92
169 193 99
161 184 102
163 187 99
166 190 105
161 185 92
169 193 108
167 191 80
167 190 88
159 182 84
162 186 105
166 189 88
160 184 84
165 188 95
166 190 117
159 182 92
156 180 92
160 184 84
158 182 95
161 185 80
163 186 107
161 184 95
162 184 76
165 188 114
166 189 102
159 181 88
160 183 76
158 181 102
163 185 76
158 180 84
169 191 95
157 179 84
161 183 108
161 183 76
163 186 122
165 188 99
156 179 88
155 177 102
159 180 108
158 180 92
158 180 105
154 175 95
151 173 67
153 175 108
153 174 92
157 179 95
155 175 99
155 176 111
151 173 92
150 171 92
152 174 80
164 184 122
156 176 111
157 177 117
151 171 99
149 170 92
149 169 95
157 177 102
145 165 84
149 168 105
156 175 95
156 175 117
153 173 99
148 167 84
140 159 80
142 161 84
156 173 105
147 166 88
138 158 88
148 167 80
150 168 88
141 160 88
139 158 67
145 164 57
130 149 80
131 149 80
133 151 72
130 149 36
131 149 62
119 136 67
126 144 25
116 134 25
123 141 62
132 152 51
123 143 44
131 150 36
129 150 25
139 157 44
141 161 0
138 157 25
135 155 25
134 154 36
145 163 25
142 163 25
141 161 36
136 155 0
145 166 0
129 148 0
139 159 0
140 160 0
140 161 0
142 162 0
137 157 0
132 150 0
134 153 0
115 135 0
127 146 0
120 138 0
121 141 0
135 155 0
122 140 0
119 137 0
128 146 0
124 142 0
108 125 0
125 144 0
114 131 0
116 134 0
114 133 0
115 133 0
121 139 0
109 127 0
108 125 0
112 128 0
115 133 0
110 127 0
118 136 0
106 124 0
118 136 0
116 132 0
120 138 0
116 134 0
111 129 0
118 135 0
115 132 0
97 115 0
110 127 0
108 126 0
108 126 0
113 131 0
116 135 0
116 134 0
112 130 0
114 133 0
104 122 0
111 129 0
111 128 0
111 128 0
112 130 0
113 131 0
122 139 0
122 141 0
123 141 0
126 144 0
115 133 0
113 131 0
109 126 0
121 138 0
101 119 0
117 134 0
111 129 0
125 143 0
117 135 0
124 142 0
110 128 0
120 137 0
126 143 0
117 136 0
121 139 0
124 141 0
140 158 0
119 138 0
122 142 0
122 141 0
118 137 0
132 150 0
107 125 0
118 137 0
126 145 0
123 141 0
143 163 0
124 144 0
131 150 0
131 149 0
131 150 0
129 149 0
124 145 0
135 154 0
127 147 0
136 155 0
127 147 0
128 148 0
134 152 0
138 158 0
132 152 0
135 154 0
139 159 0
134 152 0
137 157 0
137 156 0
144 163 0
122 140 0
135 156 0
145 164 0
143 164 0
132 152 0
137 156 0
130 150 0
135 155 0
143 164 0
140 160 0
141 161 0
148 169 0
141 162 0
150 170 0
146 166 0
132 151 0
144 166 0
138 159 0
138 160 0
141 162 0
145 165 0
124 144 0
138 158 0
151 172 0
145 165 0
151 171 0
142 161 0
149 169 0
145 165 0
146 165 0
153 175 0
150 170 0
145 165 0
142 163 0
145 166 0
142 163 0
148 169 0
150 169 0
152 173 0
151 172 0
155 176 0
153 173 0
150 171 0
149 168 0
154 175 0
147 167 0
153 174 0
152 173 0
148 168 0
153 173 0
148 167 0
152 172 0
152 174 0
146 167 0
149 168 0
157 177 0
149 171 0
156 177 0
160 182 0
154 174 0
157 177 0
146 165 0
150 170 0
154 173 0
153 172 0
156 176 0
157 179 0
154 176 0
157 178 0
156 177 0
160 182 0
153 176 0
156 177 0
157 178 0
162 182 0
161 181 0
160 181 0
159 181 0
154 175 0
155 173 0
152 172 0
157 177 0
153 172 0
163 183 0
162 182 0
158 179 0
147 168 0
163 184 0
160 182 0
162 183 0
160 181 0
159 179 0
165 187 0
157 179 0
161 180 0
159 179 0
156 177 0
162 184 0
162 183 0
157 178 0
164 184 0
164 184 0
161 181 0
164 185 0
163 184 0
160 183 0
168 189 0
166 186 0
159 181 0
159 181 0
163 183 0
165 187 0
164 184 0
161 182 0
163 183 0
165 186 0
163 182 0
164 185 0
163 183 0
166 187 0
164 183 0
165 186 0
162 184 0
160 181 0
165 186 0
162 183 0
170 191 0
165 185 0
157 177 0
166 186 0
167 190 0
164 184 0
161 182 0
164 185 0
166 187 0
167 188 0
167 187 0
170 192 0
170 191 0
165 186 0
169 191 0
167 190 0
164 185 0
166 187 0
163 183 0
167 189 0
164 184 0
165 187 0
169 191 0
167 189 0
161 183 0
164 186 0
165 186 0
168 189 0
162 183 0
168 190 0
167 189 0
163 185 0
170 193 92
172 196 88
178 201 102
172 197 114
172 195 102
176 198 84
175 198 111
174 197 105
171 195 76
174 197 102
173 197 99
172 195 84
173 196 92
173 196 102
172 196 88
169 193 92
169 193 72
168 191 105
163 187 57
175 198 105
170 194 114
169 192 111
168 192 95
169 192 95
175 198 105
166 190 92
168 191 84
166 190 88
163 186 80
166 190 88
164 186 92
165 188 99
167 190 102
165 189 108
173 197 102
168 192 92
171 195 102
164 188 84
168 192 108
163 187 80
164 188 99
159 183 80
167 190 92
171 195 102
163 186 95
158 182 84
165 188 88
162 185 88
169 192 102
166 189 114
167 191 108
169 192 111
162 185 80
165 188 84
167 190 95
165 188 99
161 183 92
160 183 111
168 191 99
162 185 84
164 187 122
164 188 117
161 184 103
163 186 88
163 185 80
162 185 105
159 181 88
157 181 86
166 188 99
160 182 84
161 183 92
158 180 99
150 173 76
158 180 92
156 178 76
161 184 99
164 187 108
165 187 108
160 182 84
160 181 114
157 179 95
158 180 99
158 180 108
161 183 102
152 174 88
155 177 111
161 182 111
151 172 88
157 178 108
155 176 95
155 177 105
161 182 105
151 171 105
154 175 76
162 182 102
144 164 99
158 178 114
149 169 108
154 173 108
152 171 80
143 163 76
156 176 92
146 165 88
150 170 102
146 166 88
145 164 88
145 165 95
141 160 84
134 153 76
141 160 76
146 166 102
149 167 102
132 152 51
132 151 76
128 146 62
129 147 51
142 160 72
136 155 57
134 155 67
140 158 67
124 142 57
135 154 57
127 145 57
129 147 36
126 143 57
125 142 62
139 156 57
131 150 36
136 156 25
128 147 25
140 161 36
141 160 25
145 164 51
136 155 25
145 166 0
144 164 0
140 159 25
141 161 0
147 167 25
141 159 0
136 156 0
146 166 0
136 156 0
142 161 0
136 154 0
131 151 0
135 153 0
124 143 0
132 153 0
125 143 0
136 156 0
124 143 0
117 135 0
133 153 0
108 126 0
120 140 0
110 129 0
111 130 0
118 136 0
125 144 0
121 140 0
117 135 0
121 139 0
112 130 0
107 125 0
113 130 0
104 121 0
114 133 0
125 143 0
110 128 0
118 136 0
116 134 0
107 125 0
114 132 0
117 136 0
103 120 0
109 127 0
115 133 0
119 137 0
121 140 0
128 147 0
114 131 0
122 140 0
105 123 0
113 131 0
111 129 0
108 125 0
110 129 0
117 136 0
108 126 0
125 144 0
108 126 0
114 132 0
117 134 0
116 134 0
126 144 0
123 142 0
109 127 0
122 141 0
109 126 0
115 133 0
125 143 0
126 146 0
124 141 0
118 136 0
106 124 0
123 142 0
124 143 0
125 144 0
119 137 0
126 144 0
123 143 0
125 143 0
114 133 0
130 148 0
142 161 0
123 143 0
121 140 0
121 141 0
137 158 0
132 152 0
122 141 0
126 146 0
129 148 0
126 146 0
132 152 0
137 157 0
133 153 0
130 149 0
120 139 0
140 160 0
145 166 0
130 150 0
138 157 0
141 161 0
141 161 0
138 158 0
135 155 0
140 159 0
146 168 0
142 162 0
134 153 0
133 152 0
141 163 0
141 160 0
139 159 0
141 161 0
141 160 0
157 178 0
134 152 0
136 158 0
133 154 0
140 159 0
142 162 0
142 162 0
145 166 0
147 169 0
149 169 0
142 162 0
145 167 0
143 164 0
138 156 0
138 158 0
143 163 0
146 167 0
149 168 0
145 164 0
143 164 0
152 171 0
142 162 0
150 170 0
146 167 0
152 172 0
151 170 0
148 167 0
153 173 0
156 177 0
156 174 0
142 163 0
153 174 0
151 170 0
151 170 0
152 173 0
148 169 0
156 177 0
149 169 0
145 165 0
146 165 0
151 170 0
151 171 0
158 178 0
148 168 0
157 177 0
147 166 0
151 172 0
151 173 0
153 173 0
157 177 0
156 175 0
155 174 0
160 181 0
152 174 0
156 177 0
152 172 0
157 178 0
157 178 0
154 176 0
146 166 0
159 180 0
157 179 0
157 178 0
154 176 0
159 182 0
157 178 0
156 175 0
162 183 0
150 171 0
153 174 0
156 178 0
155 177 0
160 182 0
162 183 0
161 181 0
157 177 0
163 183 0
163 184 0
159 179 0
157 176 0
163 184 0
159 182 0
163 184 0
160 180 0
163 184 0
161 182 0
162 183 0
163 184 0
155 175 0
162 182 0
164 185 0
158 180 0
165 185 0
156 177 0
155 177 0
162 184 0
168 190 0
163 185 0
162 183 0
162 183 0
158 180 0
163 184 0
161 182 0
163 186 0
163 185 0
162 183 0
162 184 0
162 181 0
156 176 0
155 176 0
165 185 0
161 182 0
163 183 0
161 182 0
163 185 0
167 188 0
165 186 0
160 180 0
166 187 0
164 186 0
167 189 0
163 184 0
161 181 0
165 187 0
165 185 0
163 184 0
164 185 0
158 179 0
167 190 0
166 186 0
171 191 0
167 188 0
164 184 0
166 188 0
163 183 0
168 189 0
165 185 0
167 189 0
167 188 0
164 186 0
167 188 0
162 185 0
167 188 0
163 184 0
168 189 0
168 189 0
167 188 0
168 189 0
168 189 0
166 189 0
170 190 0
167 187 0
177 199 114
173 196 102
174 197 84
170 193 99
169 193 67
178 201 111
168 191 95
178 201 114
172 195 99
170 193 76
175 198 105
172 195 95
168 192 99
174 197 95
173 197 99
173 196 99
168 192 102
174 198 99
172 195 108
167 191 95
173 196 102
172 196 111
163 187 95
168 192 99
166 189 80
167 191 105
165 189 76
171 193 95
171 195 114
172 195 95
168 192 99
167 191 95
165 189 92
171 195 114
167 190 99
167 190 84
162 186 102
168 191 88
160 184 84
165 190 111
167 190 92
172 196 114
165 189 88
168 191 92
165 188 72
169 193 88
169 193 108
167 191 84
167 191 92
160 184 72
174 197 117
159 182 76
168 191 111
162 186 103
168 190 84
164 188 102
166 190 120
164 187 105
156 178 92
156 179 80
166 189 117
165 189 95
165 188 108
164 186 99
164 187 115
162 184 108
159 182 92
160 182 72
161 183 92
167 190 105
163 186 108
160 182 92
160 182 102
166 188 108
161 184 111
147 169 62
156 178 111
160 181 102
169 191 99
159 181 95
155 177 76
162 183 95
160 182 92
160 181 92
154 175 99
156 177 72
153 175 80
167 188 105
151 171 84
156 178 105
156 177 95
158 179 99
148 169 80
150 171 108
150 170 105
161 182 108
152 173 92
143 164 72
161 181 111
157 177 111
158 178 102
152 172 108
157 176 105
150 168 99
151 170 95
161 179 105
148 168 84
134 152 57
144 163 80
143 162 80
139 158 92
136 153 80
133 151 62
141 159 88
125 144 67
130 148 51
141 160 84
137 156 72
126 145 36
129 146 67
131 149 62
132 150 44
131 150 62
133 150 44
118 138 0
115 134 25
134 153 44
140 160 25
128 147 25
135 156 36
129 147 36
144 163 25
135 156 25
149 168 25
135 156 0
143 162 0
153 173 25
147 167 0
139 159 0
149 168 0
143 163 0
145 164 0
135 153 0
131 151 0
135 152 0
116 137 0
136 156 0
135 153 0
133 151 0
129 148 0
128 148 0
119 138 0
115 135 0
125 144 0
123 142 0
127 146 0
129 147 0
119 138 0
122 140 0
135 155 0
124 143 0
118 137 0
125 145 0
122 140 0
113 132 0
117 134 0
109 127 0
101 120 0
112 130 0
111 130 0
117 135 0
119 137 0
121 138 0
118 137 0
111 130 0
118 136 0
120 137 0
110 129 0
115 134 0
109 127 0
109 126 0
118 137 0
123 142 0
112 130 0
114 132 0
120 138 0
119 139 0
120 139 0
109 125 0
114 132 0
118 137 0
119 139 0
111 130 0
123 140 0
125 143 0
111 127 0
118 136 0
111 129 0
123 142 0
109 128 0
125 144 0
113 132 0
118 136 0
118 137 0
118 136 0
122 141 0
133 152 0
123 142 0
115 135 0
128 148 0
134 152 0
123 141 0
125 144 0
117 137 0
126 145 0
124 142 0
133 153 0
129 148 0
128 147 0
128 147 0
130 150 0
132 151 0
140 160 0
134 153 0
118 137 0
141 162 0
121 140 0
131 151 0
138 158 0
126 145 0
125 144 0
130 149 0
132 153 0
135 153 0
142 162 0
127 146 0
134 153 0
134 155 0
148 165 0
133 153 0
141 161 0
142 162 0
141 162 0
133 151 0
130 149 0
150 170 0
133 153 0
137 158 0
134 153 0
147 169 0
145 166 0
139 159 0
139 159 0
135 156 0
150 170 0
144 164 0
141 161 0
145 165 0
141 161 0
141 160 0
138 158 0
141 162 0
150 169 0
140 160 0
144 166 0
153 175 0
150 171 0
143 162 0
146 166 0
144 165 0
156 176 0
150 171 0
142 160 0
142 163 0
148 170 0
150 170 0
150 172 0
155 176 0
146 167 0
156 176 0
152 174 0
150 171 0
147 168 0
149 170 0
150 171 0
152 173 0
151 172 0
149 171 0
146 166 0
153 174 0
157 179 0
151 172 0
151 172 0
152 172 0
152 172 0
159 180 0
159 179 0
153 175 0
157 179 0
155 176 0
157 175 0
157 179 0
154 175 0
152 173 0
158 179 0
150 172 0
160 182 0
155 175 0
147 167 0
155 176 0
151 173 0
156 177 0
158 180 0
159 178 0
159 180 0
154 175 0
153 174 0
158 179 0
157 177 0
154 172 0
159 180 0
159 181 0
160 181 0
161 182 0
162 184 0
159 180 0
149 169 0
158 178 0
156 176 0
155 176 0
153 173 0
155 176 0
159 181 0
161 180 0
161 183 0
165 185 0
157 177 0
158 179 0
158 178 0
162 182 0
161 184 0
159 180 0
166 187 0
161 181 0
162 184 0
167 188 0
161 182 0
158 177 0
155 176 0
160 180 0
164 185 0
162 182 0
162 183 0
160 182 0
158 180 0
160 183 0
165 185 0
162 184 0
165 187 0
165 184 0
165 185 0
162 183 0
164 185 0
162 183 0
163 184 0
162 183 0
163 185 0
165 187 0
166 188 0
169 190 0
166 188 0
165 187 0
164 185 0
161 183 0
168 189 0
169 188 0
166 186 0
168 190 0
168 189 0
162 182 0
160 182 0
161 183 0
161 183 0
164 186 0
168 190 0
168 188 0
166 188 0
167 190 0
164 183 0
168 189 0
166 186 0
168 191 0
162 184 0
163 184 0
162 183 0
168 191 0
168 189 0
167 190 0
169 190 0
163 184 0
172 194 108
177 200 111
168 191 88
172 194 105
172 195 92
176 198 99
169 192 84
169 193 105
170 193 92
171 194 88
172 195 99
171 194 88
171 194 88
171 194 95
166 189 92
172 195 95
165 188 99
170 194 88
168 191 102
173 197 111
171 194 125
169 193 102
176 200 117
171 194 95
174 198 133
165 189 105
172 195 95
166 189 92
165 189 102
170 195 102
168 192 95
162 186 72
167 190 99
170 193 108
164 188 99
175 198 99
166 190 95
172 195 102
160 184 76
172 196 135
171 194 105
166 189 99
164 187 92
164 187 102
169 192 88
163 186 92
162 185 105
170 194 130
165 188 92
164 188 102
162 185 99
165 189 105
166 189 102
164 188 99
164 187 99
162 185 95
166 189 84
158 181 72
163 186 92
170 193 125
168 192 117
167 190 127
166 190 111
164 187 95
162 185 76
168 191 120
160 183 105
162 184 108
149 170 95
162 185 95
162 185 114
159 182 95
163 185 92
164 186 117
152 175 95
163 186 102
161 183 108
161 182 102
154 176 99
160 182 95
160 181 108
156 178 99
164 185 108
160 182 102
156 178 76
158 179 108
158 179 88
159 180 105
155 175 80
158 178 111
159 179 117
165 185 125
156 177 111
151 172 92
156 176 105
148 169 76
160 179 108
158 178 108
153 172 84
150 170 95
140 161 99
154 173 111
154 174 92
150 168 125
152 171 92
151 170 80
149 168 62
142 162 80
136 155 88
149 168 99
138 156 80
145 164 80
131 149 76
146 165 76
138 157 80
145 164 67
134 153 51
139 158 44
133 151 57
134 153 51
143 162 67
137 156 57
138 157 44
130 148 57
129 148 44
137 157 36
130 150 25
133 153 0
139 160 44
138 157 25
132 152 0
141 162 0
139 159 25
142 162 0
145 165 0
144 164 25
142 162 25
146 167 0
144 165 0
138 158 0
143 164 0
143 163 0
137 155 0
142 161 0
144 164 0
133 153 0
133 152 0
129 149 0
128 147 0
125 144 0
135 154 0
126 145 0
132 151 0
141 160 0
110 129 0
117 136 0
128 148 0
116 136 0
112 131 0
120 138 0
118 138 0
125 143 0
112 130 0
118 136 0
123 142 0
128 147 0
131 150 0
123 141 0
135 154 0
121 140 0
124 143 0
111 130 0
119 137 0
123 142 0
117 134 0
120 138 0
111 129 0
128 146 0
118 137 0
110 130 0
124 143 0
114 133 0
122 142 0
112 130 0
124 142 0
114 131 0
126 145 0
115 134 0
122 140 0
117 135 0
113 130 0
126 146 0
121 140 0
121 139 0
115 133 0
109 127 0
128 146 0
115 134 0
128 146 0
120 139 0
122 142 0
130 148 0
118 137 0
116 136 0
128 148 0
131 150 0
123 143 0
119 138 0
126 146 0
118 137 0
134 153 0
127 146 0
132 151 0
129 148 0
114 133 0
128 147 0
117 135 0
123 144 0
122 141 0
133 152 0
125 143 0
131 151 0
135 154 0
141 161 0
118 138 0
126 144 0
130 149 0
137 158 0
135 153 0
133 153 0
129 149 0
137 157 0
135 154 0
125 145 0
128 148 0
126 146 0
138 157 0
134 152 0
136 157 0
141 162 0
138 156 0
135 157 0
143 164 0
133 154 0
139 160 0
139 159 0
137 157 0
146 166 0
139 159 0
136 157 0
130 150 0
138 159 0
137 159 0
140 159 0
142 162 0
141 162 0
147 168 0
143 164 0
148 169 0
143 164 0
149 170 0
149 170 0
149 169 0
144 165 0
149 168 0
151 171 0
153 175 0
151 169 0
155 176 0
144 163 0
149 168 0
156 177 0
154 175 0
152 173 0
140 160 0
148 170 0
153 175 0
145 165 0
151 172 0
148 168 0
158 180 0
149 171 0
152 174 0
150 171 0
150 171 0
143 163 0
151 169 0
151 172 0
158 179 0
160 180 0
153 172 0
154 175 0
150 169 0
155 175 0
159 181 0
150 171 0
148 169 0
154 174 0
155 178 0
159 181 0
150 171 0
157 178 0
156 177 0
156 177 0
157 179 0
151 170 0
158 179 0
159 180 0
155 175 0
160 180 0
161 183 0
158 179 0
158 178 0
156 178 0
158 178 0
159 180 0
159 180 0
158 178 0
153 176 0
156 177 0
153 174 0
160 180 0
157 177 0
160 181 0
162 183 0
163 183 0
158 180 0
158 177 0
161 182 0
159 180 0
162 182 0
163 185 0
163 184 0
161 182 0
160 181 0
163 185 0
164 185 0
163 185 0
157 178 0
163 185 0
160 181 0
157 178 0
163 183 0
161 182 0
165 186 0
162 183 0
163 182 0
163 184 0
159 179 0
160 181 0
158 178 0
164 186 0
162 183 0
164 185 0
160 180 0
161 181 0
162 184 0
163 185 0
163 183 0
165 185 0
163 186 0
166 188 0
164 187 0
161 181 0
161 183 0
167 189 0
166 187 0
165 186 0
163 184 0
161 184 0
162 183 0
161 180 0
167 189 0
167 189 0
165 186 0
166 187 0
162 184 0
165 186 0
160 182 0
168 189 0
166 187 0
164 187 0
166 187 0
169 190 0
168 190 0
169 190 0
165 187 0
166 188 0
169 190 0
168 189 0
168 190 0
169 192 0
167 189 0
170 192 0
165 186 0
165 186 0
169 191 0
166 188 0
167 190 0
166 188 0
173 196 92
175 197 92
171 194 84
172 195 114
171 194 88
173 197 108
174 196 105
170 193 76
175 198 108
166 189 92
169 193 95
168 191 72
172 195 80
173 195 102
173 196 114
170 194 102
169 192 95
167 190 99
172 196 108
170 194 92
168 191 105
170 193 88
168 192 99
169 193 88
173 197 108
172 196 84
170 193 84
170 193 95
164 187 84
172 195 102
165 189 92
170 194 88
163 186 67
165 187 95
169 192 95
170 193 95
169 193 108
163 186 102
165 187 105
163 187 102
164 187 92
162 185 84
162 185 76
158 181 95
171 194 88
163 187 84
161 185 67
166 190 80
165 188 95
171 193 105
164 187 102
169 192 92
170 192 114
157 180 84
164 187 84
160 184 105
170 192 95
159 182 92
161 184 84
169 192 108
171 193 102
161 184 88
169 192 114
161 183 107
161 184 80
164 187 108
163 185 105
165 188 102
155 178 95
158 180 105
159 182 88
161 184 95
159 180 62
158 180 80
150 171 88
161 183 92
160 182 95
157 178 99
157 178 92
159 181 92
161 182 105
165 186 92
156 178 99
163 183 84
161 182 114
152 174 80
163 184 99
147 168 72
156 178 105
153 173 102
158 179 108
158 179 88
160 180 95
157 179 95
161 182 102
150 169 108
161 182 122
156 176 102
137 156 67
145 165 51
152 171 99
154 173 120
151 170 99
154 174 105
149 170 84
160 179 117
150 169 84
146 166 88
151 170 105
154 174 88
145 164 92
144 163 84
147 166 72
140 159 67
138 157 76
142 160 57
137 156 51
132 150 62
142 163 62
140 158 67
134 152 57
138 155 76
135 154 57
133 151 36
133 153 36
137 156 44
143 162 51
140 160 51
134 155 36
142 163 36
137 157 36
141 161 36
146 165 51
147 168 0
146 166 0
143 162 25
151 172 0
144 165 0
145 165 0
144 163 0
148 168 0
130 151 0
137 158 0
148 169 0
139 159 0
133 151 0
132 152 0
125 144 0
135 155 0
121 140 0
136 157 0
116 134 0
116 136 0
129 147 0
125 144 0
129 149 0
137 156 0
128 147 0
122 140 0
122 141 0
125 144 0
117 136 0
111 130 0
123 141 0
116 135 0
119 138 0
128 147 0
118 136 0
119 138 0
130 149 0
117 135 0
129 149 0
129 148 0
118 137 0
113 132 0
105 123 0
126 145 0
120 139 0
120 139 0
130 149 0
111 129 0
116 134 0
112 130 0
126 145 0
123 142 0
123 141 0
122 141 0
119 137 0
124 144 0
121 140 0
121 140 0
118 137 0
118 138 0
140 160 0
118 136 0
126 145 0
126 145 0
128 146 0
123 142 0
124 141 0
117 137 0
125 144 0
118 136 0
124 143 0
124 143 0
134 154 0
132 151 0
122 141 0
132 152 0
131 152 0
135 155 0
131 151 0
131 150 0
125 143 0
120 140 0
131 151 0
124 142 0
131 150 0
138 158 0
127 146 0
126 144 0
142 161 0
128 148 0
131 151 0
130 148 0
124 144 0
128 147 0
136 156 0
129 148 0
141 160 0
130 150 0
135 155 0
129 149 0
132 151 0
134 154 0
134 154 0
136 156 0
136 156 0
126 145 0
136 156 0
133 152 0
134 155 0
138 157 0
143 164 0
146 166 0
139 160 0
145 165 0
142 164 0
127 147 0
148 168 0
143 162 0
130 151 0
148 169 0
138 158 0
139 158 0
145 165 0
150 170 0
142 164 0
144 166 0
145 167 0
149 169 0
147 167 0
139 158 0
134 153 0
151 173 0
153 174 0
144 165 0
143 164 0
146 166 0
148 168 0
143 164 0
153 172 0
148 168 0
152 172 0
146 167 0
154 174 0
155 176 0
154 175 0
156 177 0
146 164 0
154 174 0
150 170 0
154 175 0
156 176 0
150 171 0
150 170 0
158 179 0
157 175 0
149 168 0
159 180 0
154 174 0
154 174 0
143 165 0
152 172 0
151 171 0
155 176 0
162 183 0
152 174 0
154 176 0
154 175 0
161 184 0
160 183 0
153 174 0
149 169 0
154 175 0
159 179 0
156 178 0
153 174 0
156 177 0
154 175 0
159 180 0
158 179 0
163 184 0
161 183 0
160 181 0
156 177 0
156 177 0
154 177 0
157 177 0
157 178 0
156 175 0
159 181 0
158 180 0
158 180 0
159 179 0
163 185 0
162 184 0
162 183 0
162 183 0
164 184 0
163 186 0
158 181 0
161 181 0
160 181 0
155 178 0
162 182 0
164 184 0
162 182 0
160 182 0
163 187 0
162 184 0
161 182 0
160 182 0
164 186 0
165 186 0
165 186 0
166 188 0
161 182 0
163 183 0
165 186 0
163 184 0
166 186 0
168 190 0
161 181 0
166 186 0
163 184 0
159 179 0
167 187 0
164 186 0
159 177 0
168 189 0
167 188 0
166 188 0
164 185 0
162 181 0
164 185 0
170 192 0
164 185 0
162 183 0
168 188 0
164 186 0
169 189 0
166 187 0
165 186 0
163 185 0
165 186 0
163 184 0
163 186 0
166 186 0
166 189 0
163 184 0
161 180 0
165 187 0
158 181 0
166 189 0
166 188 0
167 188 0
162 184 0
164 184 0
170 193 0
162 183 0
163 184 0
165 186 0
167 189 0
163 184 0
170 191 0
168 189 0
168 191 0
163 186 0
164 186 0
179 201 105
174 197 95
173 197 88
174 197 92
174 197 102
175 198 88
173 196 84
171 194 88
172 196 114
175 199 102
171 194 92
168 192 84
172 195 95
170 193 88
166 189 99
166 189 99
174 197 108
174 197 99
164 187 84
168 191 92
163 186 80
169 192 57
166 189 84
172 195 95
170 193 95
174 198 102
165 188 92
166 188 95
164 188 88
168 192 105
170 193 72
166 189 95
164 188 84
166 189 76
169 192 108
163 186 95
166 189 95
167 191 108
160 184 84
169 192 95
164 187 84
165 188 95
168 191 117
164 187 88
166 189 92
166 190 92
164 187 108
166 189 95
166 188 99
160 183 80
167 189 84
167 189 84
165 189 114
159 182 99
164 188 127
159 182 76
164 187 88
164 186 92
162 185 95
167 190 108
155 178 95
159 182 92
165 187 114
166 189 126
157 181 84
159 183 80
160 183 92
158 180 84
167 189 99
160 182 88
164 185 80
165 188 125
166 188 108
162 185 111
157 178 88
159 182 117
159 181 80
159 181 120
161 183 80
160 182 95
159 181 102
162 184 105
159 180 102
165 186 76
149 170 67
148 169 95
160 181 95
158 179 108
159 180 102
162 183 84
164 185 102
156 177 102
159 180 102
159 179 92
156 177 108
158 178 105
148 168 99
162 181 111
152 172 84
150 170 84
151 171 105
152 171 105
154 173 108
152 172 99
157 177 99
147 167 88
150 169 114
145 164 80
149 170 95
147 166 84
151 170 92
150 170 84
148 166 92
151 170 88
145 164 80
153 171 99
142 161 72
146 165 72
139 157 57
140 159 72
138 157 51
137 157 36
115 134 36
131 149 44
140 162 44
141 161 25
131 151 0
141 161 25
126 145 36
143 164 0
135 154 0
147 168 25
151 172 0
138 159 0
157 177 25
142 162 0
147 168 0
142 162 0
150 171 0
141 162 0
142 162 0
147 166 0
133 152 0
142 163 0
131 150 0
143 164 0
132 153 0
128 146 0
142 162 0
138 157 0
126 146 0
138 158 0
136 155 0
118 137 0
143 161 0
122 143 0
133 152 0
132 151 0
119 138 0
130 150 0
124 143 0
124 144 0
113 132 0
119 137 0
110 129 0
117 136 0
108 127 0
123 141 0
123 142 0
115 134 0
124 142 0
115 134 0
123 141 0
124 143 0
123 143 0
121 141 0
123 142 0
117 136 0
117 135 0
127 147 0
122 142 0
130 150 0
129 148 0
121 140 0
116 135 0
102 119 0
121 140 0
118 138 0
114 132 0
130 148 0
124 143 0
119 138 0
117 136 0
129 149 0
122 142 0
126 146 0
125 144 0
127 146 0
129 148 0
116 134 0
128 147 0
121 140 0
129 150 0
121 140 0
135 153 0
123 142 0
130 149 0
126 145 0
126 145 0
132 151 0
113 133 0
130 150 0
124 142 0
134 155 0
130 151 0
123 143 0
133 154 0
133 153 0
139 159 0
137 157 0
131 151 0
125 147 0
133 152 0
129 148 0
128 148 0
140 158 0
132 151 0
125 146 0
144 164 0
129 149 0
139 158 0
131 150 0
136 156 0
137 157 0
144 165 0
130 151 0
142 161 0
129 149 0
139 159 0
134 154 0
133 153 0
146 167 0
141 161 0
139 160 0
135 155 0
144 165 0
140 160 0
142 164 0
141 160 0
146 167 0
143 165 0
144 165 0
146 166 0
139 158 0
142 164 0
143 163 0
141 164 0
153 173 0
151 170 0
145 166 0
147 167 0
149 168 0
138 159 0
146 166 0
140 161 0
145 166 0
150 171 0
142 162 0
153 174 0
153 175 0
153 174 0
149 169 0
148 169 0
148 170 0
155 176 0
156 178 0
151 174 0
146 166 0
153 174 0
150 171 0
149 169 0
148 168 0
159 180 0
149 170 0
150 171 0
154 174 0
155 176 0
148 169 0
156 177 0
157 177 0
156 177 0
155 176 0
156 177 0
152 171 0
153 174 0
157 176 0
155 175 0
158 180 0
156 177 0
158 180 0
152 173 0
158 180 0
158 178 0
157 178 0
156 177 0
160 179 0
163 185 0
146 168 0
152 172 0
163 182 0
159 180 0
162 185 0
158 180 0
162 184 0
158 179 0
155 175 0
154 176 0
154 175 0
160 182 0
164 185 0
161 182 0
158 180 0
164 187 0
163 185 0
164 185 0
155 175 0
156 175 0
159 180 0
152 175 0
160 182 0
161 182 0
165 186 0
160 181 0
160 181 0
163 184 0
163 185 0
162 184 0
162 183 0
164 185 0
163 184 0
165 187 0
164 186 0
166 188 0
162 183 0
166 188 0
161 182 0
162 183 0
161 182 0
162 182 0
156 175 0
166 187 0
166 187 0
164 186 0
162 182 0
162 184 0
165 185 0
161 183 0
166 187 0
167 188 0
165 186 0
164 186 0
160 180 0
166 189 0
165 187 0
164 185 0
167 188 0
162 185 0
165 186 0
163 185 0
163 185 0
164 187 0
169 189 0
165 187 0
161 182 0
167 189 0
166 188 0
165 186 0
166 187 0
168 190 0
167 188 0
167 187 0
165 187 0
165 186 0
167 188 0
168 188 0
167 190 0
165 188 0
165 187 0
168 188 0
167 189 0
166 187 0
165 188 0
167 189 0
170 192 0
168 190 0
170 192 0
168 188 0
165 187 0
170 193 0
168 191 0
176 200 102
176 199 99
174 198 102
172 194 92
172 195 88
176 200 111
176 199 130
174 196 105
176 199 95
175 198 122
174 197 95
171 193 84
169 193 84
169 193 99
170 194 108
169 193 80
171 195 88
170 194 105
169 193 88
173 197 102
173 196 99
170 193 108
175 199 80
171 194 102
170 193 102
169 192 102
176 199 114
168 192 108
161 184 76
168 190 99
167 191 84
173 196 88
161 184 67
163 186 72
165 187 88
166 188 80
167 190 95
165 188 95
165 189 95
170 192 105
168 191 95
169 193 95
162 186 92
170 193 108
168 191 80
160 183 88
165 188 95
166 190 102
164 186 88
159 183 95
165 188 88
160 183 84
160 183 99
167 190 95
168 192 111
159 182 88
168 191 108
164 186 99
162 185 88
162 185 92
163 186 102
161 184 111
165 188 105
170 192 108
163 185 62
166 189 102
165 187 80
164 186 99
157 179 95
161 183 105
157 179 92
162 183 92
166 189 92
162 184 117
161 183 105
157 179 99
154 176 99
162 184 108
160 181 120
157 179 95
164 185 105
152 172 92
156 178 95
156 178 108
160 181 92
164 185 105
148 169 102
162 184 108
159 180 108
155 176 88
156 176 102
153 174 95
156 176 114
153 174 102
151 171 95
152 172 105
149 170 99
153 174 80
159 180 114
153 174 88
154 174 102
156 175 111
159 178 108
148 169 80
140 160 76
157 177 111
142 162 76
153 172 76
154 174 102
142 161 88
146 165 95
137 156 80
145 164 80
141 159 80
139 159 67
140 160 57
147 166 88
141 160 57
145 165 67
144 162 72
144 163 67
140 160 25
131 151 51
138 158 25
140 160 51
139 158 36
141 160 67
147 166 0
134 153 44
152 173 51
144 165 0
134 155 0
148 169 36
149 171 25
148 170 0
151 171 25
142 162 0
143 164 0
146 166 0
147 167 0
148 169 0
131 151 0
149 170 0
136 158 0
140 161 0
139 159 0
146 166 0
129 148 0
148 168 0
137 156 0
121 140 0
123 143 0
135 153 0
136 155 0
118 137 0
128 147 0
117 136 0
124 142 0
121 142 0
120 139 0
132 152 0
128 148 0
122 141 0
133 152 0
120 139 0
127 146 0
122 140 0
115 134 0
126 144 0
124 144 0
120 138 0
120 138 0
118 138 0
128 148 0
129 149 0
130 149 0
119 138 0
136 155 0
128 148 0
122 142 0
125 143 0
124 143 0
113 132 0
118 136 0
118 137 0
120 139 0
122 140 0
109 127 0
125 144 0
117 136 0
127 147 0
131 151 0
120 140 0
129 149 0
118 139 0
122 140 0
124 143 0
131 150 0
126 142 0
120 138 0
131 151 0
119 136 0
127 145 0
118 137 0
131 150 0
130 150 0
126 145 0
130 149 0
124 143 0
133 152 0
131 150 0
135 154 0
137 157 0
136 155 0
130 151 0
134 154 0
130 149 0
131 153 0
128 146 0
131 150 0
130 149 0
138 157 0
126 144 0
139 159 0
134 153 0
135 156 0
124 145 0
134 153 0
137 156 0
134 154 0
129 148 0
133 153 0
135 156 0
140 160 0
140 161 0
134 155 0
140 158 0
137 158 0
139 158 0
146 166 0
146 166 0
142 163 0
136 157 0
135 155 0
140 160 0
136 157 0
137 157 0
144 165 0
151 171 0
143 164 0
147 168 0
148 169 0
150 171 0
148 168 0
148 170 0
147 167 0
137 157 0
148 169 0
146 166 0
152 173 0
142 163 0
143 164 0
142 162 0
146 166 0
153 173 0
151 173 0
145 165 0
152 173 0
146 167 0
146 165 0
150 171 0
142 162 0
147 167 0
154 174 0
142 163 0
155 177 0
153 174 0
153 173 0
147 168 0
149 171 0
153 175 0
146 167 0
151 171 0
151 172 0
160 182 0
153 173 0
152 174 0
149 170 0
146 167 0
152 174 0
157 178 0
152 174 0
151 172 0
163 185 0
158 179 0
155 175 0
156 174 0
155 175 0
162 183 0
155 175 0
154 175 0
151 172 0
160 180 0
151 170 0
158 179 0
162 182 0
157 180 0
159 179 0
159 181 0
163 183 0
160 180 0
159 179 0
152 172 0
162 185 0
156 178 0
156 175 0
157 177 0
160 181 0
155 175 0
162 183 0
155 176 0
160 181 0
158 179 0
164 185 0
162 183 0
162 184 0
165 187 0
160 181 0
159 179 0
164 185 0
157 180 0
158 179 0
162 183 0
160 182 0
162 183 0
157 179 0
159 180 0
162 184 0
158 180 0
161 182 0
161 183 0
161 182 0
161 180 0
158 178 0
164 186 0
161 181 0
165 188 0
166 188 0
161 183 0
165 184 0
162 185 0
159 181 0
163 183 0
164 186 0
164 186 0
161 184 0
164 186 0
164 184 0
159 179 0
159 181 0
163 184 0
159 181 0
158 180 0
160 181 0
166 189 0
163 184 0
166 187 0
167 188 0
157 178 0
163 182 0
165 186 0
162 184 0
169 189 0
169 190 0
165 187 0
163 185 0
164 184 0
162 182 0
168 189 0
163 185 0
166 188 0
166 188 0
162 185 0
168 191 0
164 186 0
164 186 0
163 184 0
162 184 0
169 191 0
168 191 0
167 189 0
170 193 0
166 187 0
167 189 0
168 191 0
168 191 0
169 190 0
167 189 0
170 192 0
167 188 0
174 197 88
171 194 76
179 202 117
167 191 92
175 197 117
172 195 95
178 200 92
174 198 80
171 194 80
173 197 111
173 196 99
170 193 114
172 196 99
171 194 108
170 192 88
173 196 95
174 197 105
178 202 122
169 192 92
164 187 114
171 194 102
167 190 84
173 196 102
166 190 92
170 193 117
172 196 92
171 194 102
171 195 105
171 194 88
165 188 99
172 195 105
169 192 88
167 190 102
167 190 99
161 184 92
164 188 92
167 190 108
165 188 95
161 183 95
166 189 108
167 190 114
166 189 95
165 188 76
163 186 84
163 186 72
163 186 72
163 186 80
161 184 88
163 186 88
169 191 102
163 186 72
170 193 105
167 190 95
166 188 76
166 189 102
165 187 95
170 193 95
163 187 108
164 187 99
150 174 99
167 190 92
164 187 84
163 186 92
167 189 111
158 180 84
161 184 114
169 191 105
161 184 99
157 180 108
157 179 88
166 188 105
164 186 108
167 189 92
154 177 84
163 186 76
159 181 108
154 176 76
165 187 99
156 178 92
156 178 92
160 181 105
157 179 95
159 181 105
156 178 92
155 177 92
159 181 80
158 179 88
157 178 105
154 176 99
155 176 95
154 174 76
162 183 108
152 174 88
167 187 102
161 182 117
158 178 99
160 180 105
156 176 108
147 167 80
152 173 99
148 169 62
155 175 80
160 180 102
149 170 72
153 172 105
149 168 102
148 167 84
153 172 105
146 166 76
146 165 84
152 172 80
149 168 80
145 166 72
137 157 44
149 169 84
147 165 57
148 168 72
141 160 62
140 159 36
135 154 44
139 160 36
140 160 44
137 158 57
129 150 36
137 158 25
146 166 44
149 171 25
131 151 25
146 164 36
145 165 25
144 166 0
147 166 0
155 176 25
154 174 0
152 173 25
145 165 0
143 164 0
146 168 0
147 168 0
149 170 0
141 160 0
147 169 0
136 156 0
138 159 0
147 168 0
140 160 0
131 152 0
143 163 0
136 156 0
133 152 0
133 153 0
127 146 0
128 148 0
125 145 0
143 163 0
137 157 0
124 144 0
136 157 0
121 141 0
120 140 0
129 148 0
121 141 0
118 137 0
121 140 0
129 148 0
111 132 0
124 143 0
138 158 0
125 145 0
117 136 0
123 142 0
117 136 0
133 151 0
117 137 0
127 146 0
120 140 0
116 134 0
136 156 0
123 142 0
134 152 0
122 140 0
134 154 0
126 145 0
116 135 0
116 134 0
117 136 0
123 143 0
125 145 0
122 141 0
125 144 0
117 135 0
130 148 0
120 139 0
122 141 0
120 139 0
126 146 0
115 135 0
113 133 0
129 148 0
118 137 0
126 144 0
132 152 0
131 152 0
124 142 0
127 146 0
131 149 0
129 149 0
137 156 0
127 149 0
125 144 0
126 146 0
128 146 0
132 151 0
133 152 0
125 145 0
132 152 0
127 146 0
138 158 0
134 154 0
132 152 0
128 147 0
143 164 0
139 158 0
132 151 0
132 152 0
129 149 0
141 161 0
137 156 0
135 154 0
127 148 0
137 157 0
138 159 0
131 150 0
137 156 0
126 146 0
144 164 0
138 159 0
132 152 0
135 156 0
142 160 0
142 163 0
142 163 0
141 161 0
143 163 0
147 169 0
137 155 0
144 164 0
145 166 0
141 161 0
143 163 0
142 162 0
144 164 0
133 153 0
145 164 0
144 165 0
142 162 0
142 162 0
160 182 0
144 165 0
143 164 0
153 173 0
139 159 0
145 167 0
154 176 0
146 167 0
146 167 0
146 167 0
154 175 0
150 170 0
152 173 0
144 165 0
149 171 0
151 172 0
143 164 0
147 167 0
153 173 0
154 173 0
154 176 0
146 167 0
147 166 0
146 167 0
151 173 0
151 172 0
153 173 0
158 178 0
156 177 0
155 174 0
150 172 0
152 173 0
156 178 0
155 177 0
151 172 0
162 184 0
154 175 0
152 173 0
162 184 0
155 176 0
157 178 0
153 174 0
156 177 0
153 174 0
159 181 0
156 177 0
158 179 0
159 180 0
161 183 0
156 177 0
161 182 0
164 185 0
154 172 0
155 176 0
155 175 0
159 180 0
163 185 0
154 175 0
155 177 0
160 181 0
157 177 0
153 176 0
157 179 0
161 182 0
164 186 0
161 182 0
157 177 0
162 182 0
164 185 0
156 178 0
162 184 0
159 179 0
157 178 0
163 183 0
162 184 0
166 188 0
160 183 0
161 181 0
161 184 0
160 180 0
157 178 0
163 184 0
156 178 0
162 183 0
157 178 0
162 183 0
160 182 0
160 180 0
163 185 0
161 182 0
159 180 0
161 183 0
166 187 0
160 181 0
162 183 0
162 183 0
162 183 0
164 186 0
164 185 0
166 187 0
158 179 0
162 183 0
165 187 0
162 182 0
163 184 0
168 187 0
166 189 0
167 188 0
161 183 0
163 185 0
167 188 0
168 189 0
164 186 0
165 188 0
165 186 0
167 188 0
163 184 0
162 182 0
164 186 0
165 188 0
164 184 0
167 189 0
163 185 0
165 186 0
169 192 0
165 188 0
165 186 0
158 177 0
165 186 0
166 187 0
166 188 0
168 189 0
169 190 0
168 190 0
169 189 0
165 186 0
164 186 0
167 189 0
165 186 0
163 184 0
168 190 0
165 186 0
169 191 0
174 196 117
171 195 99
176 199 88
178 201 105
171 194 92
174 197 108
173 196 99
170 193 76
170 193 95
174 197 102
174 197 108
171 194 111
168 191 88
164 187 76
167 191 95
170 194 80
171 194 95
175 199 95
167 190 88
163 186 88
166 189 76
163 186 76
173 197 102
167 190 88
171 194 92
172 196 95
172 195 84
165 188 95
165 188 80
172 195 92
165 189 84
165 188 88
167 191 84
164 186 88
163 186 84
170 193 114
170 193 99
169 193 114
168 191 88
167 191 92
167 191 95
166 189 95
170 193 99
170 193 76
165 188 95
166 189 92
165 189 84
167 190 105
165 187 84
171 195 120
165 188 92
168 190 108
165 189 102
168 190 95
163 186 88
160 183 92
165 187 92
157 180 72
168 191 88
165 188 84
162 184 95
156 179 95
164 186 80
164 186 95
165 188 99
156 178 99
155 177 72
162 185 102
155 178 72
166 188 99
159 182 105
161 183 84
156 178 92
160 182 80
161 182 92
158 180 102
162 184 102
156 177 80
159 181 92
160 181 84
163 185 92
159 180 111
155 177 92
156 178 84
167 189 108
163 184 105
156 178 84
160 183 92
152 173 95
156 176 105
163 184 108
161 182 114
154 175 92
164 185 105
154 175 102
160 180 108
153 173 88
158 178 92
160 181 102
151 171 92
157 177 88
145 166 44
155 175 108
161 180 88
152 171 95
148 168 80
153 173 99
150 169 108
149 168 95
157 176 80
158 177 102
153 173 80
134 153 57
153 173 62
143 162 72
138 159 57
145 165 72
141 160 51
143 163 72
137 157 44
131 151 36
144 164 36
148 168 76
143 165 44
141 161 44
134 155 25
144 166 25
142 161 36
144 164 36
150 171 25
144 165 0
152 172 25
153 175 25
142 162 0
141 161 0
144 165 0
150 172 0
148 170 0
141 162 25
144 163 0
142 162 0
153 173 0
143 163 0
135 155 0
152 173 0
140 160 0
129 149 0
128 149 0
143 163 0
135 156 0
138 158 0
129 149 0
124 144 0
123 145 0
125 146 0
124 141 0
122 141 0
123 143 0
126 145 0
133 152 0
138 158 0
129 148 0
126 145 0
117 136 0
112 131 0
129 149 0
112 131 0
122 140 0
125 143 0
118 139 0
126 145 0
124 141 0
120 140 0
124 143 0
129 147 0
130 149 0
123 142 0
126 146 0
119 136 0
132 151 0
127 147 0
130 149 0
132 151 0
116 137 0
122 141 0
124 143 0
130 149 0
128 147 0
123 142 0
125 143 0
131 151 0
125 144 0
123 142 0
131 150 0
123 143 0
134 154 0
122 141 0
129 148 0
132 151 0
132 151 0
126 146 0
127 146 0
127 147 0
122 141 0
122 143 0
129 149 0
125 144 0
132 151 0
133 153 0
138 157 0
125 147 0
141 161 0
130 150 0
130 151 0
135 155 0
132 152 0
137 157 0
130 149 0
135 154 0
132 152 0
140 160 0
135 155 0
129 148 0
128 148 0
134 153 0
137 157 0
136 155 0
134 154 0
139 157 0
136 156 0
135 156 0
139 159 0
139 160 0
135 155 0
144 165 0
145 165 0
130 151 0
138 158 0
139 160 0
139 157 0
147 170 0
147 168 0
141 162 0
150 172 0
142 162 0
140 160 0
145 165 0
145 166 0
138 158 0
142 163 0
135 157 0
146 166 0
151 170 0
147 167 0
149 169 0
144 164 0
144 166 0
134 155 0
145 165 0
146 167 0
138 158 0
146 167 0
150 170 0
148 170 0
142 163 0
148 169 0
148 167 0
152 174 0
144 164 0
159 180 0
152 173 0
150 171 0
142 162 0
144 165 0
146 167 0
150 169 0
152 173 0
153 175 0
151 174 0
150 171 0
154 175 0
157 178 0
158 179 0
155 178 0
155 177 0
153 175 0
162 183 0
159 178 0
158 178 0
158 179 0
150 171 0
151 171 0
153 174 0
155 176 0
152 171 0
157 175 0
154 176 0
160 180 0
160 183 0
156 177 0
160 181 0
159 182 0
153 175 0
160 182 0
154 176 0
161 182 0
157 179 0
161 181 0
149 170 0
162 182 0
162 184 0
154 175 0
162 182 0
160 181 0
161 182 0
162 183 0
162 184 0
158 179 0
161 181 0
160 182 0
156 178 0
157 178 0
160 182 0
161 181 0
158 180 0
159 180 0
163 183 0
157 179 0
160 181 0
156 177 0
163 184 0
159 180 0
162 183 0
161 183 0
167 189 0
161 183 0
168 190 0
170 193 0
163 184 0
159 179 0
164 185 0
166 189 0
165 187 0
154 175 0
164 184 0
158 178 0
164 185 0
164 185 0
165 185 0
164 185 0
165 187 0
158 180 0
167 188 0
166 188 0
162 184 0
167 188 0
163 184 0
166 188 0
166 188 0
160 180 0
165 185 0
163 185 0
161 184 0
164 186 0
163 183 0
165 188 0
161 183 0
165 187 0
170 192 0
170 192 0
163 184 0
164 186 0
169 190 0
166 187 0
161 181 0
168 190 0
164 187 0
162 182 0
167 189 0
167 190 0
165 188 0
167 187 0
165 188 0
165 187 0
169 191 0
168 189 0
165 187 0
162 185 0
168 190 0
168 190 0
167 190 0
169 191 0
169 190 0
166 188 0
165 187 0
169 192 0
169 191 0
171 193 0
165 187 0
167 187 0
174 197 80
168 192 72
170 194 102
174 197 102
172 195 95
171 194 105
171 193 88
177 199 95
165 188 84
172 195 80
172 195 114
171 194 95
172 195 92
172 195 114
166 190 88
171 194 105
172 195 84
171 194 92
168 191 92
170 193 102
169 193 76
172 195 108
174 197 108
167 190 108
171 194 67
169 193 99
170 193 80
171 194 105
170 193 111
167 190 80
166 190 92
165 188 95
168 192 105
168 191 80
163 186 84
166 188 108
170 193 108
174 197 99
163 186 105
169 192 105
164 187 80
172 195 84
163 187 88
166 189 92
160 184 95
168 191 99
165 189 92
170 195 114
169 193 117
168 191 108
166 188 95
159 182 80
161 184 102
162 185 92
161 184 99
165 188 102
166 188 99
167 190 105
163 186 102
154 177 72
157 179 105
169 191 105
168 191 95
162 184 108
170 193 111
161 183 72
153 174 72
166 189 114
160 182 76
156 179 92
165 188 102
167 189 105
159 182 99
158 180 99
162 184 84
170 191 99
164 186 105
151 173 88
156 178 95
164 186 102
159 180 95
153 175 80
156 177 88
160 181 84
165 186 111
158 179 88
157 178 80
161 182 88
154 175 95
155 176 92
157 178 99
153 174 105
150 172 102
156 176 111
149 170 80
162 182 99
157 178 95
156 176 99
158 177 108
158 179 108
155 175 88
156 176 102
154 175 95
144 164 72
142 163 57
154 174 95
149 169 76
138 159 80
155 175 92
145 166 80
152 171 67
144 164 72
144 164 62
151 172 76
152 172 67
148 167 62
135 155 51
146 166 57
130 150 36
134 155 51
140 159 57
135 156 25
133 153 25
134 155 0
143 163 44
147 168 44
147 167 44
138 159 0
149 171 36
143 165 0
150 172 25
147 169 44
143 164 0
150 170 25
148 169 25
145 165 0
142 163 0
147 168 0
141 163 0
141 162 0
147 169 0
144 164 0
138 159 0
146 168 0
129 150 0
144 164 0
142 163 0
126 146 0
140 159 0
129 148 0
129 149 0
140 161 0
122 142 0
132 152 0
134 153 0
133 154 0
124 143 0
135 156 0
134 154 0
115 134 0
123 143 0
126 146 0
111 130 0
130 150 0
135 155 0
115 135 0
130 150 0
134 155 0
133 152 0
128 147 0
123 143 0
124 144 0
118 138 0
110 129 0
121 142 0
127 146 0
128 147 0
139 159 0
125 144 0
131 150 0
137 158 0
123 142 0
125 144 0
111 130 0
126 145 0
121 140 0
122 141 0
128 148 0
124 143 0
128 147 0
122 140 0
124 144 0
127 147 0
135 155 0
130 151 0
131 151 0
122 140 0
132 151 0
130 150 0
132 151 0
132 152 0
134 154 0
129 148 0
126 146 0
129 149 0
137 158 0
130 150 0
124 143 0
143 163 0
132 151 0
146 167 0
136 156 0
128 148 0
135 155 0
142 162 0
130 150 0
134 154 0
130 150 0
134 153 0
137 156 0
140 160 0
140 160 0
135 155 0
133 153 0
134 154 0
141 162 0
141 161 0
137 157 0
142 162 0
132 152 0
144 164 0
142 163 0
139 159 0
138 158 0
142 161 0
145 165 0
137 157 0
143 161 0
142 162 0
135 155 0
130 151 0
148 169 0
135 157 0
144 165 0
143 163 0
131 152 0
140 162 0
141 162 0
147 169 0
150 170 0
138 159 0
147 169 0
147 168 0
151 171 0
153 175 0
150 171 0
138 158 0
140 161 0
152 173 0
137 157 0
153 174 0
143 163 0
157 177 0
147 169 0
144 164 0
150 171 0
151 173 0
150 170 0
151 172 0
156 177 0
145 165 0
155 175 0
150 172 0
145 166 0
147 168 0
151 172 0
154 175 0
150 172 0
149 170 0
153 175 0
154 174 0
151 171 0
157 177 0
155 176 0
145 164 0
156 177 0
158 181 0
149 170 0
154 175 0
155 176 0
154 176 0
153 174 0
163 184 0
158 180 0
150 172 0
155 176 0
159 180 0
157 178 0
156 178 0
151 173 0
160 182 0
154 175 0
157 177 0
156 177 0
157 180 0
158 177 0
160 181 0
154 176 0
159 181 0
158 179 0
158 181 0
159 180 0
162 183 0
162 184 0
160 181 0
156 178 0
162 184 0
161 182 0
154 175 0
161 182 0
154 176 0
154 176 0
162 183 0
163 185 0
164 185 0
160 181 0
158 180 0
161 181 0
157 179 0
165 186 0
160 180 0
164 185 0
158 179 0
161 182 0
160 183 0
163 184 0
164 186 0
162 185 0
163 184 0
161 183 0
160 182 0
163 184 0
159 182 0
161 183 0
159 180 0
164 185 0
162 183 0
163 184 0
163 185 0
162 184 0
166 189 0
164 185 0
161 182 0
163 184 0
164 188 0
165 187 0
168 189 0
161 184 0
164 186 0
161 182 0
166 188 0
162 183 0
166 189 0
163 185 0
162 184 0
167 189 0
160 179 0
162 184 0
161 181 0
163 186 0
164 186 0
164 185 0
167 189 0
162 185 0
163 184 0
169 190 0
167 188 0
166 188 0
165 185 0
166 188 0
163 186 0
168 190 0
167 189 0
170 193 0
163 185 0
167 188 0
168 191 0
161 182 0
168 189 0
166 187 0
170 192 0
163 183 0
169 191 0
168 188 0
167 189 0
166 188 0
168 191 0
171 193 0
165 187 0
165 186 0
174 197 76
174 197 102
175 198 108
174 197 99
175 198 120
169 192 76
173 196 99
172 195 105
172 195 84
171 193 84
169 193 84
170 193 99
174 197 105
179 201 114
172 195 88
170 193 72
173 197 102
172 194 108
170 193 111
169 193 92
169 193 99
167 190 99
169 192 88
171 195 76
168 191 108
169 192 88
165 188 76
167 191 99
171 195 105
166 189 108
161 184 76
170 193 105
172 195 111
174 197 125
169 192 114
164 187 92
169 193 92
167 191 95
166 190 95
164 188 80
168 192 84
162 185 95
164 187 88
163 187 84
165 188 95
167 190 105
170 193 105
165 189 99
162 184 84
165 188 102
168 191 111
158 181 62
162 185 88
169 191 105
168 191 88
165 187 95
166 188 99
158 181 99
165 188 95
158 180 88
167 189 102
166 189 114
165 189 99
161 184 102
157 179 88
158 180 99
164 187 95
162 185 117
162 184 99
164 186 102
165 187 80
162 184 84
164 186 114
158 180 99
169 191 111
164 185 92
157 178 92
163 185 92
155 177 80
156 178 95
164 185 108
163 184 95
155 176 80
166 187 102
162 183 95
156 176 67
161 183 92
152 173 102
154 175 84
160 180 108
163 183 105
155 177 99
158 179 88
151 172 76
158 179 102
161 181 92
158 178 95
159 180 95
152 172 80
157 176 105
155 175 88
147 167 76
160 180 95
165 185 111
153 173 72
146 166 72
144 165 67
152 171 84
150 169 92
157 177 76
140 160 67
145 165 36
151 172 62
156 175 102
145 165 76
143 163 72
140 161 51
142 162 72
144 164 51
142 162 44
141 161 36
143 162 44
145 165 44
149 169 44
140 161 51
144 164 36
144 165 0
145 166 44
137 157 0
152 174 25
139 159 0
149 170 0
143 164 0
159 180 36
148 169 0
147 169 25
149 170 0
147 169 0
152 173 0
140 162 0
146 168 0
143 163 0
143 166 0
140 161 0
147 168 0
148 170 0
140 160 0
138 159 0
133 153 0
141 161 0
120 140 0
135 154 0
137 157 0
132 151 0
143 162 0
128 147 0
127 147 0
125 146 0
122 142 0
123 143 0
133 154 0
120 139 0
128 147 0
134 154 0
129 149 0
114 133 0
134 154 0
136 156 0
128 148 0
117 135 0
130 149 0
132 151 0
120 140 0
120 140 0
128 148 0
131 152 0
130 150 0
132 151 0
131 152 0
125 145 0
135 154 0
129 148 0
122 141 0
128 147 0
119 139 0
129 149 0
124 144 0
128 146 0
128 148 0
124 142 0
133 152 0
126 146 0
134 153 0
125 146 0
120 140 0
132 152 0
128 148 0
127 148 0
136 156 0
128 148 0
126 146 0
132 151 0
132 151 0
137 157 0
132 152 0
132 152 0
137 156 0
135 156 0
122 142 0
129 148 0
135 155 0
117 138 0
138 158 0
138 158 0
132 152 0
127 147 0
135 155 0
139 158 0
137 157 0
144 164 0
145 165 0
135 156 0
144 164 0
135 157 0
138 160 0
138 159 0
136 157 0
134 153 0
140 161 0
124 145 0
135 156 0
142 162 0
145 166 0
137 158 0
139 159 0
139 159 0
134 155 0
139 159 0
140 159 0
131 151 0
146 166 0
139 159 0
143 165 0
141 162 0
149 171 0
140 160 0
147 167 0
146 167 0
146 167 0
144 164 0
140 160 0
140 159 0
147 167 0
153 174 0
143 164 0
147 168 0
145 166 0
147 168 0
155 176 0
142 162 0
144 164 0
145 165 0
150 172 0
149 170 0
152 174 0
159 180 0
143 164 0
152 172 0
148 168 0
144 166 0
151 171 0
149 171 0
150 171 0
144 165 0
152 174 0
152 173 0
145 166 0
160 181 0
150 171 0
156 179 0
157 178 0
154 176 0
153 174 0
160 183 0
152 172 0
150 171 0
149 170 0
155 175 0
156 177 0
152 173 0
160 180 0
153 175 0
164 186 0
145 168 0
157 180 0
154 176 0
149 170 0
160 181 0
156 176 0
154 175 0
152 174 0
152 173 0
159 180 0
155 177 0
155 176 0
157 178 0
159 180 0
157 177 0
157 179 0
159 179 0
155 176 0
159 180 0
158 179 0
161 183 0
161 182 0
153 174 0
162 183 0
158 179 0
162 184 0
166 188 0
167 187 0
164 186 0
167 187 0
163 185 0
157 179 0
158 180 0
159 180 0
162 183 0
161 183 0
164 186 0
166 187 0
162 185 0
161 184 0
156 177 0
159 179 0
158 179 0
162 183 0
158 180 0
164 186 0
165 187 0
161 183 0
167 186 0
161 184 0
157 177 0
166 189 0
161 182 0
163 184 0
159 182 0
162 184 0
161 181 0
162 184 0
165 186 0
162 184 0
162 183 0
163 185 0
164 185 0
163 185 0
162 183 0
165 186 0
166 188 0
161 182 0
159 179 0
160 182 0
166 189 0
164 186 0
165 188 0
165 186 0
167 189 0
162 183 0
162 185 0
170 191 0
166 185 0
166 188 0
164 185 0
167 188 0
168 188 0
168 189 0
168 189 0
165 186 0
166 189 0
165 188 0
167 188 0
167 189 0
166 188 0
166 188 0
167 188 0
166 189 0
168 190 0
165 188 0
162 185 0
165 187 0
168 191 0
167 189 0
164 186 0
171 194 0
170 194 0
169 190 0
164 186 0
168 190 0
169 191 0
174 197 102
177 200 88
173 195 92
172 195 92
172 195 88
169 192 114
172 195 88
171 193 88
179 202 108
176 200 95
174 197 105
173 196 95
171 193 88
169 192 102
175 197 114
172 195 88
171 194 95
175 198 95
171 194 102
171 194 102
171 194 80
174 197 108
173 197 105
168 191 67
167 191 76
169 193 99
171 195 99
169 192 80
171 194 95
171 194 108
163 187 84
166 189 72
169 193 92
165 189 99
174 198 108
170 193 111
163 186 95
167 190 108
159 183 84
169 192 72
168 190 99
158 181 80
172 194 105
170 195 114
168 192 120
167 189 99
166 189 99
167 189 108
165 188 102
165 188 95
165 189 102
164 186 80
161 183 105
165 187 122
166 189 88
169 192 102
170 192 99
164 187 76
155 177 76
156 178 84
161 184 88
169 192 105
148 172 88
164 187 67
162 185 102
163 186 102
157 180 99
161 183 95
157 179 76
160 183 88
158 180 99
161 183 72
159 181 95
158 181 84
160 182 84
162 183 88
168 189 111
166 187 114
155 176 95
159 180 108
162 184 84
157 179 88
161 182 102
161 182 92
158 180 95
155 177 88
158 179 84
157 178 102
162 183 99
154 176 111
167 188 108
159 179 102
150 170 80
162 182 95
153 175 111
167 189 105
157 178 80
154 174 99
158 178 105
158 178 99
170 191 108
157 179 80
151 172 92
153 174 88
156 176 57
155 175 114
152 173 76
144 165 76
148 167 80
146 167 51
149 169 57
157 179 76
150 169 88
143 163 67
151 172 67
156 176 67
148 169 57
150 170 62
147 167 36
149 169 51
149 169 57
125 145 36
147 167 51
133 154 25
147 168 25
145 166 25
149 169 36
147 167 36
145 166 0
144 166 0
143 165 0
148 169 0
151 172 0
155 176 25
150 171 0
148 169 25
147 168 0
153 175 0
142 163 0
149 169 0
142 162 0
141 161 0
140 161 0
144 166 0
143 164 0
139 160 0
138 159 0
138 159 0
139 160 0
132 151 0
137 159 0
136 156 0
130 150 0
136 155 0
140 161 0
138 158 0
138 158 0
124 145 0
123 143 0
125 146 0
128 149 0
130 150 0
132 151 0
137 156 0
131 151 0
132 152 0
136 155 0
122 141 0
127 147 0
128 148 0
137 158 0
125 145 0
130 150 0
133 153 0
133 152 0
115 135 0
126 145 0
132 152 0
128 148 0
121 140 0
132 153 0
121 140 0
135 156 0
126 146 0
131 150 0
131 152 0
117 137 0
131 150 0
123 142 0
128 147 0
127 147 0
130 148 0
128 148 0
128 148 0
121 140 0
127 148 0
135 156 0
128 147 0
127 148 0
139 157 0
145 165 0
129 150 0
125 145 0
141 162 0
135 155 0
125 145 0
133 153 0
131 152 0
134 154 0
131 150 0
139 160 0
135 156 0
135 155 0
130 150 0
135 156 0
137 157 0
139 159 0
144 165 0
137 157 0
142 164 0
133 154 0
133 153 0
141 161 0
142 163 0
144 164 0
143 163 0
142 163 0
140 160 0
144 165 0
137 157 0
147 167 0
140 159 0
139 159 0
137 157 0
144 166 0
143 165 0
135 155 0
136 155 0
142 163 0
140 161 0
130 150 0
143 165 0
145 164 0
136 156 0
136 156 0
144 165 0
150 170 0
146 168 0
141 160 0
147 168 0
145 165 0
143 163 0
145 165 0
145 165 0
142 164 0
145 168 0
148 169 0
145 166 0
150 171 0
147 169 0
150 173 0
150 173 0
152 173 0
150 171 0
147 167 0
149 170 0
155 176 0
147 167 0
149 169 0
157 178 0
146 167 0
148 168 0
155 175 0
150 172 0
153 175 0
155 176 0
161 183 0
149 170 0
146 167 0
148 169 0
154 174 0
154 175 0
153 173 0
157 178 0
150 171 0
153 175 0
155 176 0
153 173 0
152 174 0
155 176 0
155 175 0
153 173 0
157 177 0
151 172 0
156 177 0
151 173 0
155 177 0
155 177 0
155 176 0
163 185 0
155 175 0
158 180 0
158 181 0
161 183 0
161 182 0
149 169 0
153 174 0
156 178 0
156 176 0
155 175 0
158 178 0
162 183 0
158 180 0
161 182 0
154 176 0
161 183 0
160 181 0
161 184 0
156 179 0
158 177 0
160 182 0
163 184 0
162 183 0
161 182 0
164 186 0
165 186 0
153 175 0
159 182 0
161 182 0
159 181 0
159 182 0
156 178 0
163 184 0
163 184 0
157 176 0
163 185 0
158 178 0
161 182 0
165 187 0
162 183 0
162 185 0
160 182 0
163 185 0
166 188 0
165 185 0
162 183 0
163 184 0
165 186 0
164 185 0
165 187 0
162 184 0
165 185 0
162 183 0
165 186 0
167 188 0
165 189 0
164 183 0
166 189 0
168 188 0
167 188 0
161 182 0
162 183 0
167 188 0
164 186 0
168 190 0
167 188 0
159 181 0
164 185 0
166 188 0
163 184 0
163 184 0
167 188 0
166 188 0
166 188 0
165 185 0
170 191 0
168 191 0
163 185 0
167 190 0
168 189 0
166 186 0
165 188 0
167 188 0
164 186 0
167 189 0
166 188 0
169 190 0
169 190 0
167 188 0
166 188 0
167 187 0
164 186 0
168 189 0
166 187 0
163 184 0
170 192 0
165 189 0
166 188 0
166 188 0
168 190 0
178 202 111
174 197 114
175 198 108
174 198 92
172 195 99
170 194 84
173 196 95
171 194 88
177 200 117
168 191 84
169 192 95
168 191 99
172 194 102
175 198 125
170 193 92
174 197 111
170 194 102
170 194 88
167 190 99
171 194 88
177 200 117
172 196 111
171 195 95
171 194 117
174 198 111
164 187 76
165 188 76
164 187 84
170 192 88
173 196 105
163 187 95
169 192 76
171 195 111
166 190 111
164 186 62
170 192 99
169 192 88
164 187 99
167 191 102
168 192 111
168 191 84
164 187 95
165 189 105
161 183 84
171 193 84
169 193 114
158 182 92
166 189 99
176 200 125
167 189 72
155 177 108
166 189 108
164 186 99
159 181 95
167 189 99
160 183 99
168 191 108
156 179 95
169 192 84
164 186 99
162 184 99
165 187 72
167 189 102
165 188 117
164 186 92
167 190 105
169 192 135
169 191 99
161 183 92
158 180 80
161 183 99
162 184 84
164 186 99
161 183 95
162 184 95
159 181 92
163 185 111
154 176 88
158 179 102
161 183 88
163 184 88
158 179 95
160 182 99
159 181 88
153 175 95
161 182 99
154 175 92
147 168 76
155 177 88
154 175 95
154 174 111
164 185 117
156 177 72
153 174 88
154 174 105
155 176 95
154 175 114
156 176 76
159 180 80
157 177 99
155 176 95
154 175 84
160 180 99
164 183 111
154 174 67
156 177 88
156 175 99
148 169 84
151 172 76
152 172 92
148 168 76
158 178 88
146 166 72
156 176 84
144 165 67
151 171 67
143 163 36
146 167 36
151 172 51
146 166 67
143 163 57
147 168 44
141 162 44
141 163 36
142 162 36
143 164 51
149 169 44
143 164 25
149 170 36
141 163 0
152 173 0
153 173 0
148 169 0
151 173 0
146 167 25
156 177 25
147 171 0
147 168 0
160 182 0
142 164 0
157 179 0
150 169 0
151 172 0
134 154 0
138 159 0
141 162 0
144 165 0
138 158 0
149 170 0
133 152 0
142 164 0
127 148 0
132 153 0
141 162 0
143 163 0
139 159 0
127 147 0
137 158 0
138 158 0
127 145 0
136 155 0
125 146 0
122 141 0
119 138 0
121 141 0
135 156 0
125 145 0
130 151 0
124 144 0
124 144 0
126 146 0
117 137 0
135 155 0
126 146 0
133 153 0
121 140 0
136 156 0
125 144 0
142 162 0
128 148 0
139 158 0
133 153 0
125 145 0
127 147 0
138 159 0
123 143 0
131 151 0
135 156 0
125 146 0
127 148 0
123 142 0
131 151 0
139 161 0
127 147 0
134 154 0
127 147 0
134 154 0
127 147 0
125 145 0
139 158 0
121 141 0
131 151 0
135 154 0
126 145 0
129 149 0
137 158 0
129 150 0
134 153 0
133 153 0
130 150 0
139 158 0
126 146 0
130 152 0
141 161 0
130 151 0
142 162 0
137 158 0
131 153 0
143 164 0
136 156 0
138 158 0
143 164 0
137 158 0
142 163 0
138 158 0
145 165 0
137 158 0
138 157 0
138 158 0
142 164 0
147 166 0
148 169 0
145 166 0
141 162 0
149 170 0
143 163 0
135 156 0
147 169 0
148 168 0
149 169 0
140 160 0
140 162 0
142 164 0
149 169 0
142 162 0
148 170 0
148 169 0
144 165 0
139 162 0
140 161 0
135 156 0
151 172 0
148 169 0
135 155 0
148 169 0
147 168 0
155 175 0
145 166 0
158 178 0
149 170 0
148 170 0
147 168 0
151 173 0
144 164 0
145 168 0
155 176 0
146 168 0
151 172 0
152 172 0
149 171 0
157 177 0
144 164 0
158 179 0
153 175 0
145 165 0
159 181 0
144 165 0
154 175 0
152 173 0
159 181 0
159 181 0
152 175 0
154 175 0
156 177 0
151 173 0
155 176 0
159 181 0
159 179 0
158 179 0
153 174 0
156 177 0
156 177 0
158 181 0
156 178 0
165 185 0
157 179 0
157 178 0
158 179 0
161 183 0
162 183 0
161 183 0
162 183 0
154 175 0
155 175 0
152 173 0
156 178 0
155 176 0
160 183 0
160 182 0
158 179 0
157 178 0
158 179 0
165 186 0
156 178 0
160 182 0
160 183 0
158 178 0
157 180 0
155 175 0
159 179 0
161 181 0
156 177 0
162 183 0
156 178 0
157 179 0
162 183 0
161 182 0
158 180 0
161 184 0
162 184 0
159 178 0
160 181 0
164 185 0
157 179 0
159 180 0
161 182 0
164 185 0
165 187 0
162 183 0
167 190 0
167 185 0
163 186 0
163 183 0
153 175 0
161 183 0
157 180 0
166 189 0
163 185 0
163 184 0
166 189 0
167 189 0
163 183 0
167 190 0
160 181 0
162 181 0
160 182 0
168 190 0
162 183 0
160 180 0
165 187 0
164 185 0
165 188 0
161 183 0
165 186 0
164 185 0
164 185 0
162 184 0
163 184 0
168 191 0
167 190 0
171 192 0
164 187 0
163 183 0
165 186 0
166 188 0
166 187 0
165 187 0
165 186 0
167 189 0
163 185 0
164 185 0
167 190 0
169 191 0
163 184 0
167 189 0
164 185 0
168 191 0
165 187 0
170 192 0
161 183 0
171 192 0
170 192 0
165 188 0
169 191 0
163 187 0
170 191 0
172 194 0
167 190 0
168 190 0
163 184 0
176 198 108
176 199 92
169 192 80
173 195 99
173 196 102
170 192 99
170 193 80
174 197 102
171 194 117
172 195 88
174 198 111
168 192 92
164 187 57
170 192 88
167 190 95
176 200 108
177 201 114
171 194 88
167 190 95
167 191 84
170 193 92
172 195 102
167 191 84
168 191 95
166 190 80
167 190 99
162 184 99
166 189 88
172 194 120
171 195 99
166 190 95
170 193 102
167 190 108
164 187 99
169 193 117
167 190 76
168 192 102
164 187 95
163 185 84
169 193 102
165 188 99
162 185 80
168 191 105
159 182 76
164 187 92
168 191 99
169 192 95
167 190 114
169 193 102
161 183 67
166 190 80
166 189 88
166 189 99
160 182 72
168 191 122
160 182 102
167 190 102
172 194 92
166 188 99
166 189 105
162 185 80
160 182 99
162 184 80
159 181 99
163 186 102
152 174 72
158 180 105
162 184 92
165 187 99
163 185 105
162 184 95
166 189 99
158 180 99
169 190 111
161 183 95
162 184 88
156 177 102
161 183 117
164 186 99
161 182 92
164 186 95
161 182 88
158 180 92
157 178 88
160 181 88
161 182 108
159 180 105
159 181 114
158 180 92
148 169 88
148 169 92
163 184 111
157 178 84
152 173 92
159 180 105
162 183 105
154 175 95
154 175 99
164 185 108
151 172 92
158 178 72
157 177 92
162 183 84
153 172 105
156 176 95
155 174 95
159 180 99
153 172 92
154 175 88
145 166 67
152 172 80
153 174 67
149 169 57
145 166 67
155 175 72
152 173 72
138 159 62
151 171 62
140 161 51
146 166 44
135 156 25
145 166 0
147 169 25
145 167 25
143 164 0
145 167 36
148 168 25
152 174 51
151 172 0
142 164 0
146 167 0
142 164 0
141 162 0
152 174 0
150 172 0
149 171 0
155 176 0
146 168 0
148 169 0
144 166 0
150 171 0
142 162 0
141 161 0
150 171 0
138 160 0
140 160 0
137 158 0
132 152 0
143 163 0
135 155 0
132 153 0
139 159 0
136 157 0
138 159 0
132 153 0
137 158 0
134 153 0
132 153 0
136 158 0
131 152 0
140 160 0
126 147 0
142 163 0
134 154 0
134 153 0
134 155 0
127 147 0
141 162 0
132 152 0
129 149 0
130 152 0
122 142 0
131 151 0
140 162 0
126 147 0
129 148 0
136 157 0
126 145 0
123 141 0
134 153 0
132 152 0
127 147 0
120 139 0
121 141 0
126 145 0
141 161 0
130 150 0
143 162 0
129 149 0
136 156 0
132 151 0
129 149 0
128 148 0
134 154 0
135 155 0
125 145 0
127 147 0
131 152 0
136 156 0
134 156 0
133 154 0
138 157 0
135 156 0
130 151 0
131 152 0
139 158 0
140 161 0
128 148 0
136 157 0
132 152 0
136 156 0
140 161 0
131 152 0
134 154 0
146 167 0
136 158 0
133 154 0
139 159 0
137 158 0
130 151 0
142 163 0
141 161 0
134 155 0
147 166 0
137 156 0
128 149 0
142 164 0
140 161 0
141 161 0
133 153 0
134 155 0
148 169 0
140 161 0
142 164 0
153 175 0
140 160 0
140 161 0
146 167 0
143 164 0
149 170 0
138 159 0
149 171 0
148 169 0
137 158 0
144 166 0
138 160 0
149 171 0
145 166 0
147 168 0
153 175 0
154 175 0
152 174 0
139 160 0
145 165 0
150 172 0
151 171 0
154 175 0
154 174 0
148 168 0
151 173 0
156 178 0
140 162 0
135 155 0
152 174 0
152 173 0
149 168 0
147 168 0
145 166 0
150 172 0
149 172 0
151 172 0
152 173 0
159 181 0
149 171 0
151 172 0
151 173 0
153 175 0
154 174 0
157 178 0
155 177 0
156 177 0
157 178 0
151 172 0
158 181 0
157 180 0
155 176 0
151 174 0
159 182 0
149 172 0
159 178 0
152 173 0
156 178 0
161 183 0
157 178 0
162 184 0
160 182 0
153 175 0
157 178 0
159 181 0
162 183 0
156 178 0
156 178 0
152 173 0
155 176 0
154 174 0
154 174 0
153 175 0
155 176 0
156 177 0
168 189 0
158 180 0
162 183 0
162 184 0
148 169 0
156 178 0
161 182 0
157 178 0
159 180 0
155 178 0
163 185 0
159 180 0
155 177 0
161 182 0
162 183 0
153 175 0
161 183 0
161 182 0
155 179 0
164 184 0
161 181 0
165 186 0
165 187 0
165 187 0
161 181 0
158 179 0
161 184 0
165 186 0
164 186 0
166 188 0
165 187 0
167 188 0
158 180 0
166 188 0
163 184 0
164 187 0
165 187 0
160 183 0
159 181 0
154 175 0
167 189 0
161 183 0
163 186 0
166 187 0
166 189 0
165 186 0
163 184 0
169 191 0
162 184 0
166 186 0
163 185 0
161 182 0
166 188 0
168 190 0
164 185 0
166 188 0
167 189 0
165 186 0
166 188 0
165 187 0
167 187 0
167 188 0
157 180 0
166 188 0
167 190 0
166 188 0
166 188 0
165 186 0
165 185 0
162 184 0
166 188 0
167 189 0
164 186 0
165 187 0
165 187 0
164 186 0
169 192 0
168 190 0
168 191 0
167 190 0
166 187 0
168 190 0
165 185 0
167 188 0
168 189 0
165 187 0
169 191 0
163 186 0
164 187 0
171 193 0
164 186 0
172 195 105
176 198 111
174 197 120
177 201 105
173 196 99
174 196 114
172 195 88
169 192 72
172 195 95
174 196 76
178 201 105
175 198 76
169 193 57
171 195 92
175 197 105
168 191 92
173 196 111
170 194 84
173 196 111
172 195 105
168 191 76
170 193 99
165 188 105
170 193 88
167 190 84
170 192 76
174 197 99
171 193 88
170 193 72
162 186 88
169 192 88
168 191 84
164 187 76
171 194 111
164 188 95
164 188 84
166 189 67
166 189 108
173 196 122
166 188 99
167 191 105
169 191 99
169 192 84
162 184 92
164 186 88
169 192 105
167 189 92
163 186 102
174 196 102
159 180 76
160 184 122
163 186 105
167 190 120
164 188 92
168 191 111
162 185 92
163 186 76
160 183 95
161 183 92
165 187 88
164 186 99
161 183 95
163 186 95
162 184 105
168 190 105
153 176 76
166 189 99
171 193 117
157 179 95
162 183 84
163 185 111
163 184 95
159 182 95
162 185 102
158 179 99
153 175 72
153 175 92
159 180 92
161 183 99
156 178 88
166 188 95
159 180 95
167 188 95
160 182 111
163 185 95
158 180 88
162 183 117
162 182 114
152 174 88
152 173 80
160 181 88
168 189 111
159 180 108
162 183 111
159 180 92
152 173 92
159 179 80
157 178 95
152 172 84
161 181 105
149 169 92
150 171 95
158 178 80
152 174 72
156 176 92
154 174 84
155 174 92
163 184 95
150 170 84
155 176 62
149 168 95
149 170 72
151 171 76
153 173 62
147 168 44
153 172 76
151 171 80
142 162 44
148 169 36
154 175 62
139 160 25
146 167 36
146 166 25
152 173 44
155 175 36
155 177 25
146 168 25
145 166 44
143 165 36
145 166 0
149 172 0
141 162 0
148 167 0
150 171 36
152 173 0
150 172 0
157 178 0
154 174 0
152 174 0
145 167 0
142 163 0
146 166 0
149 172 0
150 172 0
139 160 0
150 172 0
139 160 0
134 153 0
130 150 0
143 164 0
145 165 0
138 159 0
141 161 0
133 153 0
131 152 0
138 158 0
132 151 0
135 155 0
147 167 0
128 149 0
135 154 0
123 143 0
129 149 0
128 149 0
132 152 0
131 151 0
130 149 0
130 150 0
125 146 0
126 147 0
124 144 0
134 155 0
128 149 0
126 146 0
127 146 0
140 161 0
132 152 0
129 149 0
130 149 0
126 145 0
135 155 0
127 147 0
134 155 0
128 149 0
134 155 0
130 151 0
136 157 0
128 149 0
124 144 0
134 155 0
128 148 0
139 159 0
134 155 0
134 154 0
136 157 0
137 158 0
132 152 0
142 163 0
140 161 0
131 150 0
138 159 0
126 147 0
137 158 0
134 154 0
127 147 0
138 158 0
132 153 0
135 156 0
130 150 0
147 167 0
143 164 0
150 171 0
125 146 0
128 148 0
139 160 0
126 144 0
137 157 0
135 156 0
137 156 0
148 169 0
145 166 0
129 150 0
137 158 0
136 156 0
144 164 0
137 158 0
145 166 0
142 163 0
145 166 0
138 157 0
137 158 0
145 168 0
140 162 0
145 167 0
137 158 0
150 172 0
145 166 0
146 167 0
146 165 0
145 166 0
135 153 0
151 171 0
142 163 0
141 160 0
144 165 0
148 170 0
148 169 0
138 158 0
152 173 0
149 170 0
143 164 0
149 170 0
151 173 0
149 171 0
149 170 0
146 166 0
145 168 0
150 172 0
150 171 0
145 168 0
149 171 0
154 175 0
148 171 0
154 175 0
153 175 0
155 176 0
156 178 0
153 173 0
149 170 0
147 168 0
147 169 0
154 176 0
151 174 0
154 175 0
152 173 0
157 178 0
152 176 0
152 173 0
154 174 0
157 178 0
153 175 0
153 174 0
153 173 0
159 181 0
157 177 0
153 175 0
148 168 0
156 177 0
153 176 0
160 182 0
154 175 0
158 179 0
159 179 0
153 174 0
161 183 0
156 177 0
160 183 0
155 176 0
153 174 0
163 185 0
153 175 0
160 182 0
154 175 0
165 185 0
157 179 0
159 181 0
161 183 0
157 179 0
159 179 0
159 181 0
161 184 0
159 179 0
159 181 0
164 186 0
162 183 0
162 184 0
159 182 0
160 181 0
156 177 0
161 183 0
155 175 0
161 183 0
162 184 0
158 180 0
166 188 0
156 178 0
164 185 0
155 178 0
157 178 0
162 184 0
156 178 0
158 181 0
165 187 0
158 180 0
158 180 0
162 182 0
166 186 0
168 191 0
162 183 0
164 185 0
164 185 0
156 179 0
164 186 0
160 181 0
158 178 0
163 184 0
164 186 0
166 188 0
162 184 0
163 184 0
159 180 0
163 185 0
162 185 0
164 186 0
168 191 0
166 188 0
164 187 0
162 183 0
163 183 0
169 190 0
163 183 0
160 183 0
160 180 0
167 188 0
161 183 0
164 186 0
164 187 0
166 188 0
168 189 0
164 185 0
163 183 0
165 186 0
165 185 0
167 189 0
163 184 0
163 184 0
170 191 0
170 190 0
169 191 0
167 189 0
169 192 0
166 187 0
168 190 0
166 187 0
165 186 0
169 191 0
164 186 0
162 184 0
167 188 0
165 187 0
165 186 0
166 187 0
167 190 0
169 191 0
165 187 0
166 188 0
169 191 0
165 185 0
169 189 0
169 191 0
172 195 88
169 191 84
174 197 95
173 197 95
170 194 95
174 196 114
169 192 95
173 195 95
170 192 95
172 194 88
173 196 99
172 195 92
171 194 95
172 195 95
168 190 84
172 195 108
169 192 105
174 196 88
173 196 92
172 196 99
174 197 102
167 190 80
178 200 117
169 192 102
170 193 84
169 193 95
164 187 84
169 192 95
169 192 84
170 193 72
167 190 88
169 193 102
170 192 102
168 192 105
173 196 99
172 195 108
169 192 105
168 192 108
167 190 92
164 187 76
167 190 95
166 189 88
161 185 99
169 193 125
165 188 105
168 190 88
163 186 84
162 185 99
167 189 88
169 191 92
159 182 95
166 188 88
171 194 125
160 182 95
159 181 80
166 188 84
158 181 76
166 188 99
162 184 84
158 181 99
161 184 88
163 185 80
160 184 76
164 186 105
167 189 92
167 189 92
163 187 108
169 192 111
168 190 88
169 191 130
159 180 105
157 179 117
166 187 114
164 186 102
167 190 105
159 180 72
157 178 92
160 181 88
158 180 99
159 181 92
162 183 99
160 181 108
163 184 95
158 180 95
160 181 76
167 189 114
164 185 108
154 176 80
163 184 120
160 181 92
165 185 105
170 190 92
162 183 92
149 170 72
164 185 95
158 179 76
153 174 111
158 180 92
151 172 80
157 179 92
154 174 92
156 177 92
161 181 92
160 181 108
153 173 80
160 180 108
158 178 92
156 177 72
164 184 92
152 172 84
152 173 62
146 167 72
152 173 51
152 172 44
153 173 62
150 170 62
150 171 51
150 170 57
141 162 44
139 160 36
148 170 44
141 163 44
152 174 44
150 172 44
145 166 25
149 170 51
151 174 0
154 176 25
145 167 25
142 164 25
147 168 0
155 177 0
150 172 0
154 176 0
156 179 25
154 176 0
147 169 0
148 170 0
151 173 0
147 169 0
153 174 0
155 175 0
135 157 0
135 156 0
147 169 0
136 156 0
148 168 0
139 159 0
137 156 0
142 164 0
130 151 0
143 165 0
139 160 0
145 165 0
137 157 0
137 158 0
141 160 0
136 157 0
135 154 0
140 160 0
137 159 0
134 154 0
132 152 0
130 150 0
129 150 0
134 155 0
136 155 0
129 151 0
134 154 0
127 147 0
125 144 0
136 156 0
145 164 0
134 154 0
140 160 0
140 160 0
125 145 0
131 152 0
137 157 0
142 163 0
135 155 0
138 159 0
137 157 0
139 159 0
128 149 0
127 147 0
134 155 0
127 147 0
127 148 0
138 160 0
141 161 0
130 150 0
148 169 0
130 152 0
137 159 0
135 156 0
131 150 0
135 156 0
141 162 0
130 150 0
137 158 0
141 162 0
141 161 0
135 154 0
126 147 0
136 157 0
143 163 0
133 154 0
130 150 0
136 157 0
144 164 0
141 162 0
137 158 0
136 157 0
138 160 0
130 151 0
141 161 0
135 156 0
137 158 0
132 153 0
142 163 0
129 151 0
140 162 0
141 161 0
137 158 0
146 166 0
147 168 0
144 165 0
138 160 0
148 169 0
136 159 0
149 169 0
141 163 0
141 163 0
143 165 0
149 170 0
140 160 0
144 164 0
145 167 0
150 172 0
144 166 0
136 157 0
146 167 0
144 165 0
150 170 0
150 173 0
156 177 0
149 171 0
141 162 0
151 171 0
142 162 0
146 168 0
137 159 0
147 170 0
144 164 0
149 170 0
153 174 0
153 175 0
151 173 0
156 178 0
142 163 0
151 172 0
151 171 0
144 165 0
152 173 0
147 169 0
147 167 0
152 174 0
150 172 0
153 175 0
152 173 0
154 175 0
148 168 0
147 169 0
154 175 0
152 174 0
153 174 0
154 174 0
154 176 0
153 175 0
156 176 0
156 177 0
157 178 0
153 174 0
159 181 0
156 177 0
153 174 0
154 175 0
155 177 0
153 175 0
163 185 0
157 179 0
147 168 0
158 181 0
157 179 0
157 179 0
157 178 0
154 176 0
162 183 0
157 179 0
157 179 0
159 182 0
155 177 0
157 180 0
159 182 0
157 178 0
159 180 0
159 181 0
156 179 0
157 178 0
157 178 0
158 178 0
157 178 0
157 179 0
158 178 0
157 178 0
156 177 0
161 182 0
160 182 0
158 179 0
156 178 0
153 174 0
166 188 0
157 180 0
160 180 0
166 188 0
156 178 0
161 181 0
158 180 0
163 185 0
166 187 0
166 187 0
157 177 0
162 183 0
168 189 0
160 182 0
161 183 0
162 185 0
154 176 0
164 185 0
161 183 0
162 183 0
160 181 0
166 188 0
160 183 0
169 190 0
162 184 0
167 189 0
165 187 0
166 186 0
169 190 0
165 187 0
168 191 0
165 187 0
164 185 0
168 190 0
164 186 0
160 181 0
165 186 0
165 185 0
167 189 0
164 184 0
162 183 0
163 185 0
166 187 0
168 191 0
162 184 0
168 191 0
161 182 0
164 184 0
163 186 0
166 189 0
168 189 0
166 189 0
165 187 0
168 190 0
164 186 0
167 189 0
171 194 0
170 191 0
169 191 0
168 190 0
166 186 0
165 185 0
169 192 0
166 188 0
165 187 0
164 186 0
166 187 0
162 185 0
168 189 0
167 189 0
170 193 0
169 190 0
166 188 0
167 189 0
166 187 0
165 187 0
165 187 0
168 190 0
171 193 88
178 200 99
175 198 102
173 196 105
177 199 108
171 194 88
167 191 76
175 198 117
178 201 120
172 194 108
173 196 88
172 195 95
174 197 102
170 192 99
170 194 92
169 192 102
166 188 76
167 189 84
172 195 92
169 192 99
167 190 88
174 197 117
172 195 99
173 196 117
163 187 88
170 192 102
171 194 80
171 194 114
169 191 76
166 190 80
163 186 102
169 191 88
170 192 92
168 192 102
165 188 92
167 190 105
167 189 88
169 192 84
165 188 95
164 187 95
164 187 80
166 190 108
164 186 102
162 184 99
167 190 84
167 189 80
168 191 111
161 185 95
166 189 105
167 189 88
164 186 111
160 181 76
164 187 88
166 187 88
168 190 88
165 187 95
163 185 99
163 186 99
158 181 80
160 183 105
160 183 102
159 181 102
168 190 105
168 190 102
159 181 88
154 176 67
160 182 102
159 180 99
164 186 120
162 184 108
162 184 108
163 186 102
168 190 108
161 183 105
153 175 102
162 184 92
167 189 102
162 184 95
162 184 99
160 183 127
158 179 84
163 184 88
163 184 88
155 176 80
165 186 114
162 183 84
166 187 102
168 189 105
160 181 95
160 182 117
165 186 99
153 174 105
155 176 92
158 179 102
160 181 72
162 183 108
168 188 102
157 178 84
158 178 95
156 177 108
159 180 92
155 175 102
160 180 80
154 174 80
159 179 108
161 181 111
159 180 72
158 179 95
158 178 76
156 176 72
155 175 57
157 178 84
154 174 51
161 182 80
156 176 88
143 163 57
154 174 84
148 169 36
145 167 25
155 177 36
152 173 25
149 169 36
154 175 25
150 171 36
138 158 25
147 167 0
158 180 44
149 170 36
151 173 25
157 179 0
152 172 36
147 169 0
143 165 0
159 180 25
152 173 0
152 174 0
148 169 0
145 166 0
150 171 0
151 173 0
145 166 0
154 175 0
144 165 0
149 170 0
146 167 0
138 159 0
139 160 0
139 159 0
143 164 0
135 156 0
139 159 0
141 161 0
141 161 0
139 160 0
140 162 0
139 159 0
131 152 0
135 155 0
135 156 0
140 160 0
131 151 0
136 156 0
130 151 0
137 157 0
142 163 0
137 156 0
135 155 0
135 155 0
128 149 0
136 156 0
138 158 0
141 161 0
135 154 0
132 152 0
138 160 0
139 159 0
127 147 0
131 151 0
138 159 0
141 162 0
138 158 0
130 149 0
133 153 0
122 142 0
135 155 0
135 155 0
130 150 0
128 148 0
125 145 0
132 153 0
132 152 0
124 143 0
134 155 0
135 156 0
142 163 0
136 157 0
132 152 0
139 160 0
145 167 0
138 160 0
135 155 0
142 163 0
135 157 0
137 159 0
136 157 0
135 155 0
139 160 0
134 153 0
139 160 0
140 160 0
136 156 0
141 161 0
142 163 0
126 147 0
138 158 0
147 168 0
136 157 0
135 155 0
127 148 0
140 160 0
141 162 0
144 164 0
138 159 0
142 162 0
141 161 0
144 165 0
142 163 0
139 161 0
142 162 0
148 170 0
145 165 0
144 165 0
148 170 0
142 164 0
143 165 0
144 166 0
153 173 0
142 163 0
137 158 0
148 169 0
138 159 0
143 165 0
142 162 0
146 166 0
147 167 0
149 170 0
145 166 0
157 178 0
147 167 0
144 164 0
146 167 0
148 168 0
145 165 0
151 172 0
146 168 0
150 170 0
151 172 0
154 176 0
153 174 0
143 165 0
152 175 0
155 176 0
149 170 0
155 176 0
150 172 0
156 177 0
148 168 0
147 168 0
156 177 0
154 176 0
152 174 0
152 171 0
154 177 0
150 173 0
147 168 0
154 176 0
152 174 0
154 175 0
157 179 0
156 177 0
147 168 0
155 178 0
156 178 0
153 175 0
155 176 0
157 178 0
159 180 0
156 179 0
155 176 0
152 172 0
157 177 0
148 170 0
157 178 0
156 179 0
155 176 0
155 177 0
159 180 0
159 180 0
158 179 0
159 181 0
159 181 0
161 185 0
161 183 0
158 179 0
158 179 0
163 186 0
154 176 0
150 170 0
161 183 0
159 181 0
163 186 0
155 176 0
157 179 0
159 182 0
155 176 0
158 180 0
165 186 0
158 180 0
158 180 0
159 181 0
158 181 0
165 187 0
159 181 0
163 184 0
159 180 0
162 183 0
166 189 0
161 184 0
159 182 0
160 183 0
167 188 0
163 184 0
162 184 0
160 182 0
160 182 0
163 186 0
161 182 0
165 187 0
164 186 0
167 189 0
162 184 0
163 185 0
163 183 0
166 189 0
159 180 0
161 183 0
162 182 0
162 186 0
161 183 0
166 187 0
163 184 0
160 181 0
169 191 0
164 185 0
165 188 0
166 186 0
166 189 0
161 183 0
162 182 0
166 187 0
168 189 0
164 186 0
166 187 0
164 187 0
166 188 0
163 186 0
164 186 0
164 187 0
167 190 0
167 190 0
167 188 0
165 186 0
169 191 0
167 189 0
164 185 0
163 185 0
166 188 0
164 187 0
167 189 0
169 190 0
170 192 0
163 185 0
164 187 0
162 183 0
169 190 0
166 188 0
165 187 0
167 189 0
170 192 0
165 187 0
169 190 0
168 190 0
169 190 0
171 193 0
161 182 0
167 187 0
166 189 0
167 189 0
167 189 0
166 189 0
173 195 88
175 198 105
174 197 95
175 198 99
171 194 95
175 198 95
167 190 84
173 196 102
172 195 92
168 192 76
173 196 76
174 197 92
172 195 76
171 194 105
168 192 84
169 193 76
169 193 99
166 189 92
172 195 111
171 193 108
171 194 92
169 192 105
168 191 99
171 194 117
166 189 80
167 189 84
167 190 105
168 191 95
165 188 95
170 193 84
168 191 95
170 193 103
167 189 95
170 193 102
168 191 76
168 191 102
165 187 88
165 188 105
171 193 102
169 192 80
169 192 84
168 190 92
170 192 99
166 188 84
169 191 95
165 188 99
164 187 95
164 186 67
166 189 105
161 183 95
162 185 88
163 185 92
168 190 84
165 188 92
167 190 95
164 187 92
163 185 88
165 187 102
170 193 117
165 186 95
161 184 88
167 189 76
160 183 105
166 188 84
162 184 88
164 185 84
163 186 102
162 184 102
158 179 92
165 187 108
163 185 95
162 184 102
156 178 95
157 179 62
164 186 102
161 182 88
163 185 105
161 183 102
161 183 105
163 184 95
158 179 88
164 186 114
166 188 95
160 181 111
168 189 95
166 187 95
159 180 92
165 186 108
162 183 102
168 189 92
161 182 105
158 179 88
160 181 105
162 183 80
161 181 95
157 178 88
154 174 88
164 184 102
158 178 84
152 173 76
158 179 95
156 176 92
158 178 80
153 174 80
150 171 62
154 174 80
159 179 67
153 173 84
157 178 57
152 172 72
153 174 67
149 169 72
153 173 67
146 166 72
141 162 51
155 175 62
158 179 57
154 175 51
140 161 36
145 165 36
146 168 51
149 170 44
157 178 25
143 165 36
152 173 44
150 172 0
150 170 57
149 170 25
158 180 0
153 175 25
149 171 0
152 173 0
148 170 0
149 171 0
151 171 0
150 171 25
148 170 0
150 171 25
146 168 0
151 173 0
157 179 0
149 170 0
152 173 0
142 164 0
150 171 0
149 170 0
149 171 0
140 160 0
135 157 0
137 159 0
135 155 0
142 163 0
129 150 0
144 166 0
125 146 0
143 165 25
141 163 0
136 156 0
138 159 0
137 158 0
139 159 0
130 150 0
132 153 0
136 156 0
141 160 0
141 161 0
129 150 0
139 159 0
137 158 0
137 158 0
137 158 0
137 158 0
139 160 0
132 153 0
133 154 0
138 158 0
131 152 0
136 157 0
134 153 0
130 149 0
135 156 0
135 156 0
141 162 0
135 155 0
146 166 0
134 155 0
138 159 0
131 152 0
137 158 0
143 163 0
133 153 0
137 158 0
139 159 0
129 148 0
138 158 0
126 146 0
149 170 0
131 150 0
146 166 0
136 157 0
147 169 0
140 161 0
131 152 0
148 168 0
141 161 0
134 155 0
128 149 0
140 160 0
137 158 0
144 165 0
137 159 0
136 157 0
143 164 0
141 162 0
136 157 0
127 148 0
132 153 0
140 159 0
147 168 0
145 166 0
136 158 0
144 166 0
149 169 0
139 159 0
133 152 0
146 167 0
143 165 0
147 168 0
140 160 0
147 168 0
144 164 0
146 165 0
150 172 0
140 160 0
146 167 0
144 166 0
151 172 0
144 164 0
144 166 0
139 160 0
147 169 0
146 165 0
151 173 0
148 171 0
144 164 0
145 166 0
144 166 0
151 173 0
147 169 0
148 169 0
151 174 0
145 166 0
147 167 0
146 166 0
143 164 0
146 167 0
145 166 0
147 168 0
150 171 0
152 173 0
156 177 0
147 168 0
151 172 0
150 172 0
151 172 0
147 170 0
157 179 0
154 176 0
148 170 0
158 180 0
151 172 0
146 168 0
157 177 0
156 177 0
153 173 0
153 175 0
152 175 0
153 175 0
158 179 0
156 176 0
148 170 0
156 179 0
154 175 0
148 168 0
152 173 0
157 178 0
156 178 0
158 180 0
157 178 0
154 175 0
151 171 0
155 177 0
154 176 0
155 176 0
159 181 0
156 178 0
154 176 0
159 181 0
159 180 0
158 179 0
162 183 0
159 182 0
160 182 0
161 183 0
155 177 0
156 177 0
157 179 0
159 181 0
156 177 0
157 177 0
160 183 0
158 179 0
156 178 0
162 183 0
156 177 0
159 179 0
159 182 0
159 179 0
162 183 0
165 186 0
156 178 0
163 185 0
163 184 0
157 179 0
158 179 0
164 185 0
161 181 0
167 189 0
165 186 0
157 179 0
164 185 0
159 182 0
159 180 0
159 180 0
160 182 0
161 182 0
164 185 0
153 174 0
166 188 0
163 185 0
168 191 0
164 187 0
164 186 0
163 186 0
165 187 0
165 186 0
166 188 0
166 188 0
161 182 0
166 188 0
164 186 0
159 180 0
165 187 0
161 184 0
164 187 0
163 184 0
168 189 0
157 178 0
165 187 0
166 188 0
161 183 0
166 187 0
166 188 0
162 184 0
162 184 0
165 187 0
163 184 0
164 186 0
166 188 0
167 189 0
163 185 0
167 188 0
170 191 0
163 186 0
166 186 0
164 186 0
168 190 0
164 187 0
166 188 0
165 186 0
166 187 0
166 188 0
167 190 0
168 189 0
168 191 0
167 188 0
167 188 0
167 189 0
162 184 0
167 189 0
170 192 0
164 185 0
168 190 0
167 190 0
168 189 0
166 189 0
169 191 0
169 190 0
168 190 0
169 192 0
177 199 99
179 202 120
172 195 88
171 195 102
175 198 84
170 193 92
170 193 88
173 195 99
167 190 95
173 196 120
171 195 95
170 193 72
174 197 95
173 196 108
170 193 105
173 195 92
171 194 99
173 196 102
167 191 102
171 194 114
168 191 88
172 195 108
169 192 105
166 188 72
170 192 88
173 196 108
167 190 114
162 185 84
168 191 111
167 190 95
163 186 80
172 195 105
170 193 122
167 190 72
171 195 95
167 190 108
167 190 80
163 186 84
165 188 88
165 187 102
168 190 88
166 189 88
165 187 105
168 191 88
168 192 99
164 186 102
169 191 102
165 187 92
160 184 114
168 191 108
168 191 92
167 190 105
167 190 102
159 182 95
164 187 76
167 189 95
166 188 95
165 188 95
166 189 114
166 189 88
160 183 102
163 184 117
157 180 80
163 184 76
160 182 88
163 186 99
164 186 105
167 189 92
158 180 95
165 187 84
165 188 105
162 184 105
161 183 95
158 181 76
157 178 76
164 185 125
164 185 102
154 176 67
158 179 102
165 187 99
152 173 76
157 179 88
159 179 99
156 177 84
155 177 95
162 184 95
158 180 80
160 181 99
164 185 120
157 178 105
160 181 72
166 186 114
159 180 88
164 185 114
160 181 92
154 175 72
151 171 84
156 176 92
172 192 120
152 173 44
146 166 80
162 182 88
158 180 88
160 181 108
159 179 108
162 183 99
157 177 95
160 180 84
149 170 72
157 177 95
158 178 102
161 180 99
155 176 67
155 177 72
154 175 57
155 176 51
141 161 62
153 175 51
152 173 44
151 171 51
152 173 44
149 170 36
158 179 36
148 170 25
147 169 0
150 171 25
152 174 25
145 166 0
154 176 25
150 171 25
147 169 0
159 183 0
154 177 0
148 170 36
149 170 0
151 174 0
156 178 0
151 173 0
157 180 0
154 175 0
149 171 0
152 173 0
149 172 0
140 160 0
148 171 0
143 163 0
143 165 0
144 165 0
145 166 0
146 167 0
137 158 0
141 161 0
141 161 0
144 166 0
132 153 0
134 154 0
136 157 0
135 156 0
143 164 0
130 150 0
130 149 0
137 158 0
142 163 0
136 158 0
132 151 0
138 159 0
139 161 0
136 155 0
142 161 0
130 152 0
145 166 0
135 156 0
139 161 0
136 157 0
146 168 0
128 150 0
132 152 0
133 152 0
141 162 0
126 147 0
129 150 0
148 168 0
132 152 0
143 163 0
137 158 0
135 155 0
140 160 0
136 156 0
142 162 0
141 162 0
146 167 0
139 159 0
146 166 0
146 167 0
137 158 0
132 153 0
137 159 0
139 158 0
136 157 0
138 159 0
136 158 0
134 154 0
136 157 0
143 164 0
141 162 0
143 164 0
145 166 0
146 167 0
138 159 0
136 157 0
138 160 0
140 160 0
138 159 0
145 166 0
134 155 0
142 164 0
135 156 0
147 167 0
144 166 0
145 165 0
140 162 0
147 168 0
140 161 0
139 161 0
140 161 0
142 164 0
148 170 0
151 173 0
143 164 0
147 167 0
138 158 0
141 161 0
156 177 0
147 167 0
146 167 0
140 161 0
145 167 0
136 158 0
140 162 0
147 168 0
148 169 0
147 168 0
141 162 0
149 170 0
147 171 0
151 172 0
143 165 0
147 169 0
145 167 0
144 165 0
149 169 0
153 174 0
145 168 0
147 168 0
138 158 0
151 172 0
146 168 0
153 174 0
150 171 0
154 175 0
147 168 0
142 162 0
148 169 0
143 164 0
147 169 0
155 177 0
158 180 0
144 164 0
150 171 0
156 177 0
151 171 0
156 177 0
151 172 0
155 176 0
152 175 0
149 170 0
148 168 0
155 179 0
154 175 0
149 171 0
157 179 0
153 175 0
160 181 0
158 178 0
150 171 0
149 169 0
153 174 0
160 181 0
155 177 0
162 184 0
155 175 0
157 180 0
157 178 0
159 180 0
157 179 0
162 185 0
156 178 0
159 182 0
157 177 0
158 181 0
160 181 0
160 182 0
162 182 0
158 180 0
160 182 0
162 184 0
155 177 0
158 179 0
159 181 0
160 182 0
153 175 0
164 184 0
162 184 0
163 185 0
162 183 0
158 180 0
158 178 0
155 176 0
160 182 0
161 182 0
160 181 0
158 181 0
158 180 0
164 187 0
156 179 0
163 185 0
170 193 0
164 186 0
164 184 0
160 182 0
157 179 0
160 182 0
155 177 0
160 182 0
160 181 0
164 186 0
167 189 0
158 179 0
159 180 0
164 184 0
163 183 0
162 184 0
162 185 0
163 184 0
167 189 0
162 183 0
162 185 0
166 186 0
166 187 0
165 188 0
164 186 0
164 185 0
162 184 0
165 186 0
162 184 0
161 182 0
161 184 0
161 183 0
167 188 0
166 187 0
166 187 0
168 190 0
165 187 0
163 185 0
164 186 0
161 181 0
165 188 0
169 190 0
167 188 0
167 189 0
164 185 0
166 188 0
164 185 0
166 189 0
164 186 0
165 188 0
166 187 0
166 187 0
166 189 0
165 186 0
166 188 0
162 184 0
165 187 0
166 186 0
168 190 0
165 186 0
168 190 0
166 187 0
166 188 0
167 188 0
168 191 0
168 189 0
164 185 0
164 185 0
166 188 0
166 189 0
165 188 0
168 189 0
169 191 0
170 193 0
177 199 105
172 195 88
173 195 80
175 198 102
175 198 105
178 201 105
173 196 80
176 198 88
173 196 99
171 194 105
174 197 111
175 198 99
171 195 102
172 195 108
171 195 99
172 195 102
168 191 80
171 194 102
172 194 92
172 195 95
172 195 102
172 195 102
172 195 92
167 190 95
167 189 95
168 192 80
172 195 92
174 196 102
172 196 114
168 191 95
170 193 99
168 190 80
169 191 84
172 195 92
167 190 102
171 194 102
171 193 84
170 193 95
172 194 108
166 189 67
164 186 105
164 187 92
170 193 88
169 192 92
166 189 92
168 190 102
163 186 92
162 185 62
164 187 111
168 191 105
163 186 88
161 183 88
170 192 117
167 190 99
153 175 84
167 190 92
162 185 88
163 186 76
159 182 88
169 191 72
163 186 76
166 189 95
162 185 102
166 188 105
162 184 95
159 181 84
163 185 95
159 181 80
164 186 92
166 188 102
156 177 80
166 188 99
165 185 95
160 182 92
168 190 99
152 174 84
170 191 105
165 187 105
166 187 99
160 181 108
163 183 88
161 182 80
166 186 84
162 183 99
159 181 88
166 188 99
159 180 102
164 184 99
167 188 111
156 177 80
171 192 111
163 185 111
169 191 95
155 175 99
166 187 117
162 183 80
155 176 99
156 177 76
158 178 84
156 177 76
151 173 84
160 181 95
162 181 117
161 181 88
160 181 92
156 177 92
151 171 80
161 181 95
160 181 80
151 171 92
158 179 76
163 183 84
153 175 57
155 176 67
148 169 67
146 167 36
143 164 51
155 176 67
152 173 44
150 172 36
150 170 51
147 168 51
146 167 25
150 173 44
152 173 44
144 165 0
150 173 36
151 173 44
156 177 0
154 177 0
152 174 0
148 169 0
150 172 0
152 173 25
150 171 0
157 181 0
141 162 0
151 174 25
146 166 0
142 164 0
149 170 0
148 169 0
150 172 0
153 175 0
153 174 0
152 173 0
150 171 0
144 166 0
147 169 0
144 166 0
145 166 0
144 164 0
143 164 0
134 156 0
134 155 0
138 157 0
140 161 0
143 164 0
130 151 0
141 162 0
128 149 0
141 162 0
137 157 0
143 163 0
134 154 0
138 158 0
140 160 0
142 164 0
138 159 0
130 151 0
129 148 0
132 153 0
130 151 0
139 160 0
142 163 0
133 154 0
127 148 0
137 157 0
139 159 0
138 158 0
145 166 0
136 156 0
134 154 0
140 161 0
139 160 0
129 150 0
131 152 0
138 157 0
141 163 0
133 155 0
134 155 0
137 157 0
145 166 0
134 155 0
143 165 0
134 155 0
138 159 0
135 156 0
137 157 0
145 165 0
141 163 0
145 166 0
143 163 0
137 156 0
136 156 0
147 168 0
133 154 0
144 165 0
137 157 0
133 154 0
127 149 0
148 168 0
132 153 0
134 154 0
139 160 0
132 152 0
131 151 0
143 165 0
147 168 0
133 153 0
137 158 0
140 159 0
139 160 0
138 160 0
138 160 0
153 175 0
144 166 0
143 163 0
153 175 0
146 168 0
145 166 0
138 159 0
140 160 0
140 161 0
144 166 0
152 173 0
149 169 0
146 167 0
157 178 0
149 172 0
148 170 0
153 174 0
147 169 0
149 171 0
142 162 0
147 169 0
157 179 0
147 168 0
141 163 0
147 168 0
157 179 0
149 170 0
148 168 0
151 173 0
157 178 0
157 179 0
157 178 0
149 171 0
148 170 0
149 171 0
148 170 0
147 169 0
149 170 0
148 171 0
152 174 0
150 171 0
151 173 0
147 168 0
155 178 0
155 177 0
157 179 0
154 176 0
153 174 0
154 174 0
147 167 0
153 175 0
155 177 0
152 173 0
154 177 0
154 175 0
155 176 0
154 177 0
151 173 0
156 177 0
156 177 0
162 183 0
154 177 0
161 182 0
158 180 0
152 173 0
159 181 0
163 183 0
159 182 0
157 178 0
157 178 0
159 180 0
158 181 0
157 179 0
166 189 0
160 182 0
158 179 0
156 176 0
152 173 0
160 181 0
159 180 0
158 179 0
155 176 0
164 185 0
154 174 0
163 185 0
159 180 0
163 185 0
158 179 0
159 181 0
163 184 0
159 180 0
155 177 0
166 188 0
159 180 0
164 187 0
161 182 0
159 181 0
158 179 0
160 180 0
166 187 0
161 183 0
158 180 0
164 184 0
166 188 0
165 187 0
162 184 0
165 188 0
166 189 0
162 184 0
156 177 0
161 183 0
162 183 0
164 185 0
162 183 0
165 186 0
164 188 0
159 182 0
169 191 0
163 186 0
162 183 0
163 186 0
167 190 0
164 186 0
164 186 0
156 178 0
166 188 0
161 183 0
163 186 0
163 183 0
165 188 0
163 185 0
161 182 0
157 179 0
167 189 0
167 189 0
164 186 0
166 187 0
169 191 0
164 186 0
167 190 0
168 190 0
164 185 0
166 187 0
163 184 0
168 190 0
167 189 0
167 189 0
167 189 0
166 189 0
164 187 0
163 184 0
168 189 0
167 190 0
164 186 0
167 189 0
168 191 0
167 190 0
160 182 0
166 187 0
165 187 0
164 186 0
165 187 0
165 187 0
171 193 0
165 187 0
170 193 0
169 193 0
166 189 0
166 186 0
171 193 0
164 186 0
169 191 0
163 185 0
166 188 0
168 190 0
175 199 120
171 193 97
171 194 80
171 194 92
167 191 76
177 200 114
179 201 114
170 193 84
175 197 108
177 199 102
174 196 102
181 204 117
170 193 99
166 190 76
171 194 99
176 198 92
167 190 99
171 194 102
167 191 99
175 198 105
172 195 76
172 194 108
171 194 92
170 193 95
171 194 92
169 192 102
172 196 105
174 196 117
167 190 108
169 192 114
171 194 114
165 188 92
169 192 105
167 190 105
170 194 95
169 192 108
168 191 105
167 191 105
169 192 102
168 192 92
171 194 105
166 188 105
167 190 114
165 188 108
161 185 99
168 191 95
166 190 117
170 192 99
165 187 72
171 194 117
169 192 105
165 186 84
166 189 92
162 185 84
164 186 111
172 195 95
163 186 99
157 179 95
164 186 111
161 184 88
165 188 105
164 187 88
163 186 72
160 181 72
165 187 99
158 180 88
165 187 88
166 187 95
155 175 80
169 190 108
162 185 99
160 183 88
167 189 120
160 181 95
167 188 99
167 189 80
167 189 99
165 186 84
170 191 111
156 177 88
163 185 117
169 191 122
159 181 111
158 178 99
168 189 102
165 186 111
164 186 99
160 181 80
162 183 72
156 178 111
164 186 92
164 185 102
153 174 84
148 169 76
155 174 95
163 184 95
155 175 108
154 175 67
165 185 88
156 177 84
155 175 95
157 177 72
161 181 88
150 170 76
153 173 80
155 175 76
159 180 92
154 175 72
155 176 80
158 179 51
158 179 76
149 169 72
150 171 36
151 173 44
152 173 76
149 171 57
158 180 84
149 169 36
154 174 51
147 169 0
153 176 51
149 171 0
146 168 25
154 175 0
151 174 0
146 168 36
153 174 0
157 179 0
158 180 25
162 184 0
152 175 0
160 182 0
154 177 0
156 179 0
157 179 0
158 179 25
149 171 0
159 182 0
149 171 0
153 175 0
147 169 0
159 182 0
147 167 0
148 169 0
142 162 0
155 176 0
145 166 0
142 163 25
143 165 0
139 160 0
137 158 0
134 157 0
142 164 0
146 167 0
153 174 0
128 149 0
134 154 0
137 158 0
137 159 0
139 160 0
140 160 0
138 158 0
146 167 0
143 164 0
134 154 0
140 162 0
133 154 0
141 163 0
139 159 0
137 158 0
142 162 0
134 155 0
144 164 0
147 169 0
149 170 0
142 162 0
133 154 0
140 161 0
144 165 0
135 154 0
132 153 0
143 164 0
144 165 0
134 155 0
130 150 0
140 160 0
139 160 0
139 159 0
137 158 0
130 152 0
139 160 0
139 161 0
141 161 0
129 150 0
139 160 0
131 152 0
148 170 0
138 158 0
143 164 0
139 158 0
138 159 0
133 155 0
140 162 0
153 174 0
143 165 0
143 164 0
144 165 0
140 161 0
147 169 0
138 159 0
138 160 0
140 161 0
139 159 0
144 166 0
147 168 0
137 158 0
145 166 0
134 155 0
150 171 0
147 168 0
146 167 0
128 149 0
144 166 0
137 157 0
138 158 0
148 171 0
149 170 0
139 160 0
141 162 0
138 159 0
136 158 0
150 172 0
147 169 0
152 174 0
144 167 0
147 167 0
153 175 0
148 170 0
149 171 0
140 160 0
148 169 0
145 167 0
142 163 0
152 173 0
144 165 0
145 168 0
144 166 0
154 175 0
150 172 0
152 174 0
144 165 0
155 177 0
152 172 0
149 170 0
154 176 0
147 169 0
153 175 0
153 175 0
149 171 0
155 177 0
147 169 0
156 177 0
146 168 0
156 177 0
152 174 0
154 177 0
155 177 0
153 174 0
153 174 0
146 167 0
157 179 0
154 175 0
153 175 0
157 179 0
153 175 0
154 177 0
153 175 0
155 178 0
157 178 0
159 181 0
156 178 0
158 179 0
156 180 0
157 179 0
160 181 0
149 171 0
163 184 0
158 180 0
162 182 0
159 180 0
152 174 0
159 180 0
163 185 0
159 180 0
157 178 0
161 183 0
157 179 0
156 177 0
158 180 0
157 179 0
154 176 0
160 183 0
161 184 0
159 181 0
159 182 0
155 177 0
162 183 0
159 182 0
163 185 0
155 177 0
162 186 0
156 179 0
159 182 0
161 182 0
162 184 0
160 182 0
162 184 0
158 178 0
162 185 0
168 189 0
152 173 0
161 184 0
160 182 0
157 179 0
164 186 0
162 183 0
161 182 0
161 182 0
164 186 0
163 184 0
161 183 0
160 182 0
165 188 0
160 182 0
161 183 0
159 181 0
158 179 0
162 183 0
164 185 0
163 185 0
161 185 0
167 189 0
167 189 0
168 191 0
162 184 0
164 187 0
161 183 0
163 183 0
161 185 0
165 187 0
165 187 0
164 187 0
164 186 0
163 185 0
164 188 0
168 191 0
166 189 0
164 187 0
163 186 0
164 186 0
162 184 0
162 184 0
169 190 0
163 186 0
166 188 0
165 186 0
166 188 0
160 180 0
165 187 0
167 187 0
166 189 0
162 186 0
166 189 0
163 185 0
162 184 0
163 185 0
162 184 0
168 189 0
166 187 0
165 185 0
165 187 0
169 190 0
168 191 0
167 188 0
165 186 0
168 191 0
167 188 0
169 192 0
167 189 0
167 188 0
165 187 0
170 192 0
170 193 0
167 190 0
168 190 0
169 192 0
166 187 0
168 190 0
169 190 0
166 188 0
177 199 114
173 196 82
174 196 102
172 195 114
175 199 105
178 202 105
172 195 88
169 192 84
173 196 111
174 196 95
175 199 120
172 196 95
173 197 108
172 194 95
169 192 95
172 195 84
168 191 57
172 195 99
173 195 102
170 193 80
170 193 95
171 194 92
171 194 95
167 190 92
171 194 102
167 190 84
170 192 92
166 189 95
166 189 95
162 184 92
170 194 102
170 192 80
170 193 102
171 195 108
174 197 111
167 190 111
168 191 92
165 188 99
167 190 95
170 193 102
171 194 95
172 195 105
170 192 95
165 189 108
171 193 117
168 190 84
167 189 95
169 192 84
158 181 99
166 188 102
165 187 80
166 188 105
164 188 102
165 187 95
171 193 108
166 189 84
162 185 88
168 190 114
168 190 84
164 185 92
172 194 92
166 187 102
165 187 105
168 190 92
157 180 88
164 186 95
170 192 102
166 189 108
163 184 72
161 183 80
164 187 114
162 183 99
161 183 99
162 183 95
167 190 105
165 186 102
160 182 88
166 187 105
169 190 114
163 183 111
161 183 105
159 180 102
162 181 88
161 181 76
161 181 92
154 176 92
159 180 92
167 188 111
161 182 99
166 186 105
151 172 88
155 175 111
161 182 84
166 187 111
159 180 84
160 181 99
157 178 80
149 169 76
157 178 72
151 171 72
151 172 72
148 169 57
157 178 76
161 181 105
163 183 88
160 180 88
161 181 84
157 178 62
146 167 67
157 178 80
154 175 80
159 180 72
154 174 51
158 179 57
145 167 25
149 170 44
152 174 36
152 173 57
153 174 72
151 172 51
150 172 25
153 173 44
152 173 0
143 166 25
150 173 25
154 175 36
150 172 0
156 178 51
156 177 36
153 175 0
157 178 25
148 169 0
148 170 0
157 179 25
151 173 25
156 179 0
154 176 0
157 177 0
153 175 0
149 172 0
154 176 0
148 170 0
158 181 0
156 178 0
147 168 0
146 167 25
143 164 0
141 162 0
135 156 0
142 164 0
133 155 0
152 172 0
149 169 0
138 159 0
133 154 0
144 166 0
152 173 0
136 156 0
145 167 0
139 160 0
146 166 0
142 163 0
136 156 0
124 145 0
143 163 0
140 162 0
150 171 0
137 157 0
138 158 0
139 160 0
138 159 0
139 160 0
142 163 0
138 158 0
140 161 0
137 158 0
148 169 0
139 161 0
144 166 0
140 162 0
139 160 0
134 155 0
141 162 0
139 161 0
136 158 0
136 158 0
142 163 0
148 169 0
141 162 0
136 156 0
138 158 0
146 167 0
130 151 0
134 156 0
147 168 0
143 163 0
139 160 0
134 156 0
146 166 0
143 164 0
139 160 0
142 163 0
144 164 0
126 146 0
144 165 0
137 159 0
143 164 0
143 165 0
140 161 0
144 165 0
147 169 0
138 158 0
137 159 0
146 168 0
145 167 0
141 163 0
149 170 0
141 162 0
150 172 0
150 170 0
136 157 0
151 172 0
137 159 0
143 166 0
151 172 0
149 170 0
143 164 0
133 154 0
140 161 0
150 172 0
151 172 0
147 170 0
151 173 0
148 169 0
143 165 0
155 177 0
149 171 0
145 166 0
149 170 0
144 166 0
148 169 0
145 168 0
149 169 0
142 164 0
150 171 0
153 175 0
142 163 0
139 162 0
149 170 0
149 171 0
146 168 0
152 173 0
149 170 0
150 173 0
158 179 0
159 179 0
152 174 0
155 177 0
153 174 0
150 172 0
157 180 0
148 169 0
142 163 0
144 165 0
152 173 0
151 174 0
149 170 0
153 176 0
150 171 0
155 176 0
149 171 0
149 172 0
155 178 0
156 178 0
152 175 0
156 176 0
157 178 0
157 177 0
153 175 0
153 175 0
159 181 0
155 177 0
157 179 0
157 178 0
161 183 0
155 177 0
159 181 0
161 184 0
160 182 0
154 176 0
161 183 0
152 173 0
162 183 0
161 182 0
157 176 0
162 183 0
157 179 0
158 179 0
157 178 0
155 177 0
160 183 0
164 186 0
160 182 0
164 187 0
153 176 0
162 184 0
161 182 0
159 182 0
159 181 0
161 183 0
162 183 0
160 183 0
156 175 0
159 180 0
156 179 0
162 183 0
161 182 0
159 180 0
159 181 0
162 183 0
161 184 0
160 181 0
156 178 0
166 187 0
160 181 0
167 190 0
161 183 0
165 187 0
163 183 0
160 182 0
160 182 0
159 180 0
166 189 0
165 187 0
159 179 0
163 187 0
164 185 0
163 185 0
164 186 0
164 187 0
165 187 0
167 188 0
167 189 0
164 187 0
161 182 0
161 182 0
163 184 0
161 182 0
165 188 0
163 186 0
163 184 0
163 185 0
165 186 0
161 184 0
165 187 0
164 187 0
162 185 0
161 183 0
165 186 0
166 188 0
166 187 0
165 187 0
166 187 0
164 187 0
162 184 0
166 187 0
163 184 0
168 190 0
165 186 0
166 186 0
167 190 0
165 188 0
165 187 0
168 191 0
166 187 0
168 191 0
166 187 0
166 187 0
168 191 0
165 187 0
165 186 0
167 189 0
166 187 0
167 187 0
164 186 0
167 190 0
169 191 0
173 195 0
167 189 0
167 189 0
169 193 0
170 193 0
167 189 0
168 190 0
169 191 0
168 190 0
167 190 0
171 194 0
165 188 0
168 191 0
173 195 94
175 197 102
171 194 95
174 196 94
168 191 95
170 194 84
173 196 99
174 196 111
175 198 117
171 195 95
175 198 105
170 193 84
177 199 99
172 194 102
171 194 95
172 195 102
173 196 108
170 193 95
170 193 95
174 196 99
169 192 99
171 194 76
163 187 88
170 192 84
172 195 99
172 195 84
169 193 92
173 196 88
167 191 84
162 184 84
172 195 105
169 192 95
162 184 80
170 194 117
166 189 95
168 191 92
168 191 111
168 190 76
168 191 108
169 192 92
166 188 80
167 190 105
166 188 84
162 185 88
167 191 114
169 191 92
171 194 114
166 189 80
171 193 76
166 188 84
168 191 114
162 185 92
166 188 102
165 187 92
168 190 108
164 185 95
164 187 105
166 188 88
164 187 88
162 184 102
172 194 105
167 189 111
163 185 80
163 185 95
165 187 84
161 183 80
154 177 92
154 176 95
169 190 105
166 188 95
158 181 92
160 183 95
160 182 80
154 176 92
167 188 105
164 186 105
153 174 72
160 180 102
161 182 80
158 179 84
159 180 92
166 186 95
167 188 117
154 175 95
164 185 92
156 178 84
165 187 111
168 190 88
166 186 99
157 177 76
164 185 72
151 171 84
160 181 95
158 178 99
157 178 92
164 185 88
161 181 80
159 179 84
168 188 105
150 171 88
154 175 72
160 181 88
157 177 92
165 185 102
153 174 84
160 181 67
156 176 72
155 176 51
158 179 67
156 176 76
165 185 76
147 168 36
149 170 67
160 183 62
162 183 72
144 165 44
157 178 62
153 175 67
151 173 51
147 169 25
161 183 51
157 179 25
147 168 44
150 171 25
149 171 25
156 179 44
149 171 25
144 166 25
156 178 36
163 185 25
155 178 0
159 182 25
156 178 0
154 176 0
153 175 0
161 183 0
153 175 0
150 172 0
151 174 0
147 169 0
145 168 0
148 170 0
144 166 0
146 168 0
147 169 0
150 172 0
149 170 0
147 169 0
132 152 0
145 166 0
136 157 0
147 169 0
144 165 0
137 159 0
140 162 0
142 163 0
138 160 0
139 160 0
140 162 0
137 158 0
141 162 0
136 157 0
137 158 0
143 164 0
139 160 0
139 160 0
147 168 0
139 161 0
140 161 0
148 169 0
143 163 0
141 161 0
139 161 0
144 165 0
144 166 0
135 156 0
141 161 0
133 155 0
141 162 0
139 160 0
143 164 0
137 158 0
133 154 0
144 165 0
142 163 0
140 160 0
133 154 0
144 165 0
131 152 0
140 160 0
135 156 0
145 165 0
144 165 0
138 160 0
148 170 0
138 159 0
135 156 0
137 158 0
148 169 0
135 156 0
137 158 0
142 163 0
147 168 0
142 162 0
138 160 0
143 163 0
144 165 0
140 161 0
143 164 0
141 162 0
147 168 0
145 165 0
141 163 0
149 169 0
145 167 0
149 170 0
144 166 0
146 167 0
148 169 0
138 159 0
143 165 0
137 158 0
139 161 0
148 169 0
146 167 0
151 174 0
151 173 0
146 167 0
140 161 0
140 161 0
147 169 0
147 169 0
149 169 0
147 169 0
143 164 0
143 163 0
147 170 0
145 166 0
149 170 0
145 165 0
150 171 0
149 170 0
144 166 0
154 177 0
142 164 0
139 162 0
149 172 0
156 178 0
149 170 0
151 172 0
152 173 0
157 178 0
145 167 0
155 176 0
151 172 0
150 172 0
157 179 0
151 172 0
151 173 0
155 177 0
144 165 0
155 178 0
148 171 0
156 179 0
154 175 0
156 178 0
152 174 0
156 178 0
155 175 0
154 176 0
152 171 0
157 178 0
158 179 0
147 169 0
149 172 0
152 174 0
156 178 0
157 179 0
147 169 0
159 181 0
157 179 0
157 179 0
161 184 0
155 176 0
159 179 0
157 178 0
153 174 0
159 181 0
154 175 0
161 184 0
156 179 0
160 183 0
158 180 0
161 184 0
159 181 0
161 182 0
152 174 0
160 181 0
156 178 0
164 186 0
159 181 0
159 182 0
163 185 0
165 187 0
163 184 0
157 179 0
167 189 0
159 180 0
163 185 0
156 177 0
160 182 0
163 184 0
158 179 0
161 183 0
162 185 0
156 178 0
159 181 0
163 185 0
160 181 0
162 184 0
160 182 0
157 178 0
165 186 0
163 185 0
162 185 0
164 185 0
162 184 0
164 186 0
164 186 0
166 188 0
162 182 0
158 179 0
161 182 0
169 191 0
164 186 0
165 187 0
155 178 0
161 184 0
164 188 0
163 184 0
166 188 0
164 186 0
161 182 0
162 185 0
164 187 0
164 186 0
167 189 0
164 186 0
163 185 0
166 188 0
161 182 0
170 192 0
165 187 0
165 186 0
167 189 0
164 187 0
165 187 0
165 188 0
163 187 0
162 183 0
165 187 0
160 183 0
164 187 0
165 185 0
166 188 0
165 187 0
166 189 0
159 181 0
162 185 0
169 191 0
167 189 0
167 189 0
167 188 0
169 191 0
166 188 0
168 189 0
167 189 0
165 187 0
168 190 0
163 185 0
168 189 0
163 185 0
169 190 0
168 190 0
170 193 0
166 188 0
165 186 0
165 188 0
164 186 0
169 191 0
166 188 0
166 188 0
167 188 0
164 185 0
168 191 0
170 193 0
167 190 0
170 191 0
172 195 0
167 190 0
174 195 105
171 195 102
176 198 107
174 198 99
173 195 108
175 198 95
174 197 80
167 190 88
171 194 95
174 196 84
171 193 84
169 192 99
172 195 92
168 191 92
173 195 105
171 194 102
174 197 80
169 192 88
171 194 76
170 193 84
169 192 102
172 195 95
169 192 92
168 191 72
169 191 92
168 192 108
168 190 102
170 194 92
169 191 99
171 194 99
169 192 95
164 187 84
167 190 88
167 190 92
176 198 105
165 188 76
170 192 84
168 191 102
164 186 84
168 191 95
166 188 99
164 186 76
169 191 95
171 194 105
165 188 102
164 186 80
168 189 88
161 183 72
167 190 88
170 192 117
164 187 99
163 184 117
168 191 88
166 188 88
166 187 95
169 191 88
170 193 117
160 182 95
161 183 105
169 191 102
169 191 102
158 180 76
161 183 84
162 184 117
166 188 95
160 181 92
168 189 102
167 188 80
170 192 95
158 181 80
168 190 99
163 185 122
162 183 102
161 183 88
160 182 95
163 186 99
161 182 72
164 185 99
161 182 88
162 184 95
170 191 108
160 180 92
165 187 92
161 182 76
167 189 95
166 187 92
160 181 102
165 186 76
155 176 84
159 180 105
159 180 84
163 183 105
155 176 108
160 182 80
153 174 95
162 183 80
152 173 76
161 183 76
157 179 88
156 178 88
159 180 99
162 182 92
161 182 88
165 186 88
161 181 80
155 175 88
157 178 80
151 172 80
160 181 62
157 177 67
162 183 67
159 180 57
153 174 57
148 169 57
160 181 57
153 174 36
150 172 25
158 179 44
143 166 25
154 176 44
154 176 44
155 177 25
153 174 51
151 173 0
157 179 0
149 172 36
156 179 0
155 178 0
153 175 0
155 177 0
155 176 0
155 177 25
154 175 25
148 170 0
155 175 0
158 179 0
148 170 0
155 179 0
162 183 0
155 178 0
152 174 0
154 176 0
150 172 0
146 168 0
150 172 0
153 174 0
148 170 0
138 160 0
151 173 0
141 162 0
151 172 0
136 157 0
138 160 0
143 164 0
140 161 0
140 161 0
149 170 0
144 165 0
145 166 0
152 173 0
138 159 0
140 161 0
127 148 0
144 165 0
132 152 0
144 164 0
134 155 0
143 164 0
140 161 0
147 167 0
143 164 0
143 163 0
146 166 0
141 162 0
136 158 0
144 165 0
138 159 0
143 164 0
146 167 0
141 163 0
140 160 0
138 160 0
144 166 0
143 164 0
153 175 0
141 161 0
142 163 0
141 162 0
136 156 0
136 156 0
141 162 0
135 156 0
140 162 0
143 165 0
139 160 0
138 159 0
134 156 0
142 163 0
136 156 0
147 169 0
144 166 0
154 176 0
141 162 0
146 167 0
139 160 0
152 174 0
147 168 0
143 165 0
142 162 0
143 165 0
137 158 0
130 153 0
143 165 0
143 164 0
141 163 0
145 166 0
146 167 0
137 159 0
145 166 0
146 167 0
141 163 0
154 177 0
144 164 0
151 174 0
147 169 0
142 164 0
147 169 0
148 169 0
146 167 0
148 169 0
145 167 0
150 171 0
147 167 0
139 160 0
146 167 0
142 162 0
146 167 0
148 171 0
152 173 0
149 169 0
147 170 0
147 169 0
151 174 0
142 164 0
154 176 0
152 174 0
142 163 0
148 170 0
154 176 0
142 163 0
151 174 0
154 175 0
144 166 0
152 173 0
149 171 0
149 171 0
143 164 0
154 176 0
154 175 0
148 169 0
157 179 0
152 173 0
161 181 0
152 173 0
150 172 0
144 165 0
156 178 0
156 177 0
155 178 0
149 171 0
147 168 0
154 176 0
156 177 0
153 175 0
151 172 0
154 175 0
156 175 0
160 183 0
156 177 0
158 179 0
159 182 0
158 180 0
157 179 0
160 182 0
159 181 0
153 174 0
157 178 0
151 174 0
155 176 0
158 181 0
152 175 0
162 185 0
158 180 0
159 181 0
166 188 0
158 180 0
158 179 0
160 183 0
163 185 0
155 176 0
156 177 0
159 181 0
162 185 0
158 181 0
159 181 0
158 181 0
167 190 0
159 181 0
164 185 0
159 180 0
165 187 0
163 186 0
157 178 0
157 178 0
155 177 0
167 189 0
156 178 0
163 187 0
155 176 0
165 188 0
160 183 0
167 189 0
163 185 0
162 184 0
165 187 0
165 188 0
161 183 0
160 182 0
161 182 0
160 182 0
164 185 0
161 183 0
162 185 0
159 181 0
163 185 0
160 181 0
168 189 0
165 188 0
163 185 0
166 189 0
160 181 0
164 185 0
166 187 0
167 189 0
166 187 0
163 185 0
162 183 0
168 189 0
166 188 0
166 187 0
161 183 0
164 186 0
162 183 0
160 182 0
163 185 0
167 188 0
168 190 0
166 187 0
164 183 0
164 187 0
166 188 0
167 189 0
168 190 0
161 185 0
165 187 0
167 189 0
162 184 0
168 189 0
163 185 0
164 184 0
164 186 0
167 191 0
165 187 0
165 187 0
167 190 0
166 189 0
169 191 0
166 188 0
166 189 0
163 186 0
161 183 0
163 185 0
165 187 0
165 188 0
169 191 0
166 189 0
166 188 0
164 186 0
172 193 0
168 191 0
168 190 0
167 189 0
167 189 0
164 186 0
165 187 0
169 191 0
172 194 0
168 190 0
164 186 0
165 186 0
174 198 90
175 198 100
177 200 111
177 200 99
171 193 103
170 193 99
172 195 95
173 196 95
174 197 88
172 194 72
168 190 76
174 197 99
173 196 92
169 191 84
171 194 95
174 197 105
170 193 102
175 198 95
174 196 117
170 193 105
175 197 99
170 191 88
171 194 99
171 193 88
173 196 99
168 191 102
170 193 102
172 195 105
164 187 92
171 194 84
174 197 102
168 191 88
170 192 108
165 189 84
171 193 102
174 196 105
169 191 105
167 189 84
170 193 95
173 196 95
170 193 117
168 191 102
168 190 88
169 191 102
171 193 105
169 192 84
170 193 95
159 181 76
164 186 76
170 192 105
169 190 95
164 186 95
167 189 76
169 191 88
167 189 114
168 191 108
168 189 102
163 185 108
159 182 92
167 189 95
164 185 84
166 187 95
171 194 108
162 184 76
168 190 111
160 183 80
157 179 76
167 189 102
164 185 67
166 187 84
161 184 80
156 177 76
165 187 84
163 183 67
168 189 76
164 186 102
158 179 88
161 183 120
154 176 80
161 183 95
164 185 84
166 187 105
169 190 111
154 174 80
163 184 95
162 183 88
160 181 99
159 180 95
152 174 72
163 185 88
159 180 67
157 178 102
162 183 111
163 184 88
160 182 67
162 183 95
153 175 80
166 187 95
159 180 80
157 177 76
153 174 76
145 165 76
169 189 102
158 179 76
157 177 84
154 175 72
158 180 72
157 178 62
156 177 44
157 177 72
156 176 72
160 181 51
166 186 67
151 172 57
138 160 36
148 169 57
150 172 25
151 172 57
158 179 57
150 172 36
148 170 44
158 179 44
156 179 0
161 183 25
152 175 44
151 174 0
151 173 0
149 171 0
157 180 36
155 179 25
162 184 25
154 176 0
161 184 0
163 185 0
158 180 0
154 176 0
160 183 0
156 177 0
152 174 0
155 177 0
151 172 0
158 181 0
146 169 0
150 170 0
146 168 0
152 175 0
147 168 0
153 174 0
145 166 0
148 169 0
149 171 0
143 164 0
150 171 0
138 159 0
150 172 0
144 165 0
149 171 0
140 161 0
144 166 0
143 164 0
146 168 0
137 158 0
141 163 0
141 161 0
144 165 0
146 167 0
146 167 0
134 155 0
136 157 0
140 162 0
136 158 0
147 167 0
141 164 0
140 162 0
142 163 0
140 161 0
138 159 0
136 159 0
139 160 0
145 166 0
133 155 0
149 171 0
138 158 0
146 168 0
148 169 0
140 162 0
145 167 0
137 158 0
143 165 0
136 158 0
139 160 0
144 166 0
140 162 0
142 163 0
140 162 0
148 169 0
135 155 0
138 160 0
140 160 0
147 168 0
145 167 0
153 174 0
145 167 0
150 170 0
141 163 0
145 167 0
143 165 0
145 166 0
138 160 0
144 164 0
143 164 0
143 164 0
141 163 0
142 163 0
151 172 0
153 174 0
154 176 0
147 169 0
152 173 0
149 170 0
149 170 0
139 160 0
152 173 0
146 167 0
148 170 0
153 175 0
141 164 0
140 162 0
152 173 0
150 172 0
143 165 0
143 163 0
154 176 0
148 170 0
153 174 0
146 167 0
157 180 0
142 164 0
142 164 0
153 175 0
150 173 0
145 166 0
142 164 0
150 172 0
157 179 0
150 172 0
149 168 0
151 172 0
155 176 0
155 178 0
152 174 0
146 167 0
154 175 0
152 173 0
154 176 0
154 176 0
151 173 0
149 170 0
155 175 0
156 179 0
151 174 0
158 179 0
146 167 0
159 181 0
153 175 0
156 178 0
157 178 0
152 174 0
154 176 0
156 177 0
159 181 0
159 181 0
156 178 0
155 177 0
159 181 0
154 177 0
158 180 0
151 173 0
151 173 0
156 178 0
155 177 0
155 177 0
159 181 0
154 175 0
159 181 0
160 183 0
157 177 0
165 188 0
157 179 0
161 182 0
157 179 0
161 183 0
160 182 0
149 170 0
152 175 0
151 173 0
159 181 0
158 178 0
148 169 0
165 187 0
159 181 0
151 173 0
160 182 0
159 181 0
163 185 0
165 186 0
161 183 0
164 186 0
159 181 0
164 185 0
161 184 0
162 184 0
165 186 0
164 187 0
161 184 0
157 178 0
157 178 0
163 186 0
161 184 0
162 184 0
166 186 0
156 177 0
163 185 0
160 182 0
163 184 0
160 183 0
162 185 0
160 183 0
166 188 0
163 186 0
161 182 0
162 185 0
162 182 0
165 186 0
166 188 0
158 177 0
162 185 0
163 185 0
162 184 0
162 184 0
168 190 0
167 188 0
160 182 0
163 183 0
169 191 0
165 188 0
162 182 0
165 189 0
167 188 0
159 181 0
160 182 0
160 182 0
164 186 0
167 188 0
163 186 0
166 187 0
165 186 0
168 189 0
166 188 0
164 188 0
168 191 0
166 188 0
163 184 0
166 188 0
165 187 0
166 186 0
163 184 0
164 185 0
168 191 0
165 187 0
168 190 0
168 191 0
168 190 0
164 186 0
166 187 0
168 190 0
165 186 0
167 190 0
163 185 0
168 190 0
168 190 0
166 188 0
169 193 0
167 191 0
166 188 0
165 186 0
164 187 0
168 190 0
169 190 0
169 193 0
168 190 0
162 183 0
163 184 0
169 190 0
164 186 0
166 187 0
163 186 0
167 190 0
167 189 0
165 188 0
